;FLAVOR:Marlin
;TIME:4035
;Filament used: 2.90465m
;Layer height: 0.2
;MINX:59.158
;MINY:82.868
;MINZ:0.2
;MAXX:160.858
;MAXY:137.132
;MAXZ:15
;Generated with Cura_SteamEngine 4.2.1
M140 S50
M105
M190 S50
M104 S200
M105
M109 S200
M82 ;absolute extrusion mode
M201 X500.00 Y500.00 Z100.00 E5000.00 ;Setup machine max acceleration
M203 X500.00 Y500.00 Z10.00 E50.00 ;Setup machine max feedrate
M204 P500.00 R1000.00 T500.00 ;Setup Print/Retract/Travel acceleration
M205 X8.00 Y8.00 Z0.40 E5.00 ;Setup Jerk
M220 S100 ;Reset Feedrate
M221 S100 ;Reset Flowrate

G28 ;Home

G92 E0 ;Reset Extruder
G1 Z2.0 F3000 ;Move Z Axis up
G1 X10.1 Y20 Z0.28 F5000.0 ;Move to start position
G1 X10.1 Y200.0 Z0.28 F1500.0 E15 ;Draw the first line
G1 X10.4 Y200.0 Z0.28 F5000.0 ;Move to side a little
G1 X10.4 Y20 Z0.28 F1500.0 E30 ;Draw the second line
G92 E0 ;Reset Extruder
G1 Z2.0 F3000 ;Move Z Axis up

M141 S28
G92 E0
G92 E0
G1 F2700 E-5
;LAYER_COUNT:75
;LAYER:0
M107
G0 F6000 X65.158 Y106.699 Z0.2
;TYPE:SKIRT
G1 F2700 E0
G1 F1200 X65.561 Y106.475 E0.01687
G1 X65.931 Y106.278 E0.0322
G1 X67.695 Y105.38 E0.10462
G1 X69.914 Y104.17 E0.19709
G1 X72.057 Y102.92 E0.28786
G1 X74.206 Y101.586 E0.3804
G1 X76.245 Y100.237 E0.46985
G1 X78.311 Y98.786 E0.56222
G1 X80.334 Y97.277 E0.65455
G1 X82.289 Y95.731 E0.74574
G1 X84.208 Y94.123 E0.83734
G1 X86.078 Y92.465 E0.92877
G1 X87.905 Y90.751 E1.02043
G1 X89.677 Y88.988 E1.11188
G1 X91.294 Y87.295 E1.19753
G1 X91.992 Y86.547 E1.23496
G1 X92.676 Y85.873 E1.2701
G1 X93.414 Y85.258 E1.30524
G1 X94.2 Y84.706 E1.34038
G1 X95.03 Y84.222 E1.37554
G1 X95.897 Y83.808 E1.41069
G1 X96.795 Y83.468 E1.44582
G1 X97.719 Y83.204 E1.48098
G1 X98.661 Y83.018 E1.5161
G1 X99.944 Y82.892 E1.56327
G1 X100.278 Y82.878 E1.5755
G1 X100.761 Y82.868 E1.59318
G1 X131.649 Y82.868 E2.72325
G1 X131.814 Y82.869 E2.72929
G1 X132.515 Y82.879 E2.75494
G1 X133.474 Y82.933 E2.79008
G1 X134.425 Y83.066 E2.82521
G1 X135.362 Y83.278 E2.86036
G1 X136.278 Y83.567 E2.8955
G1 X137.167 Y83.931 E2.93064
G1 X138.022 Y84.368 E2.96577
G1 X138.839 Y84.875 E3.00095
G1 X139.61 Y85.448 E3.0361
G1 X140.331 Y86.083 E3.07125
G1 X140.996 Y86.775 E3.10636
G1 X141.602 Y87.521 E3.14153
G1 X142.144 Y88.314 E3.17667
G1 X142.423 Y88.786 E3.19673
G1 X143 Y89.817 E3.23995
G1 X144.275 Y92.023 E3.33317
G1 X145.576 Y94.133 E3.42386
G1 X146.961 Y96.246 E3.5163
G1 X148.382 Y98.282 E3.60714
G1 X149.877 Y100.302 E3.69908
G1 X151.43 Y102.28 E3.79109
G1 X153.007 Y104.177 E3.88134
G1 X154.691 Y106.087 E3.9745
G1 X156.379 Y107.898 E4.06508
G1 X156.469 Y107.989 E4.06976
G1 X156.595 Y108.118 E4.07636
G1 X157.391 Y108.952 E4.11854
G1 X158.025 Y109.674 E4.15369
G1 X158.374 Y110.13 E4.1747
G1 X158.513 Y110.321 E4.18334
G1 X159.045 Y111.12 E4.21846
G1 X159.509 Y111.961 E4.2536
G1 X159.836 Y112.676 E4.28237
G1 X159.928 Y112.897 E4.29113
G1 X160.26 Y113.798 E4.32626
G1 X160.516 Y114.724 E4.36141
G1 X160.693 Y115.668 E4.39655
G1 X160.807 Y116.924 E4.44269
G1 X160.851 Y118.168 E4.48823
G1 X160.858 Y118.576 E4.50316
G1 X160.858 Y123.852 E4.69619
G1 X160.857 Y124.01 E4.70197
G1 X160.851 Y124.447 E4.71796
G1 X160.839 Y124.839 E4.73231
G1 X160.819 Y125.258 E4.74765
G1 X160.733 Y126.215 E4.78281
G1 X160.567 Y127.169 E4.81823
G1 X160.512 Y127.421 E4.82767
G1 X160.268 Y128.35 E4.86281
G1 X159.948 Y129.256 E4.89797
G1 X159.362 Y130.496 E4.94814
G1 X159.251 Y130.699 E4.95661
G1 X158.756 Y131.522 E4.99175
G1 X158.193 Y132.301 E5.02691
G1 X157.787 Y132.789 E5.05014
G1 X157.647 Y132.948 E5.05789
G1 X156.983 Y133.642 E5.09303
G1 X155.9 Y134.561 E5.14499
G1 X155.745 Y134.677 E5.15208
G1 X154.953 Y135.22 E5.18721
G1 X154.118 Y135.696 E5.22237
G1 X153.247 Y136.1 E5.2575
G1 X152.613 Y136.34 E5.2823
G1 X152.221 Y136.476 E5.29748
G1 X151.302 Y136.753 E5.3326
G1 X150.362 Y136.953 E5.36776
G1 X149.409 Y137.073 E5.4029
G1 X148.651 Y137.112 E5.43067
G1 X147.724 Y137.129 E5.46459
G1 X147.509 Y137.131 E5.47246
G1 X134.933 Y137.128 E5.93257
G1 X134.78 Y137.127 E5.93816
G1 X134.116 Y137.118 E5.96246
G1 X133.156 Y137.065 E5.99764
G1 X132.496 Y136.982 E6.02197
G1 X131.366 Y136.806 E6.06381
G1 X131.232 Y136.784 E6.06878
G1 X130.184 Y136.608 E6.10766
G1 X127.736 Y136.268 E6.19808
G1 X125.246 Y135.995 E6.28973
G1 X122.742 Y135.79 E6.38165
G1 X120.22 Y135.656 E6.47405
G1 X117.762 Y135.596 E6.564
G1 X115.228 Y135.604 E6.65671
G1 X112.746 Y135.683 E6.74757
G1 X110.253 Y135.833 E6.83894
G1 X107.763 Y136.054 E6.9304
G1 X105.265 Y136.346 E7.02241
G1 X102.728 Y136.717 E7.11622
G1 X101.429 Y136.936 E7.16441
G1 X100.206 Y137.076 E7.20945
G1 X99.991 Y137.089 E7.21733
G1 X99.527 Y137.108 E7.23432
G1 X98.432 Y137.13 E7.27439
G1 X98.2 Y137.132 E7.28288
G1 X90.025 Y137.132 E7.58197
G1 X89.86 Y137.131 E7.58801
G1 X89.159 Y137.121 E7.61366
G1 X88.2 Y137.067 E7.6488
G1 X87.249 Y136.934 E7.68393
G1 X86.312 Y136.722 E7.71908
G1 X85.396 Y136.433 E7.75422
G1 X84.759 Y136.181 E7.77928
G1 X84.102 Y135.898 E7.80546
G1 X83.932 Y135.823 E7.81225
G1 X67.388 Y128.379 E8.47598
G1 X67.245 Y128.313 E8.48175
G1 X66.574 Y128 E8.50884
G1 X66.239 Y127.837 E8.52247
G1 X66.002 Y127.717 E8.53218
G1 X65.11 Y127.215 E8.56963
G1 X64.879 Y127.071 E8.57959
G1 X64.086 Y126.529 E8.61473
G1 X63.277 Y125.868 E8.65296
G1 X63.063 Y125.676 E8.66347
G1 X62.376 Y125.005 E8.69861
G1 X61.746 Y124.279 E8.73378
G1 X61.179 Y123.504 E8.76891
G1 X60.679 Y122.684 E8.80405
G1 X60.083 Y121.44 E8.85451
G1 X60.006 Y121.251 E8.86198
G1 X59.681 Y120.347 E8.89713
G1 X59.432 Y119.419 E8.93228
G1 X59.261 Y118.474 E8.96742
G1 X59.17 Y117.518 E9.00255
G1 X59.158 Y116.557 E9.03771
G1 X59.226 Y115.599 E9.07285
G1 X59.374 Y114.65 E9.10799
G1 X59.6 Y113.716 E9.14315
G1 X59.903 Y112.804 E9.17831
G1 X60.281 Y111.921 E9.21345
G1 X60.972 Y110.679 E9.26545
G1 X61.043 Y110.568 E9.27027
G1 X61.593 Y109.781 E9.3054
G1 X62.208 Y109.042 E9.34057
G1 X62.882 Y108.358 E9.3757
G1 X63.61 Y107.731 E9.41086
G1 X64.388 Y107.168 E9.44599
G1 X65.158 Y106.699 E9.47898
G0 F6000 X65.371 Y107.084
G1 F1200 X65.774 Y106.86 E9.49584
G1 X66.131 Y106.67 E9.51064
G1 X67.923 Y105.758 E9.58421
G1 X70.109 Y104.566 E9.6753
G1 X72.285 Y103.297 E9.76746
G1 X74.428 Y101.966 E9.85976
G1 X76.505 Y100.593 E9.95085
G1 X78.575 Y99.138 E10.04342
G1 X80.595 Y97.632 E10.1356
G1 X82.57 Y96.07 E10.22773
G1 X84.491 Y94.461 E10.3194
G1 X86.378 Y92.787 E10.41169
G1 X88.223 Y91.056 E10.50425
G1 X89.976 Y89.313 E10.5947
G1 X91.565 Y87.648 E10.6789
G1 X92.313 Y86.847 E10.719
G1 X92.985 Y86.186 E10.75348
G1 X93.71 Y85.585 E10.78794
G1 X94.484 Y85.047 E10.82242
G1 X95.3 Y84.577 E10.85688
G1 X96.153 Y84.178 E10.89133
G1 X97.037 Y83.852 E10.9258
G1 X97.946 Y83.603 E10.96028
G1 X98.872 Y83.431 E10.99474
G1 X99.962 Y83.332 E11.03478
G1 X100.296 Y83.318 E11.04701
G1 X100.761 Y83.308 E11.06403
G1 X131.649 Y83.308 E12.1941
G1 X131.807 Y83.309 E12.19988
G1 X132.508 Y83.319 E12.22553
G1 X133.449 Y83.373 E12.26002
G1 X134.382 Y83.506 E12.2945
G1 X135.3 Y83.717 E12.32896
G1 X136.196 Y84.006 E12.3634
G1 X137.066 Y84.369 E12.39789
G1 X137.901 Y84.806 E12.43237
G1 X138.696 Y85.311 E12.46683
G1 X139.445 Y85.882 E12.50129
G1 X140.144 Y86.514 E12.53577
G1 X140.786 Y87.204 E12.57025
G1 X141.367 Y87.945 E12.6047
G1 X142.039 Y89.001 E12.65049
G1 X142.612 Y90.026 E12.69346
G1 X143.89 Y92.238 E12.78692
G1 X145.221 Y94.395 E12.87965
G1 X146.593 Y96.487 E12.97118
G1 X148.027 Y98.543 E13.06289
G1 X149.52 Y100.56 E13.1547
G1 X151.075 Y102.541 E13.24684
G1 X152.683 Y104.474 E13.33883
G1 X154.351 Y106.365 E13.43109
G1 X156.056 Y108.196 E13.52262
G1 X156.156 Y108.297 E13.52782
G1 X156.277 Y108.422 E13.53419
G1 X157.073 Y109.256 E13.57637
G1 X157.694 Y109.965 E13.61085
G1 X158.018 Y110.389 E13.63037
G1 X158.157 Y110.58 E13.63902
G1 X158.678 Y111.364 E13.67346
G1 X159.132 Y112.19 E13.70794
G1 X159.43 Y112.845 E13.73427
G1 X159.522 Y113.066 E13.74303
G1 X159.846 Y113.95 E13.77747
G1 X160.095 Y114.859 E13.81195
G1 X160.266 Y115.786 E13.84644
G1 X160.367 Y116.94 E13.88882
G1 X160.411 Y118.184 E13.93436
G1 X160.418 Y118.576 E13.94871
G1 X160.418 Y123.852 E14.14174
G1 X160.417 Y124.004 E14.1473
G1 X160.411 Y124.441 E14.16329
G1 X160.399 Y124.818 E14.17709
G1 X160.379 Y125.237 E14.19243
G1 X160.295 Y126.176 E14.22693
G1 X160.137 Y127.075 E14.26032
G1 X160.082 Y127.327 E14.26976
G1 X159.842 Y128.238 E14.30423
G1 X159.526 Y129.125 E14.33868
G1 X158.976 Y130.285 E14.38564
G1 X158.865 Y130.488 E14.39411
G1 X158.378 Y131.295 E14.42859
G1 X157.825 Y132.058 E14.46307
G1 X157.457 Y132.498 E14.48406
G1 X157.317 Y132.657 E14.49181
G1 X156.665 Y133.337 E14.52627
G1 X155.637 Y134.209 E14.57559
G1 X155.482 Y134.325 E14.58268
G1 X154.704 Y134.857 E14.61716
G1 X153.884 Y135.321 E14.65163
G1 X153.028 Y135.714 E14.68609
G1 X152.469 Y135.925 E14.70795
G1 X152.077 Y136.061 E14.72313
G1 X151.175 Y136.332 E14.75759
G1 X150.253 Y136.525 E14.79205
G1 X149.318 Y136.639 E14.82651
G1 X148.643 Y136.672 E14.85124
G1 X147.716 Y136.689 E14.88516
G1 X147.509 Y136.691 E14.89273
G1 X134.933 Y136.688 E15.35284
G1 X134.786 Y136.687 E15.35822
G1 X134.122 Y136.678 E15.38251
G1 X133.181 Y136.625 E15.417
G1 X132.564 Y136.547 E15.43975
G1 X131.434 Y136.371 E15.48159
G1 X131.305 Y136.35 E15.48637
G1 X130.28 Y136.178 E15.5244
G1 X127.777 Y135.831 E15.61685
G1 X125.258 Y135.554 E15.70956
G1 X122.767 Y135.35 E15.801
G1 X120.288 Y135.219 E15.89183
G1 X117.736 Y135.156 E15.98522
G1 X115.248 Y135.164 E16.07625
G1 X112.704 Y135.244 E16.16937
G1 X110.226 Y135.394 E16.2602
G1 X107.707 Y135.617 E16.35272
G1 X105.183 Y135.913 E16.4457
G1 X102.685 Y136.278 E16.53806
G1 X101.356 Y136.502 E16.58737
G1 X100.18 Y136.637 E16.63068
G1 X99.965 Y136.65 E16.63856
G1 X99.518 Y136.668 E16.65492
G1 X98.423 Y136.69 E16.69499
G1 X98.2 Y136.692 E16.70315
G1 X90.025 Y136.692 E17.00224
G1 X89.867 Y136.691 E17.00802
G1 X89.166 Y136.681 E17.03367
G1 X88.225 Y136.627 E17.06816
G1 X87.292 Y136.494 E17.10264
G1 X86.374 Y136.283 E17.1371
G1 X85.478 Y135.994 E17.17154
G1 X84.933 Y135.776 E17.19302
G1 X84.276 Y135.493 E17.21919
G1 X84.112 Y135.422 E17.22573
G1 X67.568 Y127.978 E17.88946
G1 X67.431 Y127.914 E17.89499
G1 X66.76 Y127.601 E17.92208
G1 X66.438 Y127.445 E17.93517
G1 X66.201 Y127.325 E17.94489
G1 X65.343 Y126.842 E17.98091
G1 X65.112 Y126.698 E17.99087
G1 X64.334 Y126.166 E18.02536
G1 X63.571 Y125.54 E18.06146
G1 X63.357 Y125.348 E18.07198
G1 X62.683 Y124.69 E18.10644
G1 X62.068 Y123.977 E18.14089
G1 X61.515 Y123.214 E18.17537
G1 X61.028 Y122.407 E18.20985
G1 X60.49 Y121.274 E18.25574
G1 X60.413 Y121.085 E18.26321
G1 X60.095 Y120.198 E18.29768
G1 X59.853 Y119.288 E18.33213
G1 X59.69 Y118.36 E18.36661
G1 X59.605 Y117.421 E18.4011
G1 X59.601 Y116.479 E18.43557
G1 X59.676 Y115.54 E18.47003
G1 X59.831 Y114.611 E18.50449
G1 X60.064 Y113.698 E18.53896
G1 X60.373 Y112.808 E18.57343
G1 X60.757 Y111.948 E18.60789
G1 X61.342 Y110.916 E18.65129
G1 X61.413 Y110.805 E18.65611
G1 X61.954 Y110.033 E18.6906
G1 X62.558 Y109.311 E18.72504
G1 X63.222 Y108.642 E18.75952
G1 X63.94 Y108.032 E18.79399
G1 X64.707 Y107.484 E18.82848
G1 X65.371 Y107.084 E18.85684
G0 F6000 X65.585 Y107.469
G1 F1200 X65.988 Y107.245 E18.87371
G1 X66.331 Y107.062 E18.88793
G1 X68.108 Y106.157 E18.96089
G1 X70.346 Y104.937 E19.05415
G1 X72.512 Y103.674 E19.14588
G1 X74.667 Y102.336 E19.23869
G1 X76.753 Y100.956 E19.33019
G1 X78.838 Y99.491 E19.42342
G1 X80.878 Y97.97 E19.51652
G1 X82.83 Y96.426 E19.60758
G1 X84.774 Y94.798 E19.70035
G1 X86.679 Y93.108 E19.79352
G1 X88.523 Y91.378 E19.88603
G1 X90.293 Y89.617 E19.97737
G1 X91.895 Y87.94 E20.06222
G1 X92.635 Y87.147 E20.10191
G1 X93.294 Y86.501 E20.13567
G1 X94.006 Y85.913 E20.16945
G1 X94.766 Y85.389 E20.20323
G1 X95.569 Y84.933 E20.23701
G1 X96.408 Y84.549 E20.27077
G1 X97.278 Y84.238 E20.30457
G1 X98.171 Y84.004 E20.33835
G1 X99.081 Y83.847 E20.37213
G1 X99.981 Y83.771 E20.40518
G1 X100.315 Y83.757 E20.41741
G1 X100.761 Y83.748 E20.43373
G1 X131.649 Y83.748 E21.5638
G1 X131.801 Y83.749 E21.56936
G1 X132.502 Y83.759 E21.59501
G1 X133.424 Y83.812 E21.6288
G1 X134.337 Y83.945 E21.66256
G1 X135.236 Y84.156 E21.69634
G1 X136.113 Y84.444 E21.73011
G1 X136.962 Y84.807 E21.7639
G1 X137.776 Y85.243 E21.79768
G1 X138.55 Y85.747 E21.83147
G1 X139.277 Y86.316 E21.86525
G1 X139.952 Y86.945 E21.899
G1 X140.57 Y87.631 E21.93278
G1 X141.127 Y88.368 E21.96658
G1 X141.654 Y89.216 E22.00311
G1 X142.195 Y90.183 E22.04365
G1 X143.521 Y92.478 E22.14062
G1 X144.839 Y94.615 E22.23248
G1 X146.225 Y96.728 E22.32494
G1 X147.657 Y98.78 E22.41648
G1 X149.181 Y100.84 E22.51023
G1 X150.734 Y102.818 E22.60224
G1 X152.359 Y104.771 E22.69519
G1 X154.027 Y106.664 E22.7875
G1 X155.749 Y108.512 E22.87992
G1 X155.842 Y108.606 E22.88475
G1 X155.958 Y108.726 E22.89086
G1 X156.754 Y109.56 E22.93304
G1 X157.362 Y110.255 E22.96682
G1 X157.662 Y110.647 E22.98488
G1 X157.801 Y110.838 E22.99353
G1 X158.312 Y111.608 E23.02734
G1 X158.754 Y112.418 E23.0611
G1 X159.023 Y113.014 E23.08502
G1 X159.115 Y113.235 E23.09378
G1 X159.433 Y114.102 E23.12756
G1 X159.674 Y114.993 E23.16133
G1 X159.838 Y115.902 E23.19513
G1 X159.927 Y116.955 E23.23379
G1 X159.971 Y118.199 E23.27933
G1 X159.978 Y118.576 E23.29313
G1 X159.978 Y123.852 E23.48616
G1 X159.977 Y123.998 E23.4915
G1 X159.971 Y124.435 E23.50749
G1 X159.96 Y124.797 E23.52074
G1 X159.94 Y125.216 E23.53608
G1 X159.856 Y126.136 E23.56988
G1 X159.707 Y126.981 E23.60128
G1 X159.652 Y127.233 E23.61071
G1 X159.416 Y128.126 E23.64451
G1 X159.104 Y128.995 E23.67829
G1 X158.59 Y130.074 E23.72201
G1 X158.479 Y130.277 E23.73048
G1 X158.001 Y131.067 E23.76426
G1 X157.457 Y131.813 E23.79804
G1 X157.127 Y132.208 E23.81687
G1 X156.987 Y132.367 E23.82462
G1 X156.347 Y133.032 E23.85839
G1 X155.373 Y133.857 E23.90509
G1 X155.218 Y133.973 E23.91217
G1 X154.456 Y134.493 E23.94592
G1 X153.651 Y134.946 E23.97972
G1 X152.81 Y135.327 E24.0135
G1 X152.325 Y135.509 E24.03245
G1 X151.933 Y135.645 E24.04763
G1 X151.049 Y135.91 E24.08139
G1 X150.144 Y136.097 E24.1152
G1 X149.228 Y136.205 E24.14895
G1 X148.634 Y136.232 E24.1707
G1 X147.707 Y136.249 E24.20462
G1 X147.509 Y136.251 E24.21187
G1 X134.933 Y136.248 E24.67198
G1 X134.792 Y136.247 E24.67714
G1 X134.128 Y136.238 E24.70143
G1 X133.206 Y136.186 E24.73522
G1 X132.631 Y136.112 E24.75643
G1 X131.501 Y135.936 E24.79827
G1 X131.378 Y135.916 E24.80283
G1 X130.346 Y135.743 E24.84111
G1 X127.814 Y135.391 E24.93464
G1 X125.34 Y135.12 E25.02569
G1 X122.79 Y134.911 E25.1193
G1 X120.288 Y134.779 E25.21097
G1 X117.746 Y134.716 E25.304
G1 X115.233 Y134.724 E25.39594
G1 X112.7 Y134.804 E25.48866
G1 X110.16 Y134.957 E25.58176
G1 X107.685 Y135.177 E25.67266
G1 X105.14 Y135.475 E25.76641
G1 X102.635 Y135.841 E25.85903
G1 X101.282 Y136.069 E25.90923
G1 X100.153 Y136.198 E25.95081
G1 X99.938 Y136.211 E25.95869
G1 X99.509 Y136.228 E25.97439
G1 X98.414 Y136.25 E26.01446
G1 X98.2 Y136.252 E26.02229
G1 X90.025 Y136.252 E26.32139
G1 X89.873 Y136.251 E26.32695
G1 X89.172 Y136.241 E26.3526
G1 X88.25 Y136.188 E26.38638
G1 X87.337 Y136.055 E26.42014
G1 X86.438 Y135.844 E26.45392
G1 X85.561 Y135.556 E26.4877
G1 X85.107 Y135.372 E26.50562
G1 X84.45 Y135.089 E26.53179
G1 X84.293 Y135.02 E26.53807
G1 X67.749 Y127.576 E27.2018
G1 X67.617 Y127.516 E27.2071
G1 X66.946 Y127.203 E27.23419
G1 X66.637 Y127.052 E27.24677
G1 X66.4 Y126.932 E27.25649
G1 X65.576 Y126.468 E27.29109
G1 X65.345 Y126.324 E27.30105
G1 X64.583 Y125.802 E27.33484
G1 X63.865 Y125.213 E27.36882
G1 X63.651 Y125.021 E27.37934
G1 X62.991 Y124.375 E27.41313
G1 X62.39 Y123.674 E27.44691
G1 X61.851 Y122.925 E27.48067
G1 X61.379 Y122.131 E27.51446
G1 X60.898 Y121.108 E27.55582
G1 X60.821 Y120.919 E27.56329
G1 X60.51 Y120.05 E27.59706
