;FLAVOR:Marlin
;TIME:14380
;Filament used: 8.71737m
;Layer height: 0.2
;MINX:22.78
;MINY:70.004
;MINZ:0.2
;MAXX:176.463
;MAXY:165.505
;MAXZ:30.2
;Generated with Cura_SteamEngine 4.2.1
M140 S50
M105
M190 S50
M104 S200
M105
M109 S200
M82 ;absolute extrusion mode
M201 X500.00 Y500.00 Z100.00 E5000.00 ;Setup machine max acceleration
M203 X500.00 Y500.00 Z10.00 E50.00 ;Setup machine max feedrate
M204 P500.00 R1000.00 T500.00 ;Setup Print/Retract/Travel acceleration
M205 X8.00 Y8.00 Z0.40 E5.00 ;Setup Jerk
M220 S100 ;Reset Feedrate
M221 S100 ;Reset Flowrate

G28 ;Home

G92 E0 ;Reset Extruder
G1 Z2.0 F3000 ;Move Z Axis up
G1 X10.1 Y20 Z0.28 F5000.0 ;Move to start position
G1 X10.1 Y200.0 Z0.28 F1500.0 E15 ;Draw the first line
G1 X10.4 Y200.0 Z0.28 F5000.0 ;Move to side a little
G1 X10.4 Y20 Z0.28 F1500.0 E30 ;Draw the second line
G92 E0 ;Reset Extruder
G1 Z2.0 F3000 ;Move Z Axis up

M141 S28
G92 E0
G92 E0
G1 F2700 E-5
;LAYER_COUNT:150
;LAYER:0
M107
G0 F6000 X35.788 Y75.628 Z0.2
;TYPE:SKIRT
G1 F2700 E0
G1 F1200 X36.672 Y75.251 E0.03516
G1 X37.584 Y74.95 E0.0703
G1 X38.518 Y74.725 E0.10545
G1 X39.468 Y74.578 E0.14062
G1 X40.426 Y74.512 E0.17575
G1 X41.386 Y74.525 E0.21088
G1 X42.342 Y74.617 E0.24601
G1 X43.288 Y74.789 E0.28119
G1 X43.882 Y74.94 E0.30361
G1 X44.148 Y75.015 E0.31373
G1 X44.327 Y75.067 E0.32055
G1 X46.354 Y75.674 E0.39796
G1 X48.743 Y76.317 E0.48847
G1 X51.197 Y76.904 E0.58079
G1 X53.601 Y77.404 E0.67062
G1 X56.122 Y77.858 E0.76434
G1 X58.563 Y78.226 E0.85466
G1 X61.037 Y78.527 E0.94584
G1 X63.543 Y78.761 E1.03792
G1 X66.045 Y78.922 E1.12965
G1 X68.511 Y79.012 E1.21993
G1 X71.04 Y79.033 E1.31246
G1 X73.568 Y78.982 E1.40497
G1 X76.022 Y78.863 E1.49486
G1 X78.52 Y78.671 E1.58652
G1 X81.021 Y78.407 E1.67853
G1 X83.502 Y78.075 E1.77011
G1 X85.97 Y77.672 E1.8616
G1 X88.422 Y77.201 E1.95295
G1 X90.869 Y76.658 E2.04465
G1 X93.307 Y76.045 E2.13663
G1 X95.705 Y75.369 E2.22778
G1 X98.07 Y74.63 E2.31843
G1 X100.476 Y73.802 E2.41153
G1 X102.795 Y72.931 E2.50216
G1 X105.101 Y71.989 E2.59329
G1 X107.014 Y71.141 E2.66985
G1 X107.158 Y71.079 E2.67559
G1 X107.507 Y70.93 E2.68947
G1 X108.405 Y70.59 E2.7246
G1 X109.329 Y70.326 E2.75976
G1 X110.271 Y70.139 E2.79489
G1 X111.226 Y70.032 E2.83005
G1 X112.186 Y70.004 E2.86519
G1 X113.145 Y70.056 E2.90033
G1 X114.561 Y70.282 E2.95279
G1 X115.926 Y70.588 E3.00397
G1 X118.404 Y71.103 E3.09657
G1 X120.913 Y71.551 E3.18981
G1 X123.34 Y71.914 E3.2796
G1 X125.862 Y72.218 E3.37253
G1 X128.322 Y72.445 E3.46292
G1 X130.841 Y72.606 E3.55527
G1 X133.331 Y72.694 E3.64642
G1 X135.859 Y72.711 E3.73891
G1 X138.318 Y72.659 E3.8289
G1 X140.842 Y72.534 E3.92136
G1 X143.344 Y72.339 E4.01317
G1 X145.803 Y72.077 E4.10365
G1 X148.291 Y71.741 E4.1955
G1 X150.782 Y71.332 E4.28786
G1 X153.236 Y70.857 E4.37931
G1 X155.79 Y70.288 E4.47504
G1 X155.798 Y70.286 E4.47534
G1 X155.834 Y70.278 E4.47669
G1 X156.779 Y70.109 E4.51181
G1 X157.736 Y70.019 E4.54698
G1 X158.696 Y70.009 E4.5821
G1 X159.654 Y70.078 E4.61724
G1 X160.603 Y70.228 E4.65239
G1 X161.536 Y70.455 E4.68752
G1 X162.448 Y70.76 E4.72271
G1 X163.33 Y71.139 E4.75783
G1 X164.178 Y71.59 E4.79297
G1 X164.986 Y72.111 E4.82814
G1 X165.747 Y72.696 E4.86326
G1 X166.211 Y73.107 E4.88594
G1 X166.451 Y73.331 E4.89795
G1 X166.737 Y73.607 E4.91249
G1 X168.002 Y74.872 E4.97794
G1 X168.119 Y74.991 E4.98405
G1 X168.7 Y75.589 E5.01455
G1 X170.548 Y77.438 E5.1102
G1 X170.608 Y77.495 E5.11322
G1 X170.736 Y77.619 E5.11974
G1 X171.322 Y78.194 E5.14978
G1 X171.397 Y78.268 E5.15364
G1 X172.586 Y79.456 E5.21513
G1 X172.709 Y79.581 E5.22155
G1 X173.206 Y80.093 E5.24765
G1 X173.846 Y80.81 E5.28281
G1 X174.424 Y81.577 E5.31795
G1 X174.936 Y82.39 E5.3531
G1 X175.379 Y83.242 E5.38824
G1 X175.75 Y84.128 E5.42338
G1 X176.045 Y85.043 E5.45855
G1 X176.263 Y85.978 E5.49368
G1 X176.403 Y86.928 E5.52881
G1 X176.463 Y87.887 E5.56396
G1 X176.444 Y88.848 E5.59913
G1 X176.344 Y89.803 E5.63426
G1 X176.116 Y90.952 E5.67712
G1 X175.996 Y91.428 E5.69508
G1 X175.956 Y91.58 E5.70083
G1 X175.518 Y93.221 E5.76297
G1 X174.937 Y95.682 E5.85548
G1 X174.428 Y98.135 E5.94714
G1 X173.994 Y100.594 E6.0385
G1 X173.627 Y103.072 E6.13015
G1 X173.333 Y105.526 E6.22057
G1 X173.105 Y108.036 E6.31278
G1 X172.948 Y110.555 E6.40512
G1 X172.863 Y113.023 E6.49547
G1 X172.848 Y115.546 E6.58778
G1 X172.905 Y118.046 E6.67926
G1 X173.03 Y120.532 E6.77033
G1 X173.227 Y123.016 E6.8615
G1 X173.497 Y125.524 E6.95379
G1 X173.834 Y127.993 E7.04495
G1 X174.244 Y130.473 E7.13692
G1 X174.853 Y133.563 E7.25215
G1 X175 Y134.513 E7.28732
G1 X175.066 Y135.471 E7.32245
G1 X175.053 Y136.432 E7.35761
G1 X174.96 Y137.388 E7.39275
G1 X174.788 Y138.333 E7.42789
G1 X174.538 Y139.26 E7.46302
G1 X174.212 Y140.164 E7.49818
G1 X173.811 Y141.037 E7.53333
G1 X173.34 Y141.874 E7.56847
G1 X172.8 Y142.668 E7.6036
G1 X172.464 Y143.099 E7.62359
G1 X172.28 Y143.324 E7.63423
G1 X171.511 Y144.175 E7.67619
G1 X168.427 Y147.262 E7.83584
G1 X168.298 Y147.389 E7.84246
G1 X167.762 Y147.909 E7.86978
G1 X167.046 Y148.548 E7.90489
G1 X166.278 Y149.126 E7.94006
G1 X165.465 Y149.638 E7.97521
G1 X164.613 Y150.081 E8.01034
G1 X163.726 Y150.451 E8.0455
G1 X162.812 Y150.746 E8.08064
G1 X161.877 Y150.964 E8.11577
G1 X160.926 Y151.104 E8.15094
G1 X159.968 Y151.163 E8.18605
G1 X159.007 Y151.144 E8.22122
G1 X158.052 Y151.044 E8.25635
G1 X157.059 Y150.853 E8.29335
G1 X154.374 Y150.215 E8.39431
G1 X151.913 Y149.703 E8.48628
G1 X149.474 Y149.272 E8.5769
G1 X146.988 Y148.901 E8.66886
G1 X144.488 Y148.601 E8.76098
G1 X142.02 Y148.376 E8.85165
G1 X139.517 Y148.218 E8.94341
G1 X137.026 Y148.132 E9.0346
G1 X134.497 Y148.116 E9.12712
G1 X132.005 Y148.171 E9.21832
G1 X129.517 Y148.296 E9.30946
G1 X127.032 Y148.491 E9.40066
G1 X124.538 Y148.759 E9.49243
G1 X122.037 Y149.099 E9.58477
G1 X119.583 Y149.504 E9.67577
G1 X117.142 Y149.976 E9.76673
G1 X114.4 Y150.593 E9.86956
G1 X113.354 Y150.845 E9.90892
G1 X112.411 Y151.031 E9.94409
G1 X111.457 Y151.138 E9.97921
G1 X110.497 Y151.165 E10.01435
G1 X109.805 Y151.135 E10.03969
G1 X108.486 Y151.038 E10.08807
G1 X108.314 Y151.024 E10.09439
G1 X108.142 Y151.009 E10.1007
G1 X105.609 Y150.858 E10.19354
G1 X103.15 Y150.782 E10.28355
G1 X100.621 Y150.773 E10.37608
G1 X98.13 Y150.837 E10.46724
G1 X95.627 Y150.972 E10.55895
G1 X93.154 Y151.174 E10.64973
G1 X90.646 Y151.452 E10.74205
G1 X88.178 Y151.796 E10.83322
G1 X85.701 Y152.213 E10.92512
G1 X83.266 Y152.694 E11.01593
G1 X80.817 Y153.25 E11.10781
G1 X78.389 Y153.875 E11.19953
G1 X75.979 Y154.568 E11.29128
G1 X73.606 Y155.324 E11.3824
G1 X71.249 Y156.147 E11.47374
G1 X68.905 Y157.042 E11.56553
G1 X66.613 Y157.992 E11.65631
G1 X64.292 Y159.033 E11.74937
G1 X62.054 Y160.113 E11.84029
G1 X59.857 Y161.251 E11.93081
G1 X58.837 Y161.822 E11.97358
G1 X58.706 Y161.894 E11.97905
G1 X57.578 Y162.507 E12.02602
G1 X56.969 Y162.815 E12.05098
G1 X55.916 Y163.309 E12.09354
G1 X55.711 Y163.403 E12.10179
G1 X55.042 Y163.701 E12.12858
G1 X54.896 Y163.765 E12.13442
G1 X54.283 Y164.028 E12.15882
G1 X53.385 Y164.37 E12.19398
G1 X52.356 Y164.661 E12.2331
G1 X51.345 Y164.897 E12.27108
G1 X51.126 Y164.946 E12.27929
G1 X50.403 Y165.1 E12.30634
G1 X50.246 Y165.132 E12.3122
G1 X49.581 Y165.264 E12.33701
G1 X48.632 Y165.412 E12.37215
G1 X47.559 Y165.483 E12.41149
G1 X46.532 Y165.503 E12.44907
G1 X46.307 Y165.505 E12.4573
G1 X45.534 Y165.505 E12.48558
G1 X45.374 Y165.504 E12.49144
G1 X44.725 Y165.495 E12.51518
G1 X43.766 Y165.442 E12.55032
G1 X42.708 Y165.289 E12.58943
G1 X41.693 Y165.094 E12.62725
G1 X41.479 Y165.051 E12.63523
G1 X40.714 Y164.889 E12.66384
G1 X40.535 Y164.849 E12.67055
G1 X39.909 Y164.706 E12.69405
G1 X38.982 Y164.453 E12.7292
G1 X37.994 Y164.089 E12.76772
G1 X37.041 Y163.687 E12.80557
G1 X36.829 Y163.595 E12.81402
G1 X36.122 Y163.28 E12.84234
G1 X35.991 Y163.221 E12.84759
G1 X35.407 Y162.952 E12.87112
G1 X34.552 Y162.514 E12.90627
G1 X33.63 Y161.933 E12.94614
G1 X32.749 Y161.318 E12.98545
G1 X32.562 Y161.184 E12.99386
G1 X31.97 Y160.753 E13.02065
G1 X31.87 Y160.68 E13.02518
G1 X31.353 Y160.295 E13.04877
G1 X30.607 Y159.689 E13.08393
G1 X29.816 Y158.92 E13.12429
G1 X29.097 Y158.151 E13.16281
G1 X28.954 Y157.997 E13.1705
G1 X28.442 Y157.429 E13.19848
G1 X28.323 Y157.293 E13.20509
G1 X27.902 Y156.811 E13.2285
G1 X27.3 Y156.062 E13.26366
G1 X26.717 Y155.19 E13.30203
G1 X26.179 Y154.3 E13.34008
G1 X26.056 Y154.092 E13.34892
G1 X25.663 Y153.41 E13.37772
G1 X25.588 Y153.277 E13.38331
G1 X25.284 Y152.733 E13.40611
G1 X24.851 Y151.876 E13.44124
G1 X24.459 Y150.897 E13.47982
G1 X24.12 Y149.923 E13.51755
G1 X24.043 Y149.694 E13.52639
G1 X23.805 Y148.961 E13.55459
G1 X23.755 Y148.802 E13.56068
G1 X23.562 Y148.177 E13.58462
G1 X23.317 Y147.248 E13.61977
G1 X23.137 Y146.201 E13.65863
G1 X23.005 Y145.143 E13.69764
G1 X22.98 Y144.93 E13.70549
G1 X22.907 Y144.241 E13.73084
G1 X22.89 Y144.067 E13.73723
G1 X22.827 Y143.372 E13.76277
G1 X22.78 Y142.412 E13.79793
G1 X22.822 Y141.352 E13.83674
G1 X22.912 Y140.294 E13.87559
G1 X22.933 Y140.066 E13.88397
G1 X23.012 Y139.314 E13.91163
G1 X23.03 Y139.155 E13.91749
G1 X23.108 Y138.5 E13.94162
G1 X23.261 Y137.552 E13.97675
G1 X23.409 Y136.92 E14.0005
G1 X23.532 Y136.454 E14.01813
G1 X23.616 Y136.152 E14.0296
G1 X23.95 Y135.013 E14.07303
G1 X24.044 Y134.707 E14.08474
G1 X24.414 Y133.563 E14.12873
G1 X25.159 Y131.146 E14.22126
G1 X25.823 Y128.75 E14.31223
G1 X26.422 Y126.324 E14.40365
G1 X26.956 Y123.871 E14.4955
G1 X27.416 Y121.419 E14.58677
G1 X27.813 Y118.921 E14.67931
G1 X28.133 Y116.451 E14.77043
G1 X28.382 Y113.988 E14.86101
G1 X28.565 Y111.471 E14.95334
G1 X28.675 Y108.981 E15.04452
G1 X28.716 Y106.451 E15.1371
G1 X28.685 Y103.959 E15.22828
G1 X28.585 Y101.504 E15.31817
G1 X28.41 Y98.968 E15.41118
G1 X28.166 Y96.468 E15.50308
G1 X27.854 Y93.994 E15.59431
G1 X27.831 Y93.842 E15.59993
G1 X27.813 Y93.723 E15.60433
G1 X27.619 Y92.356 E15.65485
G1 X27.524 Y91.401 E15.68996
G1 X27.509 Y90.44 E15.72512
G1 X27.573 Y89.482 E15.76025
G1 X27.717 Y88.532 E15.79541
G1 X27.94 Y87.597 E15.83057
G1 X28.128 Y86.994 E15.85368
G1 X28.324 Y86.422 E15.8758
G1 X28.397 Y86.216 E15.8838
G1 X29.771 Y82.441 E16.03078
G1 X29.885 Y82.14 E16.04255
G1 X30.02 Y81.799 E16.05597
G1 X30.411 Y80.921 E16.09113
G1 X30.873 Y80.079 E16.12627
G1 X31.403 Y79.278 E16.16141
G1 X31.999 Y78.525 E16.19655
G1 X32.655 Y77.823 E16.2317
G1 X33.367 Y77.178 E16.26685
G1 X34.13 Y76.595 E16.30198
G1 X34.939 Y76.077 E16.33713
G1 X35.788 Y75.628 E16.37226
G0 F6000 X36.126 Y75.956
G1 F1200 X36.998 Y75.6 E16.40672
G1 X37.897 Y75.32 E16.44117
G1 X38.817 Y75.117 E16.47564
G1 X39.751 Y74.992 E16.51012
G1 X40.692 Y74.947 E16.54458
G1 X41.634 Y74.982 E16.57907
G1 X42.569 Y75.097 E16.61354
G1 X43.762 Y75.364 E16.65826
G1 X44.028 Y75.439 E16.66838
G1 X44.201 Y75.489 E16.67496
G1 X46.188 Y76.084 E16.75085
G1 X48.667 Y76.751 E16.84477
G1 X51.104 Y77.335 E16.93646
G1 X53.513 Y77.836 E17.02648
G1 X56.045 Y78.291 E17.1206
G1 X58.482 Y78.658 E17.21077
G1 X61.012 Y78.966 E17.30401
G1 X63.511 Y79.2 E17.39584
G1 X66.001 Y79.36 E17.48713
G1 X68.527 Y79.452 E17.57961
G1 X71.045 Y79.473 E17.67173
G1 X73.563 Y79.422 E17.76388
G1 X76.078 Y79.3 E17.856
G1 X78.563 Y79.109 E17.94718
G1 X81.059 Y78.846 E18.03901
G1 X83.594 Y78.506 E18.13258
G1 X86.051 Y78.106 E18.22366
G1 X88.501 Y77.635 E18.31494
G1 X90.957 Y77.089 E18.40699
G1 X93.394 Y76.477 E18.49892
G1 X95.848 Y75.785 E18.5922
G1 X98.205 Y75.049 E18.68254
G1 X100.624 Y74.217 E18.77613
G1 X102.946 Y73.344 E18.86689
G1 X105.305 Y72.38 E18.96012
G1 X107.192 Y71.544 E19.03563
G1 X107.331 Y71.483 E19.04119
G1 X107.68 Y71.334 E19.05507
G1 X108.561 Y71.002 E19.08952
G1 X109.467 Y70.745 E19.12397
G1 X110.392 Y70.566 E19.15844
G1 X111.329 Y70.466 E19.19292
G1 X112.271 Y70.445 E19.22739
G1 X113.211 Y70.505 E19.26185
G1 X114.465 Y70.712 E19.30835
G1 X115.802 Y71.012 E19.35848
G1 X118.344 Y71.54 E19.45347
G1 X120.809 Y71.98 E19.54508
G1 X123.294 Y72.352 E19.63701
G1 X125.802 Y72.654 E19.72943
G1 X128.29 Y72.884 E19.82084
G1 X130.832 Y73.046 E19.91403
G1 X133.313 Y73.134 E20.00486
G1 X135.865 Y73.151 E20.09823
G1 X138.35 Y73.098 E20.18917
G1 X140.864 Y72.974 E20.28126
G1 X143.353 Y72.78 E20.3726
G1 X145.872 Y72.512 E20.46528
G1 X148.389 Y72.171 E20.55821
G1 X150.831 Y71.771 E20.64874
G1 X153.309 Y71.292 E20.74108
G1 X155.886 Y70.717 E20.83768
G1 X155.893 Y70.715 E20.83795
G1 X155.929 Y70.707 E20.8393
G1 X156.857 Y70.542 E20.87378
G1 X157.795 Y70.456 E20.90824
G1 X158.737 Y70.45 E20.94271
G1 X159.676 Y70.524 E20.97717
G1 X160.606 Y70.677 E21.01165
G1 X161.519 Y70.909 E21.04612
G1 X162.409 Y71.217 E21.08057
G1 X163.27 Y71.6 E21.11505
G1 X164.096 Y72.054 E21.14953
G1 X164.88 Y72.576 E21.18399
G1 X165.911 Y73.428 E21.23293
G1 X166.151 Y73.652 E21.24494
G1 X166.426 Y73.918 E21.25893
G1 X167.691 Y75.183 E21.32439
G1 X167.803 Y75.297 E21.33023
G1 X168.384 Y75.895 E21.36074
G1 X170.243 Y77.755 E21.45695
G1 X170.304 Y77.813 E21.46003
G1 X170.428 Y77.933 E21.46634
G1 X171.014 Y78.508 E21.49638
G1 X171.086 Y78.579 E21.50008
G1 X172.275 Y79.767 E21.56157
G1 X172.394 Y79.888 E21.56778
G1 X172.891 Y80.4 E21.59389
G1 X173.518 Y81.103 E21.62835
G1 X174.083 Y81.857 E21.66282
G1 X174.582 Y82.656 E21.69729
G1 X175.011 Y83.494 E21.73173
G1 X175.368 Y84.366 E21.7662
G1 X175.65 Y85.265 E21.80067
G1 X175.854 Y86.185 E21.83515
G1 X175.98 Y87.119 E21.86963
G1 X176.026 Y88.06 E21.9041
G1 X175.992 Y89.001 E21.93855
G1 X175.878 Y89.937 E21.97305
G1 X175.689 Y90.844 E22.00695
G1 X175.569 Y91.32 E22.02491
G1 X175.531 Y91.467 E22.03046
G1 X175.092 Y93.113 E22.09279
G1 X174.505 Y95.599 E22.18624
G1 X173.991 Y98.074 E22.27872
G1 X173.565 Y100.489 E22.36844
G1 X173.189 Y103.027 E22.46231
G1 X172.893 Y105.498 E22.55336
G1 X172.665 Y108.006 E22.6455
G1 X172.509 Y110.513 E22.7374
G1 X172.423 Y113.005 E22.82863
G1 X172.408 Y115.553 E22.92185
G1 X172.464 Y118.042 E23.01293
G1 X172.593 Y120.587 E23.10617
G1 X172.789 Y123.061 E23.19696
G1 X173.058 Y125.558 E23.28885
G1 X173.398 Y128.052 E23.38094
G1 X173.809 Y130.536 E23.47305
G1 X174.422 Y133.648 E23.5891
G1 X174.564 Y134.58 E23.62359
G1 X174.628 Y135.52 E23.65806
G1 X174.611 Y136.462 E23.69253
G1 X174.514 Y137.399 E23.72699
G1 X174.339 Y138.324 E23.76144
G1 X174.085 Y139.232 E23.79593
G1 X173.756 Y140.114 E23.83037
G1 X173.353 Y140.966 E23.86485
G1 X172.879 Y141.78 E23.89932
G1 X172.124 Y142.821 E23.94637
G1 X171.94 Y143.046 E23.957
G1 X171.2 Y143.864 E23.99736
G1 X168.116 Y146.951 E24.157
G1 X167.992 Y147.073 E24.16337
G1 X167.456 Y147.593 E24.19069
G1 X166.753 Y148.22 E24.22515
G1 X165.999 Y148.784 E24.2596
G1 X165.199 Y149.283 E24.2941
G1 X164.361 Y149.713 E24.32856
G1 X163.489 Y150.069 E24.36302
G1 X162.59 Y150.351 E24.39749
G1 X161.67 Y150.555 E24.43196
G1 X160.736 Y150.68 E24.46644
G1 X159.795 Y150.726 E24.50091
G1 X158.854 Y150.692 E24.53536
G1 X157.918 Y150.578 E24.56986
G1 X157.161 Y150.425 E24.59811
G1 X154.466 Y149.785 E24.69945
G1 X152.006 Y149.273 E24.79139
G1 X149.543 Y148.838 E24.88289
G1 X147.037 Y148.464 E24.97559
G1 X144.543 Y148.165 E25.06749
G1 X142.053 Y147.938 E25.15897
G1 X139.524 Y147.778 E25.25168
G1 X137.044 Y147.692 E25.34247
G1 X134.489 Y147.676 E25.43595
G1 X132.009 Y147.73 E25.5267
G1 X129.494 Y147.857 E25.61883
G1 X126.987 Y148.054 E25.71084
G1 X124.469 Y148.324 E25.80349
G1 X121.979 Y148.663 E25.89543
G1 X119.494 Y149.073 E25.98758
G1 X117.068 Y149.543 E26.07798
G1 X114.262 Y150.173 E26.1832
G1 X113.251 Y150.417 E26.22125
G1 X112.326 Y150.599 E26.25574
G1 X111.39 Y150.701 E26.29019
G1 X110.448 Y150.724 E26.32466
G1 X109.837 Y150.696 E26.34704
G1 X108.518 Y150.599 E26.39543
G1 X108.353 Y150.586 E26.40148
