;FLAVOR:Marlin
;TIME:611
;Filament used: 0.19583m
;Layer height: 0.2
;MINX:105.138
;MINY:105.982
;MINZ:0.2
;MAXX:114.863
;MAXY:114.858
;MAXZ:22
;Generated with Cura_SteamEngine 4.2.1
M140 S50
M105
M190 S50
M104 S200
M105
M109 S200
M82 ;absolute extrusion mode
M201 X500.00 Y500.00 Z100.00 E5000.00 ;Setup machine max acceleration
M203 X500.00 Y500.00 Z10.00 E50.00 ;Setup machine max feedrate
M204 P500.00 R1000.00 T500.00 ;Setup Print/Retract/Travel acceleration
M205 X8.00 Y8.00 Z0.40 E5.00 ;Setup Jerk
M220 S100 ;Reset Feedrate
M221 S100 ;Reset Flowrate

G28 ;Home

G92 E0 ;Reset Extruder
G1 Z2.0 F3000 ;Move Z Axis up
G1 X10.1 Y20 Z0.28 F5000.0 ;Move to start position
G1 X10.1 Y200.0 Z0.28 F1500.0 E15 ;Draw the first line
G1 X10.4 Y200.0 Z0.28 F5000.0 ;Move to side a little
G1 X10.4 Y20 Z0.28 F1500.0 E30 ;Draw the second line
G92 E0 ;Reset Extruder
G1 Z2.0 F3000 ;Move Z Axis up

M141 S28
G92 E0
G92 E0
G1 F2700 E-5
;LAYER_COUNT:110
;LAYER:0
M107
;MESH:M4.5 v0.stl
G0 F6000 X109.924 Y113.539 Z0.2
;TYPE:WALL-INNER
G1 F2700 E0
G1 F678.9 X109.601 Y113.517 E0.01184
G1 X109.293 Y113.468 E0.02325
G1 X109.104 Y113.421 E0.03038
G1 X109.004 Y113.396 E0.03415
G1 X108.692 Y113.289 E0.04622
G1 X108.411 Y113.164 E0.05747
G1 X108.142 Y113.013 E0.06876
G1 X107.886 Y112.84 E0.08006
G1 X107.628 Y112.629 E0.09226
G1 X107.48 Y112.483 E0.09986
G1 X107.413 Y112.418 E0.10328
G1 X107.214 Y112.185 E0.11449
G1 X107.029 Y111.925 E0.12616
G1 X106.937 Y111.768 E0.13282
G1 X106.868 Y111.651 E0.13779
G1 X106.733 Y111.368 E0.14926
G1 X106.625 Y111.075 E0.16069
G1 X106.589 Y110.942 E0.16573
G1 X106.546 Y110.785 E0.17168
G1 X106.488 Y110.46 E0.18376
G1 X106.462 Y110.161 E0.19474
G1 X106.462 Y109.839 E0.20652
G1 X106.488 Y109.541 E0.21747
G1 X106.546 Y109.214 E0.22962
G1 X106.589 Y109.058 E0.23554
G1 X106.626 Y108.922 E0.24069
G1 X106.733 Y108.632 E0.252
G1 X106.868 Y108.349 E0.26347
G1 X106.937 Y108.232 E0.26844
G1 X107.029 Y108.075 E0.2751
G1 X107.214 Y107.815 E0.28678
G1 X107.413 Y107.582 E0.29799
G1 X107.48 Y107.517 E0.3014
G1 X107.628 Y107.371 E0.30901
G1 X107.886 Y107.16 E0.3212
G1 X108.142 Y106.987 E0.33251
G1 X108.411 Y106.836 E0.34379
G1 X108.692 Y106.711 E0.35504
G1 X109.004 Y106.604 E0.36711
G1 X109.107 Y106.578 E0.371
G1 X109.293 Y106.532 E0.37801
G1 X109.601 Y106.483 E0.38942
G1 X109.924 Y106.461 E0.40126
G1 X110 Y106.462 E0.40404
G1 X110.235 Y106.469 E0.41265
G1 X110.543 Y106.503 E0.42398
G1 X110.852 Y106.565 E0.43551
G1 X110.888 Y106.575 E0.43688
G1 X111.147 Y106.653 E0.44678
G1 X111.445 Y106.771 E0.4585
G1 X111.719 Y106.907 E0.46969
G1 X111.993 Y107.076 E0.48147
G1 X112.246 Y107.265 E0.49303
G1 X112.467 Y107.463 E0.50388
G1 X112.522 Y107.521 E0.50681
G1 X112.692 Y107.703 E0.51592
G1 X112.875 Y107.936 E0.52676
G1 X113.05 Y108.209 E0.53862
G1 X113.063 Y108.233 E0.53962
G1 X113.193 Y108.479 E0.5498
G1 X113.318 Y108.775 E0.56155
G1 X113.405 Y109.051 E0.57214
G1 X113.413 Y109.073 E0.573
G1 X113.483 Y109.381 E0.58455
G1 X113.523 Y109.679 E0.59556
G1 X113.537 Y110 E0.60731
G1 X113.523 Y110.321 E0.61907
G1 X113.483 Y110.619 E0.63007
G1 X113.413 Y110.927 E0.64162
G1 X113.406 Y110.949 E0.64247
G1 X113.317 Y111.229 E0.65322
G1 X113.195 Y111.518 E0.66469
G1 X113.064 Y111.765 E0.67492
G1 X113.053 Y111.786 E0.67579
G1 X112.878 Y112.058 E0.68762
G1 X112.687 Y112.301 E0.69893
G1 X112.517 Y112.482 E0.70802
G1 X112.466 Y112.537 E0.71076
G1 X112.246 Y112.735 E0.72159
G1 X111.993 Y112.924 E0.73314
G1 X111.719 Y113.093 E0.74492
G1 X111.445 Y113.229 E0.75611
G1 X111.147 Y113.347 E0.76784
G1 X110.888 Y113.425 E0.77773
G1 X110.852 Y113.435 E0.7791
G1 X110.543 Y113.497 E0.79063
G1 X110.235 Y113.531 E0.80197
G1 X110.001 Y113.537 E0.81053
G1 X109.924 Y113.539 E0.81335
G0 F6000 X109.998 Y113.429
G1 F678.9 X110.131 Y113.353 E0.81453
G1 X110.377 Y113.211 E0.82164
G1 X110.635 Y113.062 E0.83136
G1 X110.667 Y113.043 E0.83271
G1 X112.289 Y112.107 E0.90122
G1 X112.504 Y111.983 E0.90945
G1 X112.751 Y111.84 E0.91671
G1 X112.968 Y111.715 E0.91987
G1 X112.968 Y111.518 E0.92184
G1 X112.968 Y111.229 E0.92868
G1 X112.968 Y110.936 E0.93831
G1 X112.968 Y109.064 E1.0068
G1 X112.968 Y108.775 E1.0163
G1 X112.968 Y108.479 E1.0233
G1 X112.968 Y108.285 E1.02519
G1 X112.748 Y108.158 E1.02848
G1 X112.509 Y108.02 E1.03622
G1 X112.294 Y107.896 E1.04455
G1 X110.669 Y106.958 E1.11319
G1 X110.637 Y106.939 E1.11454
G1 X110.378 Y106.79 E1.12399
G1 X110.132 Y106.648 E1.13023
G1 X109.998 Y106.571 E1.13143
G1 X109.74 Y106.72 E1.13749
G1 X109.487 Y106.866 E1.14606
G1 X109.321 Y106.961 E1.15263
G1 X107.703 Y107.895 E1.22098
G1 X107.622 Y107.942 E1.22417
G1 X107.371 Y108.087 E1.23294
G1 X107.12 Y108.232 E1.23877
G1 X107.028 Y108.285 E1.2392
G1 X107.028 Y108.349
G1 X107.028 Y108.632 E1.24442
G1 X107.028 Y108.922 E1.25279
G1 X107.028 Y109.063 E1.25773
G1 X107.028 Y110.937 E1.32629
G1 X107.028 Y111.075 E1.33094
G1 X107.028 Y111.368 E1.33941
G1 X107.028 Y111.651 E1.34463
G1 X107.028 Y111.715
G1 X107.118 Y111.767 E1.34498
G1 X107.371 Y111.913 E1.35089
G1 X107.62 Y112.057 E1.35999
G1 X107.701 Y112.104 E1.36333
G1 X109.318 Y113.037 E1.43163
G1 X109.486 Y113.134 E1.4381
G1 X109.738 Y113.279 E1.4466
G1 X109.998 Y113.429 E1.4516
G0 F6000 X109.915 Y113.979
;TYPE:WALL-OUTER
G1 F678.9 X109.549 Y113.954 E1.46502
G1 X109.209 Y113.901 E1.47761
G1 X108.876 Y113.818 E1.49016
G1 X108.537 Y113.701 E1.50328
G1 X108.21 Y113.556 E1.51637
G1 X107.912 Y113.389 E1.52887
G1 X107.616 Y113.188 E1.54196
G1 X107.341 Y112.963 E1.55496
G1 X107.091 Y112.719 E1.56774
G1 X106.865 Y112.453 E1.58051
G1 X106.659 Y112.165 E1.59346
G1 X106.481 Y111.861 E1.60635
G1 X106.326 Y111.535 E1.61956
G1 X106.208 Y111.215 E1.63204
G1 X106.116 Y110.879 E1.64478
G1 X106.052 Y110.518 E1.6582
G1 X106.022 Y110.177 E1.67072
G1 X106.022 Y109.823 E1.68367
G1 X106.052 Y109.482 E1.6962
G1 X106.117 Y109.116 E1.7098
G1 X106.208 Y108.785 E1.72236
G1 X106.326 Y108.465 E1.73483
G1 X106.481 Y108.139 E1.74804
G1 X106.659 Y107.835 E1.76093
G1 X106.865 Y107.547 E1.77388
G1 X107.091 Y107.281 E1.78665
G1 X107.341 Y107.037 E1.79943
G1 X107.616 Y106.812 E1.81243
G1 X107.912 Y106.611 E1.82552
G1 X108.21 Y106.444 E1.83802
G1 X108.537 Y106.299 E1.85111
G1 X108.876 Y106.182 E1.86423
G1 X109.209 Y106.099 E1.87679
G1 X109.549 Y106.046 E1.88938
G1 X109.915 Y106.021 E1.9028
G1 X110.26 Y106.029 E1.91542
G1 X110.61 Y106.068 E1.92831
G1 X110.963 Y106.139 E1.94148
G1 X111.289 Y106.236 E1.95392
G1 X111.626 Y106.369 E1.96718
G1 X111.937 Y106.524 E1.97989
G1 X112.237 Y106.709 E1.99279
G1 X112.523 Y106.923 E2.00586
G1 X112.777 Y107.151 E2.01834
G1 X113.022 Y107.412 E2.03144
G1 X113.236 Y107.685 E2.04413
G1 X113.432 Y107.989 E2.05737
G1 X113.59 Y108.288 E2.06974
G1 X113.731 Y108.621 E2.08297
G1 X113.838 Y108.957 E2.09587
G1 X113.916 Y109.303 E2.10885
G1 X113.962 Y109.647 E2.12154
G1 X113.978 Y110 E2.13447
G1 X113.962 Y110.353 E2.1474
G1 X113.916 Y110.697 E2.1601
G1 X113.838 Y111.043 E2.17307
G1 X113.731 Y111.379 E2.18598
G1 X113.592 Y111.708 E2.19904
G1 X113.432 Y112.011 E2.21158
G1 X113.236 Y112.315 E2.22481
G1 X113.022 Y112.587 E2.23747
G1 X112.777 Y112.849 E2.2506
G1 X112.523 Y113.077 E2.26309
G1 X112.237 Y113.291 E2.27615
G1 X111.937 Y113.476 E2.28905
G1 X111.626 Y113.631 E2.30176
G1 X111.289 Y113.764 E2.31502
G1 X110.963 Y113.861 E2.32746
G1 X110.61 Y113.932 E2.34063
G1 X110.26 Y113.971 E2.35352
G1 X109.915 Y113.979 E2.36615
G0 F6000 X109.998 Y112.921
G1 F678.9 X112.528 Y111.461 E2.47301
G1 X112.528 Y108.539 E2.57992
G1 X109.998 Y107.079 E2.68679
G1 X107.468 Y108.539 E2.79366
G1 X107.468 Y111.461 E2.90056
G1 X109.998 Y112.921 E3.00743
G0 F6000 X109.1 Y113.144
;TYPE:SKIN
G1 F678.9 X108.539 Y112.894 E3.01736
G1 X107.867 Y112.534 E3.02967
G0 F6000 X107.68 Y112.347
G0 X106.794 Y110.838
G0 X106.77 Y110.814
G1 F678.9 X106.755 Y110.488 E3.03416
G1 X106.787 Y109.276 E3.05082
G0 F6000 X106.739 Y109.228
G0 X107.881 Y107.57
G0 X107.837 Y107.526
G1 F678.9 X108.021 Y107.399 E3.0541
G1 X109.027 Y106.849 E3.0709
G0 F6000 X109.065 Y106.887
G0 X110.867 Y106.823
G0 X110.903 Y106.859
G1 F678.9 X111.466 Y107.11 E3.08097
G1 X112.138 Y107.471 E3.09344
G0 F6000 X112.326 Y107.659
G0 X113.209 Y109.164
G0 X113.227 Y109.182
G1 F678.9 X113.237 Y109.503 E3.09775
G1 X113.205 Y110.716 E3.11403
G0 F6000 X113.253 Y110.764
G0 X112.115 Y112.426
G0 X112.159 Y112.47
G1 F678.9 X111.975 Y112.597 E3.11762
G1 X111.183 Y113.05 E3.13229
G0 F6000 X111.01 Y113.187
G1 F678.9 X110.931 Y113.109 E3.13433
;MESH:NONMESH
G0 F600 X110.931 Y113.109 Z0.4
G0 F6000 X109.924 Y113.539
;TIME_ELAPSED:13.760768
;LAYER:1
M140 S50
M106 S85
;TYPE:WALL-INNER
;MESH:M4.5 v0.stl
G1 F600 X109.601 Y113.517 E3.14617
G1 X109.293 Y113.468 E3.15758
G1 X109.104 Y113.421 E3.16471
G1 X109.004 Y113.396 E3.16848
G1 X108.692 Y113.289 E3.18054
G1 X108.411 Y113.164 E3.1918
G1 X108.142 Y113.013 E3.20308
G1 X107.886 Y112.84 E3.21439
G1 X107.628 Y112.629 E3.22658
G1 X107.48 Y112.483 E3.23419
G1 X107.413 Y112.418 E3.2376
G1 X107.214 Y112.185 E3.24881
G1 X107.029 Y111.925 E3.26049
G1 X106.937 Y111.768 E3.26714
G1 X106.868 Y111.651 E3.27211
G1 X106.733 Y111.368 E3.28359
G1 X106.625 Y111.075 E3.29501
G1 X106.589 Y110.942 E3.30005
G1 X106.546 Y110.785 E3.30601
G1 X106.488 Y110.46 E3.31809
G1 X106.462 Y110.161 E3.32907
G1 X106.462 Y109.839 E3.34085
G1 X106.488 Y109.541 E3.35179
G1 X106.546 Y109.214 E3.36394
G1 X106.589 Y109.058 E3.36986
G1 X106.626 Y108.922 E3.37502
G1 X106.733 Y108.632 E3.38633
G1 X106.868 Y108.349 E3.3978
G1 X106.937 Y108.232 E3.40277
G1 X107.029 Y108.075 E3.40943
G1 X107.214 Y107.815 E3.4211
G1 X107.413 Y107.582 E3.43231
G1 X107.48 Y107.517 E3.43573
G1 X107.628 Y107.371 E3.44333
G1 X107.886 Y107.16 E3.45553
G1 X108.142 Y106.987 E3.46683
G1 X108.411 Y106.836 E3.47812
G1 X108.692 Y106.711 E3.48937
G1 X109.004 Y106.604 E3.50144
G1 X109.107 Y106.578 E3.50532
G1 X109.293 Y106.532 E3.51233
G1 X109.601 Y106.483 E3.52374
G1 X109.924 Y106.461 E3.53559
G1 X110 Y106.462 E3.53837
G1 X110.235 Y106.469 E3.54697
G1 X110.543 Y106.503 E3.55831
G1 X110.852 Y106.565 E3.56984
G1 X110.888 Y106.575 E3.5712
G1 X111.147 Y106.653 E3.5811
G1 X111.445 Y106.771 E3.59283
G1 X111.719 Y106.907 E3.60402
G1 X111.993 Y107.076 E3.6158
G1 X112.246 Y107.265 E3.62735
G1 X112.467 Y107.463 E3.63821
G1 X112.522 Y107.521 E3.64113
G1 X112.692 Y107.703 E3.65024
G1 X112.875 Y107.936 E3.66108
G1 X113.05 Y108.209 E3.67295
G1 X113.063 Y108.233 E3.67395
G1 X113.193 Y108.479 E3.68412
G1 X113.318 Y108.775 E3.69588
G1 X113.405 Y109.051 E3.70647
G1 X113.413 Y109.073 E3.70732
G1 X113.483 Y109.381 E3.71888
G1 X113.523 Y109.679 E3.72988
G1 X113.537 Y110 E3.74164
G1 X113.523 Y110.321 E3.75339
G1 X113.483 Y110.619 E3.76439
G1 X113.413 Y110.927 E3.77595
G1 X113.406 Y110.949 E3.77679
G1 X113.317 Y111.229 E3.78754
G1 X113.195 Y111.518 E3.79902
G1 X113.064 Y111.765 E3.80925
G1 X113.053 Y111.786 E3.81011
G1 X112.878 Y112.058 E3.82195
G1 X112.687 Y112.301 E3.83326
G1 X112.517 Y112.482 E3.84234
G1 X112.466 Y112.537 E3.84509
G1 X112.246 Y112.735 E3.85591
G1 X111.993 Y112.924 E3.86747
G1 X111.719 Y113.093 E3.87925
G1 X111.445 Y113.229 E3.89044
G1 X111.147 Y113.347 E3.90216
G1 X110.888 Y113.425 E3.91206
G1 X110.852 Y113.435 E3.91343
G1 X110.543 Y113.497 E3.92496
G1 X110.235 Y113.531 E3.93629
G1 X110.001 Y113.537 E3.94486
G1 X109.924 Y113.539 E3.94768
G0 F7500 X109.998 Y113.429
G1 F600 X110.131 Y113.353 E3.94885
G1 X110.377 Y113.211 E3.95596
G1 X110.635 Y113.062 E3.96569
G1 X110.667 Y113.043 E3.96704
G1 X112.289 Y112.107 E4.03555
G1 X112.504 Y111.983 E4.04378
G1 X112.751 Y111.84 E4.05104
G1 X112.968 Y111.715 E4.05419
G1 X112.968 Y111.518 E4.05617
G1 X112.968 Y111.229 E4.06301
G1 X112.968 Y110.936 E4.07263
G1 X112.968 Y109.064 E4.14112
G1 X112.968 Y108.775 E4.15063
G1 X112.968 Y108.479 E4.15762
G1 X112.968 Y108.285 E4.15951
G1 X112.748 Y108.158 E4.1628
G1 X112.509 Y108.02 E4.17055
G1 X112.294 Y107.896 E4.17887
G1 X110.669 Y106.958 E4.24752
G1 X110.637 Y106.939 E4.24887
G1 X110.378 Y106.79 E4.25831
G1 X110.132 Y106.648 E4.26456
G1 X109.998 Y106.571 E4.26576
G1 X109.74 Y106.72 E4.27182
G1 X109.487 Y106.866 E4.28038
G1 X109.321 Y106.961 E4.28696
G1 X107.703 Y107.895 E4.35531
G1 X107.622 Y107.942 E4.3585
G1 X107.371 Y108.087 E4.36727
G1 X107.12 Y108.232 E4.37309
G1 X107.028 Y108.285 E4.37353
G1 X107.028 Y108.349
G1 X107.028 Y108.632 E4.37875
G1 X107.028 Y108.922 E4.38712
G1 X107.028 Y109.063 E4.39206
G1 X107.028 Y110.937 E4.46062
G1 X107.028 Y111.075 E4.46527
G1 X107.028 Y111.368 E4.47374
G1 X107.028 Y111.651 E4.47896
G1 X107.028 Y111.715
G1 X107.118 Y111.767 E4.47931
G1 X107.371 Y111.913 E4.48521
G1 X107.62 Y112.057 E4.49432
G1 X107.701 Y112.104 E4.49765
G1 X109.318 Y113.037 E4.56595
G1 X109.486 Y113.134 E4.57243
G1 X109.738 Y113.279 E4.58092
G1 X109.998 Y113.429 E4.58592
G0 F7500 X109.915 Y113.979
;TYPE:WALL-OUTER
G1 F600 X109.549 Y113.954 E4.59934
G1 X109.209 Y113.901 E4.61193
G1 X108.876 Y113.818 E4.62449
G1 X108.537 Y113.701 E4.63761
G1 X108.21 Y113.556 E4.6507
G1 X107.912 Y113.389 E4.66319
G1 X107.616 Y113.188 E4.67628
G1 X107.341 Y112.963 E4.68928
G1 X107.091 Y112.719 E4.70206
G1 X106.865 Y112.453 E4.71483
G1 X106.659 Y112.165 E4.72779
G1 X106.481 Y111.861 E4.74068
G1 X106.326 Y111.535 E4.75388
G1 X106.208 Y111.215 E4.76636
G1 X106.116 Y110.879 E4.77911
G1 X106.052 Y110.518 E4.79252
G1 X106.022 Y110.177 E4.80505
G1 X106.022 Y109.823 E4.818
G1 X106.052 Y109.482 E4.83052
G1 X106.117 Y109.116 E4.84412
G1 X106.208 Y108.785 E4.85668
G1 X106.326 Y108.465 E4.86916
G1 X106.481 Y108.139 E4.88237
G1 X106.659 Y107.835 E4.89525
G1 X106.865 Y107.547 E4.90821
G1 X107.091 Y107.281 E4.92098
G1 X107.341 Y107.037 E4.93376
G1 X107.616 Y106.812 E4.94676
G1 X107.912 Y106.611 E4.95985
G1 X108.21 Y106.444 E4.97235
G1 X108.537 Y106.299 E4.98544
G1 X108.876 Y106.182 E4.99856
G1 X109.209 Y106.099 E5.01111
G1 X109.549 Y106.046 E5.0237
G1 X109.915 Y106.021 E5.03712
G1 X110.26 Y106.029 E5.04975
G1 X110.61 Y106.068 E5.06263
G1 X110.963 Y106.139 E5.07581
G1 X111.289 Y106.236 E5.08825
G1 X111.626 Y106.369 E5.10151
G1 X111.937 Y106.524 E5.11422
G1 X112.237 Y106.709 E5.12711
G1 X112.523 Y106.923 E5.14018
G1 X112.777 Y107.151 E5.15267
G1 X113.022 Y107.412 E5.16577
G1 X113.236 Y107.685 E5.17846
G1 X113.432 Y107.989 E5.19169
G1 X113.59 Y108.288 E5.20406
G1 X113.731 Y108.621 E5.21729
G1 X113.838 Y108.957 E5.2302
G1 X113.916 Y109.303 E5.24317
G1 X113.962 Y109.647 E5.25587
G1 X113.978 Y110 E5.2688
G1 X113.962 Y110.353 E5.28173
G1 X113.916 Y110.697 E5.29442
G1 X113.838 Y111.043 E5.3074
G1 X113.731 Y111.379 E5.3203
G1 X113.592 Y111.708 E5.33337
G1 X113.432 Y112.011 E5.3459
G1 X113.236 Y112.315 E5.35914
G1 X113.022 Y112.587 E5.3718
G1 X112.777 Y112.849 E5.38492
G1 X112.523 Y113.077 E5.39741
G1 X112.237 Y113.291 E5.41048
G1 X111.937 Y113.476 E5.42337
G1 X111.626 Y113.631 E5.43609
G1 X111.289 Y113.764 E5.44934
G1 X110.963 Y113.861 E5.46179
G1 X110.61 Y113.932 E5.47496
G1 X110.26 Y113.971 E5.48784
G1 X109.915 Y113.979 E5.50047
G0 F7500 X109.998 Y112.921
G1 F600 X112.528 Y111.461 E5.60734
G1 X112.528 Y108.539 E5.71424
G1 X109.998 Y107.079 E5.82111
G1 X107.468 Y108.539 E5.92798
G1 X107.468 Y111.461 E6.03489
G1 X109.998 Y112.921 E6.14176
G0 F7500 X109.004 Y113.139
;TYPE:SKIN
G1 F600 X108.792 Y113.041 E6.14525
G1 X107.818 Y112.459 E6.16222
G0 F7500 X107.861 Y112.416
G0 X106.733 Y110.744
G1 F600 X106.836 Y110.64 E6.1649
G0 F7500 X106.76 Y110.405
G1 F600 X106.746 Y110.108 E6.17069
G1 X106.757 Y109.475 E6.18302
G0 F7500 X106.836 Y109.396
G0 X107.666 Y107.633
G0 X107.796 Y107.502
G1 F600 X108.472 Y107.137 E6.19536
G1 X109.056 Y106.864 E6.20573
G0 F7500 X109.122 Y106.799
G0 X110.909 Y106.879
G0 X110.947 Y106.841
