;FLAVOR:Marlin
;TIME:377
;Filament used: 0.0987005m
;Layer height: 0.2
;MINX:105.032
;MINY:105.341
;MINZ:0.2
;MAXX:115.01
;MAXY:115.098
;MAXZ:6
;Generated with Cura_SteamEngine 4.2.1
M140 S50
M105
M190 S50
M104 S200
M105
M109 S200
M82 ;absolute extrusion mode
M201 X500.00 Y500.00 Z100.00 E5000.00 ;Setup machine max acceleration
M203 X500.00 Y500.00 Z10.00 E50.00 ;Setup machine max feedrate
M204 P500.00 R1000.00 T500.00 ;Setup Print/Retract/Travel acceleration
M205 X8.00 Y8.00 Z0.40 E5.00 ;Setup Jerk
M220 S100 ;Reset Feedrate
M221 S100 ;Reset Flowrate

G28 ;Home

G92 E0 ;Reset Extruder
G1 Z2.0 F3000 ;Move Z Axis up
G1 X10.1 Y20 Z0.28 F5000.0 ;Move to start position
G1 X10.1 Y200.0 Z0.28 F1500.0 E15 ;Draw the first line
G1 X10.4 Y200.0 Z0.28 F5000.0 ;Move to side a little
G1 X10.4 Y20 Z0.28 F1500.0 E30 ;Draw the second line
G92 E0 ;Reset Extruder
G1 Z2.0 F3000 ;Move Z Axis up

M141 S28
G92 E0
G92 E0
G1 F2700 E-5
;LAYER_COUNT:30
;LAYER:0
M107
;MESH:M9x125 v1.stl
G0 F6000 X113.25 Y110.729 Z0.2
;TYPE:WALL-INNER
G1 F2700 E0
G1 F691.2 X113.25 Y110.626 E0.00377
G1 X113.25 Y110.427 E0.01105
G1 X113.25 Y110.266 E0.01694
G1 X113.25 Y110.01 E0.02631
G1 X113.25 Y109.843 E0.03242
G1 X113.25 Y109.72 E0.03692
G1 X113.25 Y109.537 E0.04361
G1 X113.25 Y109.464 E0.04628
G1 X113.271 Y109.537 E0.0464
G1 X113.311 Y109.72 E0.04714
G1 X113.329 Y109.843 E0.04789
G1 X113.333 Y110.01 E0.04902
G1 X113.323 Y110.266 E0.05068
G1 X113.306 Y110.427 E0.05155
G1 X113.273 Y110.626 E0.05226
G1 X113.25 Y110.729 E0.05242
G1 F2700 E-4.94758
G0 F6000 X111.491 Y110.861
G0 X110 Y111.721
G0 X110.254 Y113.491
G1 F2700 E0.05242
G1 F691.2 X109.982 Y113.471 E0.0624
G1 X109.942 Y113.467 E0.06387
G1 X109.729 Y113.437 E0.07174
G1 X109.526 Y113.393 E0.07934
G1 X109.312 Y113.334 E0.08746
G1 X109.197 Y113.289 E0.09198
G1 X108.893 Y113.171 E0.10391
G1 X108.572 Y112.999 E0.11723
G1 X108.405 Y112.89 E0.12453
G1 X108.126 Y112.671 E0.1375
G1 X108.104 Y112.654 E0.13852
G1 X107.959 Y112.518 E0.14579
G1 X107.83 Y112.377 E0.15278
G1 X107.726 Y112.254 E0.15868
G1 X107.62 Y112.113 E0.16513
G1 X107.512 Y111.949 E0.17232
G1 X107.394 Y111.74 E0.1811
G1 X107.572 Y111.843 E0.18182
G1 X107.725 Y111.931 E0.18413
G1 X107.865 Y112.012 E0.18819
G1 X107.997 Y112.088 E0.19204
G1 X108.154 Y112.179 E0.19786
G1 X108.321 Y112.275 E0.20438
G1 X108.345 Y112.289 E0.20539
G1 X109.416 Y112.907 E0.25063
G1 X109.523 Y112.969 E0.25499
G1 X109.709 Y113.076 E0.26219
G1 X109.88 Y113.175 E0.26755
G1 X110 Y113.245 E0.2701
G1 X110.083 Y113.197 E0.27126
G1 X110.245 Y113.103 E0.27811
G1 X112.81 Y111.622 E0.38647
G1 X112.81 Y108.497 E0.50081
G1 X112.81 Y108.378 E0.50516
G1 X112.666 Y108.295 E0.51124
G1 X110.71 Y107.165 E0.59389
G1 X110.561 Y107.079 E0.60018
G1 X110.411 Y106.992 E0.60653
G1 X110.247 Y106.898 E0.61344
G1 X110.094 Y106.81 E0.6199
G1 X110 Y106.755 E0.62388
G1 X109.971 Y106.772 E0.62511
G1 X109.724 Y106.914 E0.63554
G1 X109.565 Y107.005 E0.64224
G1 X109.39 Y107.106 E0.64963
G1 X109.243 Y107.191 E0.65584
G1 X109.122 Y107.261 E0.66096
G1 X108.957 Y107.356 E0.66792
G1 X108.762 Y107.469 E0.67617
G1 X108.508 Y107.616 E0.68691
G1 X108.41 Y107.673 E0.69106
G1 X108.243 Y107.769 E0.6981
G1 X108.081 Y107.863 E0.70496
G1 X107.935 Y107.947 E0.71112
G1 X107.772 Y108.041 E0.718
G1 X107.674 Y108.098 E0.72215
G1 X107.542 Y108.175 E0.72774
G1 X107.643 Y108.045 E0.72845
G1 X107.722 Y107.953 E0.72943
G1 X107.857 Y107.812 E0.73165
G1 X107.984 Y107.695 E0.7342
G1 X108.13 Y107.574 E0.73788
G1 X108.288 Y107.461 E0.74168
G1 X108.384 Y107.4 E0.74395
G1 X108.624 Y107.229 E0.75058
G1 X108.817 Y107.114 E0.75579
G1 X108.988 Y107.027 E0.76016
G1 X109.115 Y106.971 E0.76316
G1 X109.276 Y106.909 E0.76696
G1 X109.474 Y106.847 E0.77056
G1 X109.659 Y106.801 E0.77371
G1 X109.958 Y106.751 E0.77662
G1 X109.999 Y106.748 E0.77685
G1 X110.138 Y106.735 E0.77807
G1 X110.345 Y106.729 E0.78216
G1 X110.558 Y106.736 E0.78784
G1 X110.748 Y106.753 E0.79326
G1 X110.919 Y106.779 E0.79913
G1 X110.955 Y106.785 E0.80046
G1 X111.151 Y106.829 E0.80781
G1 X111.354 Y106.887 E0.81553
G1 X111.551 Y106.956 E0.82317
G1 X111.741 Y107.037 E0.83073
G1 X111.92 Y107.125 E0.83803
G1 X112.115 Y107.237 E0.84625
G1 X112.282 Y107.348 E0.85359
G1 X112.457 Y107.479 E0.86159
G1 X112.616 Y107.614 E0.86922
G1 X112.762 Y107.753 E0.87659
G1 X112.918 Y107.923 E0.88504
G1 X112.945 Y107.956 E0.8866
G1 X113.051 Y108.085 E0.89229
G1 X113.108 Y108.165 E0.89588
G1 X113.137 Y108.205 E0.89769
G1 X113.202 Y108.305 E0.90171
G1 X113.264 Y108.4 E0.90587
G1 X113.389 Y108.619 E0.91509
G1 X113.471 Y108.785 E0.92186
G1 X113.565 Y109.004 E0.93058
G1 X113.639 Y109.22 E0.93894
G1 X113.698 Y109.43 E0.94692
G1 X113.745 Y109.643 E0.9549
G1 X113.768 Y109.803 E0.96081
G1 X113.773 Y110.016 E0.96861
G1 X113.763 Y110.287 E0.97853
G1 X113.74 Y110.5 E0.98637
G1 X113.703 Y110.721 E0.99457
G1 X113.673 Y110.857 E0.99966
G1 X113.599 Y111.101 E1.00899
G1 X113.576 Y111.203 E1.01281
G1 X113.513 Y111.381 E1.01972
G1 X113.383 Y111.667 E1.03122
G1 X113.281 Y111.863 E1.0393
G1 X113.176 Y112.035 E1.04667
G1 X113.071 Y112.192 E1.05358
G1 X112.94 Y112.365 E1.06152
G1 X112.872 Y112.444 E1.06534
G1 X112.814 Y112.503 E1.06836
G1 X112.673 Y112.627 E1.07523
G1 X112.473 Y112.786 E1.08458
G1 X112.262 Y112.93 E1.09393
G1 X112.085 Y113.036 E1.10147
G1 X111.879 Y113.142 E1.10995
G1 X111.665 Y113.235 E1.11849
G1 X111.455 Y113.312 E1.12667
G1 X111.136 Y113.401 E1.13879
G1 X110.903 Y113.446 E1.14747
G1 X110.69 Y113.475 E1.15533
G1 X110.475 Y113.49 E1.16322
G1 X110.442 Y113.491 E1.16443
G1 X110.254 Y113.491 E1.17055
G1 F2700 E-3.82945
G0 F6000 X109.801 Y114.785
G0 X109.774 Y114.705
G0 X108.536 Y110.945
G0 X108.509 Y110.861
G0 X107.19 Y111.254
G1 F2700 E1.17055
G1 F691.2 X107.115 Y111.027 E1.1793
G1 X107.061 Y110.862 E1.18565
G1 X107.011 Y110.659 E1.1933
G1 X106.955 Y110.323 E1.20576
G1 X106.941 Y110.143 E1.21237
G1 X106.938 Y109.967 E1.21881
G1 X106.948 Y109.745 E1.22694
G1 X106.97 Y109.557 E1.23386
G1 X107.027 Y109.263 E1.24482
G1 X107.072 Y109.102 E1.25094
G1 X107.19 Y108.785 E1.26331
G1 X107.19 Y109.102 E1.26471
G1 X107.19 Y109.263 E1.26655
G1 X107.19 Y109.557 E1.27121
G1 X107.19 Y109.745 E1.27482
G1 X107.19 Y109.967 E1.27938
G1 X107.19 Y110.143 E1.28305
G1 X107.19 Y110.323 E1.28667
G1 X107.19 Y110.659 E1.29244
G1 X107.19 Y110.862 E1.295
G1 X107.19 Y111.027 E1.29634
G1 X107.19 Y111.254 E1.29695
G1 F2700 E-3.70305
G0 F6000 X108.509 Y110.861
G0 X108.529 Y110.908
G0 X110.138 Y114.735
G0 X110.172 Y114.813
G0 X110.235 Y113.931
;TYPE:WALL-OUTER
G1 F2700 E1.29695
G1 F691.2 X109.904 Y113.906 E1.30909
G1 X109.649 Y113.869 E1.31852
G1 X109.415 Y113.819 E1.32728
G1 X109.177 Y113.753 E1.33631
G1 X108.709 Y113.571 E1.35468
G1 X108.344 Y113.376 E1.36982
G1 X108.149 Y113.249 E1.37834
G1 X107.817 Y112.988 E1.39379
G1 X107.651 Y112.832 E1.40212
G1 X107.496 Y112.663 E1.41051
G1 X107.391 Y112.54 E1.41643
G1 X107.259 Y112.365 E1.42445
G1 X107.137 Y112.179 E1.43259
G1 X107.023 Y111.982 E1.44091
G1 X106.931 Y111.8 E1.44838
G1 X106.841 Y111.588 E1.4568
G1 X106.77 Y111.385 E1.46467
G1 X106.735 Y111.266 E1.46921
G1 X106.698 Y111.17 E1.47297
G1 X106.639 Y110.988 E1.47997
G1 X106.58 Y110.752 E1.48887
G1 X106.517 Y110.372 E1.50296
G1 X106.501 Y110.167 E1.51049
G1 X106.498 Y109.947 E1.51854
G1 X106.508 Y109.725 E1.52667
G1 X106.535 Y109.487 E1.53543
G1 X106.598 Y109.165 E1.54744
G1 X106.652 Y108.969 E1.55487
G1 X106.764 Y108.663 E1.5668
G1 X106.82 Y108.529 E1.57211
G1 X106.954 Y108.272 E1.58271
G1 X107.065 Y108.09 E1.59051
G1 X107.179 Y107.924 E1.59788
G1 X107.296 Y107.774 E1.60484
G1 X107.398 Y107.655 E1.61057
G1 X107.544 Y107.503 E1.61828
G1 X107.698 Y107.361 E1.62595
G1 X107.866 Y107.222 E1.63393
G1 X108.039 Y107.098 E1.64171
G1 X108.137 Y107.035 E1.64598
G1 X108.379 Y106.863 E1.65684
G1 X108.607 Y106.727 E1.66655
G1 X108.799 Y106.63 E1.67442
G1 X108.94 Y106.567 E1.68007
G1 X109.134 Y106.492 E1.68768
G1 X109.352 Y106.424 E1.69604
G1 X109.575 Y106.369 E1.70444
G1 X109.898 Y106.315 E1.71642
G1 X110.118 Y106.295 E1.7245
G1 X110.346 Y106.289 E1.73285
G1 X110.579 Y106.296 E1.74138
G1 X110.809 Y106.317 E1.74983
G1 X111.027 Y106.351 E1.7579
G1 X111.26 Y106.403 E1.76663
G1 X111.485 Y106.467 E1.77519
G1 X111.714 Y106.547 E1.78406
G1 X111.928 Y106.639 E1.79259
G1 X112.13 Y106.738 E1.80082
G1 X112.341 Y106.859 E1.80972
G1 X112.538 Y106.99 E1.81837
G1 X112.73 Y107.134 E1.82715
G1 X112.912 Y107.289 E1.8359
G1 X113.078 Y107.447 E1.84428
G1 X113.242 Y107.625 E1.85314
G1 X113.403 Y107.821 E1.86242
G1 X113.506 Y107.965 E1.8689
G1 X113.641 Y108.173 E1.87797
G1 X113.771 Y108.4 E1.88754
G1 X113.876 Y108.612 E1.89619
G1 X113.973 Y108.839 E1.90523
G1 X114.055 Y109.077 E1.91444
G1 X114.124 Y109.321 E1.92371
G1 X114.179 Y109.567 E1.93293
G1 X114.201 Y109.712 E1.9383
G1 X114.208 Y109.793 E1.94127
G1 X114.213 Y110.021 E1.94962
G1 X114.203 Y110.31 E1.9602
G1 X114.174 Y110.573 E1.96988
G1 X114.133 Y110.816 E1.97889
G1 X114.101 Y110.961 E1.98433
G1 X114.025 Y111.213 E1.99396
G1 X114 Y111.324 E1.99812
G1 X113.918 Y111.554 E2.00705
G1 X113.781 Y111.856 E2.01919
G1 X113.667 Y112.074 E2.02819
G1 X113.548 Y112.27 E2.03658
G1 X113.427 Y112.45 E2.04451
G1 X113.281 Y112.643 E2.05337
G1 X113.194 Y112.744 E2.05824
G1 X113.121 Y112.819 E2.06207
G1 X112.947 Y112.971 E2.07052
G1 X112.727 Y113.146 E2.08081
G1 X112.51 Y113.294 E2.09042
G1 X112.298 Y113.421 E2.09946
G1 X112.059 Y113.544 E2.10929
G1 X111.837 Y113.64 E2.11814
G1 X111.591 Y113.73 E2.12773
G1 X111.346 Y113.802 E2.13707
G1 X111.229 Y113.831 E2.14148
G1 X110.978 Y113.88 E2.15084
G1 X110.73 Y113.913 E2.15999
G1 X110.494 Y113.93 E2.16865
G1 X110.235 Y113.931 E2.17812
G0 F6000 X110 Y112.737
G1 F691.2 X112.37 Y111.368 E2.27826
G1 X112.37 Y108.632 E2.37836
G1 X110 Y107.263 E2.47849
G1 X107.63 Y108.632 E2.57863
G1 X107.63 Y111.368 E2.67873
G1 X110 Y112.737 E2.77886
G0 F6000 X110.458 Y113.258
;TYPE:SKIN
G1 F691.2 X110.699 Y113.188 E2.7859
G1 X111.975 Y112.598 E2.82533
G1 X113.03 Y111.786 E2.86266
G1 X113.219 Y111.041 E2.88421
G1 X113.428 Y110.939 E2.89074
G0 F6000 X113.412 Y110.923
G0 X113.048 Y109.315
G0 X113.024 Y109.291
G1 F691.2 X113.16 Y109.115 E2.89876
G1 X113.176 Y108.82 E2.90943
G0 F6000 X112.461 Y107.794
G1 F691.2 X111.8 Y107.445 E2.93247
G1 X111.207 Y107.162 E2.95273
G1 F2700 E-2.04727
G0 F6000 X110 Y108.279
G0 X108.509 Y109.139
G0 X107.385 Y108.318
G1 F2700 E2.95273
G1 F691.2 X107.259 Y108.503 E2.96753
G0 F6000 X107.398 Y108.642
G0 X107.359 Y111.403
G0 X107.399 Y111.443
G1 F691.2 X107.177 Y111.533 E2.97404
G0 F6000 X107.092 Y111.447
G0 X108.627 Y112.671
G1 F691.2 X108.926 Y112.971 E2.98179
;MESH:NONMESH
G0 F600 X108.926 Y112.971 Z0.4
G0 F6000 X110.991 Y113.181
;TIME_ELAPSED:15.508111
;LAYER:1
M140 S50
M106 S85
;TYPE:WALL-INNER
;MESH:M9x125 v1.stl
G1 F600 X111.187 Y113.068 E2.99006
G1 X111.375 Y112.96 E2.998
G1 X111.566 Y112.849 E3.00608
G1 X111.728 Y112.756 E3.01291
G1 X111.889 Y112.663 E3.01972
G1 X111.982 Y112.609 E3.02365
G1 X112.135 Y112.52 E3.03013
G1 X112.006 Y112.649 E3.03061
G1 X111.923 Y112.721 E3.03115
G1 X111.768 Y112.825 E3.03229
G1 X111.606 Y112.919 E3.03352
G1 X111.409 Y113.019 E3.03487
G1 X111.209 Y113.104 E3.03601
G1 X110.991 Y113.181 E3.03653
G0 F7500 X109.993 Y113.773
G1 F600 X109.813 Y113.768 E3.04312
G1 X109.593 Y113.751 E3.05119
G1 X109.405 Y113.72 E3.05816
G1 X109.208 Y113.664 E3.06566
G1 X108.987 Y113.585 E3.07424
G1 X108.804 Y113.509 E3.08149
G1 X108.604 Y113.411 E3.08964
G1 X108.416 Y113.308 E3.09749
G1 X108.186 Y113.158 E3.10753
G1 X108.079 Y113.078 E3.11242
G1 X107.872 Y112.907 E3.12224
G1 X107.688 Y112.731 E3.13156
G1 X107.552 Y112.584 E3.13889
G1 X107.326 Y112.295 E3.15231
G1 X107.236 Y112.153 E3.15846
G1 X107.179 Y112.063 E3.16236
G1 X107.019 Y111.765 E3.17473
G1 X106.994 Y111.705 E3.17711
G1 X106.931 Y111.556 E3.18303
G1 X106.875 Y111.398 E3.18916
G1 X106.806 Y111.167 E3.19798
G1 X106.767 Y111.001 E3.20422
G1 X106.751 Y110.897 E3.20807
G1 X106.733 Y110.791 E3.212
G1 X106.712 Y110.595 E3.21921
G1 X106.703 Y110.412 E3.22592
G1 X106.706 Y110.206 E3.23346
G1 X106.72 Y110.01 E3.24065
G1 X106.743 Y109.832 E3.24721
G1 X106.751 Y109.793 E3.24867
G1 X106.783 Y109.623 E3.255
G1 X106.829 Y109.446 E3.26169
G1 X106.884 Y109.272 E3.26836
G1 X106.933 Y109.141 E3.27348
G1 X107.02 Y108.946 E3.28129
G1 X107.107 Y108.775 E3.28831
G1 X107.19 Y108.639 E3.29414
G1 X107.19 Y108.775 E3.29441
G1 X107.19 Y108.946 E3.29608
G1 X107.19 Y109.141 E3.29946
G1 X107.19 Y109.272 E3.3025
G1 X107.19 Y109.446 E3.30731
G1 X107.19 Y109.623 E3.31295
G1 X107.19 Y109.796 E3.31905
G1 X107.19 Y110.896 E3.35929
G1 X107.19 Y111.001 E3.36299
G1 X107.19 Y111.167 E3.36854
G1 X107.19 Y111.398 E3.37523
G1 X107.19 Y111.556 E3.37898
G1 X107.19 Y111.622 E3.37949
G1 X107.372 Y111.727 E3.3842
G1 X107.464 Y111.78 E3.38785
G1 X110 Y113.245 E3.49501
G1 X112.748 Y111.658 E3.61111
G1 X112.81 Y111.622 E3.61373
G1 X112.81 Y111.476 E3.61907
G1 X112.81 Y109.145 E3.70435
G1 X112.81 Y109.131 E3.70487
G1 X112.81 Y108.922 E3.71251
G1 X112.81 Y108.771 E3.71804
G1 X112.81 Y108.599 E3.72433
G1 X112.81 Y108.477 E3.72879
G1 X112.81 Y108.434 E3.73037
G1 X112.81 Y108.378 E3.73241
G1 X112.769 Y108.355 E3.73413
G1 X112.727 Y108.331 E3.7359
G1 X112.606 Y108.261 E3.74102
G1 X112.568 Y108.239 E3.74263
G1 X112.449 Y108.17 E3.74766
G1 X112.295 Y108.081 E3.75417
G1 X112.095 Y107.965 E3.76262
G1 X111.946 Y107.879 E3.76892
G1 X111.772 Y107.779 E3.77626
G1 X111.609 Y107.685 E3.78315
G1 X111.454 Y107.596 E3.78968
G1 X111.2 Y107.449 E3.80042
G1 X111.095 Y107.388 E3.80486
G1 X110.923 Y107.289 E3.81212
G1 X110.797 Y107.216 E3.81745
G1 X110.624 Y107.116 E3.82476
G1 X110.351 Y106.958 E3.8363
G1 X110.683 Y107.015 E3.83841
G1 X110.882 Y107.067 E3.84097
G1 X111.024 Y107.113 E3.84334
G1 X111.212 Y107.186 E3.84702
G1 X111.321 Y107.238 E3.8494
G1 X111.596 Y107.35 E3.85592
G1 X111.755 Y107.43 E3.86018
G1 X111.92 Y107.523 E3.86482
G1 X112.087 Y107.633 E3.86961
G1 X112.227 Y107.737 E3.87359
G1 X112.404 Y107.891 E3.87873
G1 X112.535 Y108.019 E3.88234
G1 X112.634 Y108.124 E3.88486
G1 X112.662 Y108.161
G1 X112.759 Y108.273 E3.88667
G1 X112.79 Y108.318 E3.88714
G1 X112.826 Y108.366 E3.88756
G1 X112.878 Y108.434 E3.88827
G1 X112.904 Y108.477 E3.8885
G1 X112.985 Y108.599 E3.89059
G1 X113.082 Y108.771 E3.89459
G1 X113.157 Y108.922 E3.89906
G1 X113.245 Y109.131 E3.90649
G1 X113.249 Y109.144 E3.90698
G1 X113.304 Y109.303 E3.91314
G1 X113.36 Y109.499 E3.9206
G1 X113.408 Y109.71 E3.92851
G1 X113.435 Y109.879 E3.93478
G1 X113.456 Y110.091 E3.94257
G1 X113.466 Y110.326 E3.95117
G1 X113.462 Y110.51 E3.95791
G1 X113.445 Y110.717 E3.96551
G1 X113.418 Y110.92 E3.973
G1 X113.376 Y111.133 E3.98094
G1 X113.328 Y111.323 E3.98811
G1 X113.259 Y111.528 E3.99603
G1 X113.234 Y111.592 E3.99854
G1 X113.181 Y111.728 E4.00355
G1 X113.155 Y111.784 E4.00566
G1 X113.104 Y111.891 E4.00975
G1 X113.071 Y111.954 E4.01235
G1 X112.995 Y112.097 E4.01828
G1 X112.886 Y112.279 E4.02604
G1 X112.766 Y112.453 E4.03377
G1 X112.621 Y112.639 E4.0424
G1 X112.474 Y112.803 E4.05046
G1 X112.31 Y112.967 E4.05894
G1 X112.222 Y113.046 E4.06327
G1 X112.173 Y113.083 E4.06552
G1 X112.004 Y113.197 E4.07298
G1 X111.814 Y113.307 E4.08101
G1 X111.596 Y113.418 E4.08996
G1 X111.37 Y113.514 E4.09894
G1 X111.161 Y113.589 E4.10707
G1 X110.952 Y113.65 E4.11503
G1 X110.719 Y113.703 E4.12377
G1 X110.412 Y113.75 E4.13514
G1 X110.224 Y113.766 E4.14204
G1 X109.993 Y113.773 E4.15049
G1 F2700 E-0.84951
G0 F7500 X109.746 Y115.091
G0 X109.729 Y115.012
G0 X108.932 Y111.178
G0 X108.509 Y109.139
G0 X107.543 Y108.174
G1 F2700 E4.15049
G1 F600 X107.587 Y108.113 E4.15325
G1 X107.695 Y107.984 E4.1594
G1 X107.81 Y107.858 E4.16564
