;FLAVOR:Marlin
;TIME:327
;Filament used: 0.0894552m
;Layer height: 0.2
;MINX:95.312
;MINY:95.389
;MINZ:0.2
;MAXX:125.161
;MAXY:125.239
;MAXZ:6
;Generated with Cura_SteamEngine 4.2.1
M140 S50
M105
M190 S50
M104 S200
M105
M109 S200
M82 ;absolute extrusion mode
M201 X500.00 Y500.00 Z100.00 E5000.00 ;Setup machine max acceleration
M203 X500.00 Y500.00 Z10.00 E50.00 ;Setup machine max feedrate
M204 P500.00 R1000.00 T500.00 ;Setup Print/Retract/Travel acceleration
M205 X8.00 Y8.00 Z0.40 E5.00 ;Setup Jerk
M220 S100 ;Reset Feedrate
M221 S100 ;Reset Flowrate

G28 ;Home

G92 E0 ;Reset Extruder
G1 Z2.0 F3000 ;Move Z Axis up
G1 X10.1 Y20 Z0.28 F5000.0 ;Move to start position
G1 X10.1 Y200.0 Z0.28 F1500.0 E15 ;Draw the first line
G1 X10.4 Y200.0 Z0.28 F5000.0 ;Move to side a little
G1 X10.4 Y20 Z0.28 F1500.0 E30 ;Draw the second line
G92 E0 ;Reset Extruder
G1 Z2.0 F3000 ;Move Z Axis up

M141 S28
G92 E0
G92 E0
G1 F2700 E-5
;LAYER_COUNT:30
;LAYER:0
M107
G0 F6000 X99.895 Y99.454 Z0.2
;TYPE:SKIRT
G1 F2700 E0
G1 F1200 X100.222 Y99.15 E0.01485
G1 X100.948 Y98.529 E0.04663
G1 X101.582 Y98.067 E0.07272
G1 X101.968 Y97.805 E0.08823
G1 X103.082 Y97.138 E0.13142
G1 X103.378 Y96.983 E0.14253
G1 X104.197 Y96.594 E0.17269
G1 X104.427 Y96.496 E0.181
G1 X105.767 Y96.022 E0.22828
G1 X106.219 Y95.893 E0.24391
G1 X107.148 Y95.669 E0.2757
G1 X107.704 Y95.574 E0.29446
G1 X108.006 Y95.53 E0.30461
G1 X108.952 Y95.432 E0.33624
G1 X109.506 Y95.398 E0.3547
G1 X110.726 Y95.389 E0.39528
G1 X111.293 Y95.415 E0.41416
G1 X112.244 Y95.499 E0.44591
G1 X112.803 Y95.586 E0.46473
G1 X113.079 Y95.636 E0.47406
G1 X113.762 Y95.781 E0.49728
G1 X113.97 Y95.832 E0.5044
G1 X114.948 Y96.119 E0.5383
G1 X115.243 Y96.22 E0.54867
G1 X116.104 Y96.554 E0.57939
G1 X116.322 Y96.649 E0.5873
G1 X117.431 Y97.206 E0.62858
G1 X117.866 Y97.455 E0.64525
G1 X119.037 Y98.224 E0.69184
G1 X119.276 Y98.403 E0.70177
G1 X120.219 Y99.192 E0.74267
G1 X120.577 Y99.526 E0.75895
G1 X121.504 Y100.5 E0.80368
G1 X121.696 Y100.727 E0.81356
G1 X122.284 Y101.484 E0.84544
G1 X122.488 Y101.771 E0.85716
G1 X123.215 Y102.937 E0.90286
G1 X123.449 Y103.368 E0.91917
G1 X124.026 Y104.601 E0.96445
G1 X124.18 Y104.989 E0.97833
G1 X124.607 Y106.286 E1.02375
G1 X124.697 Y106.627 E1.03548
G1 X124.865 Y107.365 E1.06065
G1 X124.917 Y107.633 E1.06973
G1 X125.082 Y108.8 E1.10893
G1 X125.117 Y109.196 E1.12215
G1 X125.161 Y110.2 E1.15558
G1 X125.161 Y110.422 E1.16296
G1 X125.115 Y111.449 E1.19716
G1 X125.065 Y112.002 E1.21562
G1 X124.9 Y113.158 E1.25446
G1 X124.86 Y113.363 E1.26141
G1 X124.717 Y113.998 E1.28306
G1 X124.667 Y114.194 E1.28979
G1 X124.452 Y114.931 E1.31532
G1 X124.366 Y115.193 E1.32449
G1 X124.066 Y116.003 E1.35322
G1 X123.969 Y116.237 E1.36165
G1 X123.494 Y117.242 E1.39862
G1 X123.392 Y117.433 E1.40582
G1 X122.809 Y118.405 E1.44352
G1 X122.653 Y118.638 E1.45284
G1 X122.134 Y119.352 E1.4822
G1 X121.922 Y119.621 E1.49359
G1 X121.22 Y120.431 E1.52925
G1 X120.955 Y120.709 E1.54202
G1 X120.27 Y121.37 E1.57368
G1 X120.119 Y121.504 E1.5804
G1 X119.622 Y121.92 E1.60195
G1 X119.388 Y122.105 E1.61187
G1 X118.877 Y122.486 E1.63307
G1 X118.678 Y122.626 E1.64117
G1 X118.034 Y123.047 E1.66676
G1 X117.861 Y123.152 E1.67349
G1 X117.361 Y123.439 E1.69266
G1 X117.185 Y123.534 E1.69931
G1 X116.41 Y123.915 E1.72804
G1 X116.107 Y124.05 E1.73907
G1 X115.43 Y124.326 E1.76339
G1 X115.225 Y124.402 E1.77066
G1 X113.968 Y124.787 E1.81438
G1 X113.612 Y124.874 E1.82657
G1 X112.676 Y125.062 E1.85833
G1 X111.966 Y125.151 E1.88213
G1 X111.527 Y125.192 E1.89679
G1 X110.246 Y125.239 E1.93942
G1 X109.937 Y125.233 E1.9497
G1 X109.111 Y125.187 E1.97722
G1 X108.84 Y125.162 E1.98627
G1 X108.111 Y125.071 E2.01071
G1 X107.775 Y125.018 E2.02202
G1 X106.726 Y124.801 E2.05765
G1 X106.382 Y124.713 E2.06946
G1 X105.156 Y124.325 E2.11223
G1 X104.793 Y124.187 E2.12515
G1 X104.063 Y123.88 E2.15148
G1 X103.866 Y123.789 E2.1587
G1 X102.676 Y123.151 E2.20361
G1 X102.149 Y122.827 E2.22419
G1 X101.358 Y122.294 E2.25591
G1 X100.927 Y121.96 E2.27405
G1 X100.686 Y121.764 E2.28438
G1 X99.971 Y121.131 E2.31614
G1 X99.574 Y120.73 E2.33491
G1 X99.148 Y120.277 E2.35559
G1 X98.436 Y119.442 E2.39209
G1 X98.296 Y119.261 E2.3997
G1 X97.744 Y118.482 E2.43145
G1 X97.453 Y118.008 E2.44995
G1 X97.24 Y117.641 E2.46407
G1 X96.82 Y116.847 E2.49394
G1 X96.704 Y116.605 E2.50287
G1 X96.328 Y115.727 E2.53464
G1 X96.124 Y115.143 E2.55521
G1 X95.891 Y114.413 E2.5807
G1 X95.639 Y113.492 E2.61246
G1 X95.441 Y112.374 E2.65022
G1 X95.399 Y112.041 E2.66138
G1 X95.319 Y111.089 E2.69316
G1 X95.312 Y110.335 E2.71824
G1 X95.328 Y109.681 E2.74
G1 X95.392 Y108.729 E2.77173
G1 X95.482 Y108.072 E2.79379
G1 X95.549 Y107.673 E2.80724
G1 X95.785 Y106.593 E2.84401
G1 X95.905 Y106.148 E2.85934
G1 X96.268 Y105.033 E2.89834
G1 X96.436 Y104.595 E2.91395
G1 X96.963 Y103.425 E2.95663
G1 X97.152 Y103.061 E2.97027
G1 X97.753 Y102.037 E3.00976
G1 X97.908 Y101.802 E3.01912
G1 X98.713 Y100.725 E3.06384
G1 X98.946 Y100.449 E3.07586
G1 X99.895 Y99.454 E3.12159
G0 F6000 X100.167 Y99.747
G1 F1200 X100.494 Y99.443 E3.13644
G1 X101.208 Y98.834 E3.16765
G1 X101.806 Y98.398 E3.19227
G1 X102.192 Y98.136 E3.20778
G1 X103.267 Y97.492 E3.24946
G1 X103.563 Y97.337 E3.26058
G1 X104.354 Y96.962 E3.28969
G1 X104.584 Y96.864 E3.29801
G1 X105.877 Y96.406 E3.34363
G1 X106.329 Y96.277 E3.35926
G1 X107.241 Y96.059 E3.39045
G1 X107.762 Y95.97 E3.40803
G1 X108.064 Y95.926 E3.41818
G1 X108.976 Y95.832 E3.44868
G1 X109.53 Y95.798 E3.46714
G1 X110.708 Y95.789 E3.50632
G1 X111.275 Y95.815 E3.5252
G1 X112.209 Y95.897 E3.55638
G1 X112.732 Y95.979 E3.57399
G1 X113.008 Y96.029 E3.58332
G1 X113.667 Y96.169 E3.60573
G1 X113.875 Y96.22 E3.61285
G1 X114.818 Y96.497 E3.64554
G1 X115.113 Y96.598 E3.65591
G1 X115.944 Y96.921 E3.68556
G1 X116.162 Y97.016 E3.69347
G1 X117.233 Y97.553 E3.73332
G1 X117.668 Y97.802 E3.74999
G1 X118.797 Y98.545 E3.79494
G1 X119.036 Y98.724 E3.80488
G1 X119.946 Y99.485 E3.84433
G1 X120.304 Y99.819 E3.86061
G1 X121.199 Y100.758 E3.90376
G1 X121.391 Y100.985 E3.91365
G1 X121.958 Y101.716 E3.94442
G1 X122.162 Y102.003 E3.95613
G1 X122.863 Y103.127 E4.00019
G1 X123.097 Y103.558 E4.0165
G1 X123.654 Y104.749 E4.06023
G1 X123.808 Y105.137 E4.07412
G1 X124.22 Y106.388 E4.11792
G1 X124.31 Y106.729 E4.12965
G1 X124.473 Y107.441 E4.15395
G1 X124.525 Y107.709 E4.16303
G1 X124.683 Y108.836 E4.20088
G1 X124.718 Y109.232 E4.2141
G1 X124.761 Y110.2 E4.24633
G1 X124.761 Y110.422 E4.25371
G1 X124.716 Y111.413 E4.28671
G1 X124.666 Y111.966 E4.30517
G1 X124.507 Y113.082 E4.34267
G1 X124.467 Y113.287 E4.34961
G1 X124.33 Y113.899 E4.37047
G1 X124.28 Y114.095 E4.3772
G1 X124.072 Y114.807 E4.40187
G1 X123.986 Y115.069 E4.41104
G1 X123.697 Y115.85 E4.43874
G1 X123.6 Y116.084 E4.44717
G1 X123.141 Y117.054 E4.48286
G1 X123.039 Y117.245 E4.49006
G1 X122.476 Y118.183 E4.52645
G1 X122.32 Y118.416 E4.53577
G1 X121.819 Y119.105 E4.56411
G1 X121.607 Y119.374 E4.5755
G1 X120.93 Y120.155 E4.60987
G1 X120.665 Y120.433 E4.62265
G1 X120.004 Y121.071 E4.6532
G1 X119.853 Y121.205 E4.65992
G1 X119.374 Y121.606 E4.6807
G1 X119.14 Y121.791 E4.69062
G1 X118.647 Y122.159 E4.71108
G1 X118.448 Y122.299 E4.71917
G1 X117.826 Y122.706 E4.74389
G1 X117.653 Y122.811 E4.75063
G1 X117.171 Y123.087 E4.7691
G1 X116.995 Y123.182 E4.77575
G1 X116.247 Y123.55 E4.80348
G1 X115.944 Y123.685 E4.81451
G1 X115.291 Y123.951 E4.83796
G1 X115.086 Y124.027 E4.84523
G1 X113.873 Y124.399 E4.88743
G1 X113.517 Y124.486 E4.89962
G1 X112.598 Y124.669 E4.93079
G1 X111.929 Y124.752 E4.95321
G1 X111.49 Y124.793 E4.96787
G1 X110.253 Y124.839 E5.00905
G1 X109.944 Y124.833 E5.01933
G1 X109.148 Y124.788 E5.04584
G1 X108.877 Y124.763 E5.05489
G1 X108.173 Y124.676 E5.07849
G1 X107.837 Y124.623 E5.0898
G1 X106.825 Y124.414 E5.12417
G1 X106.481 Y124.326 E5.13598
G1 X105.298 Y123.951 E5.17726
G1 X104.935 Y123.813 E5.19017
G1 X104.231 Y123.517 E5.21557
G1 X104.034 Y123.426 E5.22279
G1 X102.886 Y122.811 E5.26611
G1 X102.359 Y122.487 E5.28668
G1 X101.582 Y121.962 E5.31787
G1 X101.179 Y121.65 E5.33482
G1 X100.938 Y121.454 E5.34516
G1 X100.237 Y120.832 E5.37633
G1 X99.866 Y120.456 E5.3939
G1 X99.44 Y120.003 E5.41458
G1 X98.752 Y119.197 E5.44982
G1 X98.612 Y119.016 E5.45743
G1 X98.07 Y118.25 E5.48864
G1 X97.799 Y117.808 E5.50589
G1 X97.586 Y117.441 E5.52
G1 X97.181 Y116.674 E5.54885
G1 X97.065 Y116.432 E5.55778
G1 X96.696 Y115.569 E5.58899
G1 X96.505 Y115.022 E5.60826
G1 X96.272 Y114.292 E5.63375
G1 X96.025 Y113.387 E5.66495
G1 X95.837 Y112.323 E5.70089
G1 X95.795 Y111.99 E5.71205
G1 X95.718 Y111.056 E5.74322
G1 X95.712 Y110.345 E5.76687
G1 X95.728 Y109.691 E5.78863
G1 X95.791 Y108.755 E5.81983
G1 X95.877 Y108.138 E5.84055
G1 X95.944 Y107.739 E5.85401
G1 X96.171 Y106.697 E5.88948
G1 X96.291 Y106.252 E5.90481
G1 X96.642 Y105.177 E5.94242
G1 X96.81 Y104.739 E5.95802
G1 X97.318 Y103.609 E5.99923
G1 X97.507 Y103.245 E6.01287
G1 X98.087 Y102.257 E6.05098
G1 X98.242 Y102.022 E6.06034
G1 X99.019 Y100.983 E6.10349
G1 X99.252 Y100.707 E6.11551
G1 X100.167 Y99.747 E6.15962
G0 F6000 X100.44 Y100.04
G1 F1200 X100.767 Y99.736 E6.17447
G1 X101.468 Y99.139 E6.20509
G1 X102.031 Y98.729 E6.22825
G1 X102.417 Y98.467 E6.24377
G1 X103.453 Y97.847 E6.28393
G1 X103.749 Y97.692 E6.29504
G1 X104.511 Y97.33 E6.3231
G1 X104.741 Y97.232 E6.33142
G1 X105.987 Y96.791 E6.37538
G1 X106.439 Y96.662 E6.39101
G1 X107.334 Y96.448 E6.42162
G1 X107.82 Y96.366 E6.43801
G1 X108.122 Y96.322 E6.44816
G1 X109.001 Y96.231 E6.47755
G1 X109.555 Y96.197 E6.49601
G1 X110.69 Y96.188 E6.53376
G1 X111.257 Y96.214 E6.55264
G1 X112.174 Y96.296 E6.58326
G1 X112.661 Y96.373 E6.59966
G1 X112.937 Y96.423 E6.60899
G1 X113.571 Y96.558 E6.63055
G1 X113.779 Y96.609 E6.63768
G1 X114.688 Y96.875 E6.66918
G1 X114.983 Y96.976 E6.67955
G1 X115.785 Y97.288 E6.70817
G1 X116.003 Y97.383 E6.71608
G1 X117.034 Y97.901 E6.75445
G1 X117.469 Y98.15 E6.77113
G1 X118.557 Y98.865 E6.81443
G1 X118.796 Y99.044 E6.82436
G1 X119.673 Y99.777 E6.86237
G1 X120.031 Y100.111 E6.87866
G1 X120.893 Y101.017 E6.92025
G1 X121.085 Y101.244 E6.93014
G1 X121.632 Y101.948 E6.95979
G1 X121.836 Y102.235 E6.9715
G1 X122.512 Y103.318 E7.01397
G1 X122.746 Y103.749 E7.03028
G1 X123.282 Y104.897 E7.07242
G1 X123.436 Y105.285 E7.0863
G1 X123.833 Y106.49 E7.1285
G1 X123.923 Y106.831 E7.14023
G1 X124.08 Y107.517 E7.16364
G1 X124.132 Y107.785 E7.17272
G1 X124.285 Y108.871 E7.20919
G1 X124.32 Y109.267 E7.22242
G1 X124.361 Y110.2 E7.25348
G1 X124.361 Y110.422 E7.26086
G1 X124.318 Y111.377 E7.29266
G1 X124.268 Y111.93 E7.31112
G1 X124.115 Y113.005 E7.34724
G1 X124.075 Y113.21 E7.35419
G1 X123.942 Y113.8 E7.3743
G1 X123.892 Y113.996 E7.38103
G1 X123.692 Y114.682 E7.4048
G1 X123.606 Y114.944 E7.41397
G1 X123.327 Y115.697 E7.44068
G1 X123.23 Y115.931 E7.4491
G1 X122.788 Y116.865 E7.48347
G1 X122.686 Y117.056 E7.49067
G1 X122.144 Y117.96 E7.52573
G1 X121.988 Y118.193 E7.53505
G1 X121.505 Y118.857 E7.56236
G1 X121.293 Y119.126 E7.57376
G1 X120.641 Y119.879 E7.60688
G1 X120.376 Y120.157 E7.61966
G1 X119.739 Y120.771 E7.64909
G1 X119.588 Y120.905 E7.6558
G1 X119.126 Y121.292 E7.67585
G1 X118.892 Y121.477 E7.68577
G1 X118.417 Y121.832 E7.70549
G1 X118.218 Y121.972 E7.71358
G1 X117.619 Y122.364 E7.73739
G1 X117.446 Y122.469 E7.74412
G1 X116.981 Y122.735 E7.76194
G1 X116.805 Y122.83 E7.76859
G1 X116.084 Y123.184 E7.79531
G1 X115.781 Y123.319 E7.80634
G1 X115.152 Y123.576 E7.82894
G1 X114.947 Y123.652 E7.83621
G1 X113.778 Y124.01 E7.87688
G1 X113.422 Y124.097 E7.88906
G1 X112.519 Y124.276 E7.91968
G1 X111.892 Y124.354 E7.9407
G1 X111.453 Y124.395 E7.95536
G1 X110.261 Y124.439 E7.99504
G1 X109.952 Y124.433 E8.00531
G1 X109.184 Y124.39 E8.0309
G1 X108.913 Y124.365 E8.03995
G1 X108.235 Y124.281 E8.06267
G1 X107.899 Y124.228 E8.07399
G1 X106.924 Y124.026 E8.1071
G1 X106.58 Y123.938 E8.11891
G1 X105.44 Y123.577 E8.15869
G1 X105.077 Y123.439 E8.1716
G1 X104.399 Y123.154 E8.19606
G1 X104.202 Y123.063 E8.20328
G1 X103.095 Y122.47 E8.24505
G1 X102.568 Y122.146 E8.26563
G1 X101.806 Y121.63 E8.29624
G1 X101.432 Y121.34 E8.31198
G1 X101.191 Y121.144 E8.32231
G1 X100.503 Y120.532 E8.35293
G1 X100.157 Y120.182 E8.3693
G1 X99.731 Y119.729 E8.38999
G1 X99.068 Y118.952 E8.42396
G1 X98.928 Y118.771 E8.43157
G1 X98.397 Y118.019 E8.46219
G1 X98.145 Y117.607 E8.47825
G1 X97.932 Y117.24 E8.49236
G1 X97.541 Y116.501 E8.52017
G1 X97.425 Y116.259 E8.5291
G1 X97.064 Y115.412 E8.55972
G1 X96.886 Y114.9 E8.57775
G1 X96.653 Y114.17 E8.60324
G1 X96.411 Y113.282 E8.63385
G1 X96.234 Y112.273 E8.66792
G1 X96.192 Y111.94 E8.67908
G1 X96.117 Y111.023 E8.70969
G1 X96.112 Y110.355 E8.7319
G1 X96.128 Y109.701 E8.75366
G1 X96.191 Y108.782 E8.7843
G1 X96.271 Y108.205 E8.80367
G1 X96.338 Y107.806 E8.81713
G1 X96.558 Y106.801 E8.85135
G1 X96.678 Y106.356 E8.86668
G1 X97.015 Y105.32 E8.90291
G1 X97.183 Y104.882 E8.91852
G1 X97.673 Y103.793 E8.95823
G1 X97.862 Y103.429 E8.97188
G1 X98.42 Y102.478 E9.00855
G1 X98.575 Y102.243 E9.01791
G1 X99.324 Y101.241 E9.05952
G1 X99.557 Y100.965 E9.07153
G1 X100.44 Y100.04 E9.11407
G0 F6000 X100.712 Y100.333
G1 F1200 X101.039 Y100.029 E9.12892
G1 X101.727 Y99.444 E9.15895
G1 X102.256 Y99.059 E9.18071
G1 X102.642 Y98.797 E9.19623
G1 X103.638 Y98.201 E9.23484
G1 X103.934 Y98.046 E9.24595
G1 X104.668 Y97.698 E9.27297
G1 X104.898 Y97.6 E9.28128
G1 X106.097 Y97.176 E9.32358
G1 X106.549 Y97.047 E9.33922
G1 X107.427 Y96.837 E9.36924
G1 X107.877 Y96.762 E9.38441
G1 X108.179 Y96.718 E9.39457
G1 X109.025 Y96.63 E9.42286
G1 X109.579 Y96.596 E9.44132
G1 X110.671 Y96.588 E9.47764
G1 X111.238 Y96.614 E9.49652
G1 X112.138 Y96.695 E9.52657
G1 X112.589 Y96.766 E9.54176
G1 X112.865 Y96.816 E9.55108
G1 X113.476 Y96.946 E9.57186
G1 X113.684 Y96.997 E9.57898
G1 X114.559 Y97.254 E9.60932
G1 X114.854 Y97.355 E9.61969
G1 X115.625 Y97.654 E9.64719
G1 X115.843 Y97.749 E9.6551
G1 X116.835 Y98.248 E9.69203
G1 X117.27 Y98.497 E9.70871
G1 X118.318 Y99.185 E9.7504
G1 X118.557 Y99.364 E9.76033
G1 X119.4 Y100.07 E9.79691
G1 X119.758 Y100.404 E9.81319
G1 X120.588 Y101.275 E9.85321
G1 X120.78 Y101.502 E9.8631
G1 X121.306 Y102.18 E9.89164
G1 X121.51 Y102.467 E9.90335
G1 X122.16 Y103.509 E9.9442
G1 X122.394 Y103.94 E9.96051
G1 X122.911 Y105.044 E10.00105
G1 X123.065 Y105.432 E10.01494
G1 X123.446 Y106.592 E10.05555
G1 X123.536 Y106.933 E10.06728
G1 X123.687 Y107.593 E10.0898
G1 X123.739 Y107.861 E10.09888
G1 X123.886 Y108.906 E10.13397
G1 X123.921 Y109.302 E10.1472
G1 X123.961 Y110.2 E10.17709
G1 X123.961 Y110.422 E10.18448
G1 X123.92 Y111.34 E10.21504
G1 X123.87 Y111.893 E10.23351
G1 X123.722 Y112.928 E10.26828
G1 X123.682 Y113.133 E10.27523
G1 X123.554 Y113.701 E10.2946
G1 X123.504 Y113.897 E10.30132
G1 X123.312 Y114.557 E10.32419
G1 X123.226 Y114.819 E10.33336
G1 X122.958 Y115.544 E10.35907
G1 X122.861 Y115.778 E10.36749
G1 X122.435 Y116.677 E10.40058
G1 X122.333 Y116.868 E10.40778
G1 X121.812 Y117.738 E10.44151
G1 X121.656 Y117.971 E10.45083
G1 X121.191 Y118.61 E10.47712
G1 X120.979 Y118.879 E10.48851
G1 X120.351 Y119.603 E10.52039
G1 X120.086 Y119.881 E10.53316
G1 X119.473 Y120.472 E10.56148
G1 X119.322 Y120.606 E10.5682
G1 X118.878 Y120.978 E10.58746
G1 X118.644 Y121.163 E10.59738
G1 X118.187 Y121.504 E10.61635
G1 X117.988 Y121.644 E10.62444
G1 X117.411 Y122.022 E10.64738
G1 X117.238 Y122.127 E10.65412
G1 X116.791 Y122.383 E10.67125
G1 X116.615 Y122.478 E10.6779
G1 X115.921 Y122.819 E10.70362
G1 X115.618 Y122.954 E10.71465
G1 X115.013 Y123.201 E10.73639
G1 X114.808 Y123.277 E10.74366
G1 X113.683 Y123.621 E10.78279
G1 X113.327 Y123.708 E10.79498
G1 X112.442 Y123.884 E10.82499
G1 X111.854 Y123.956 E10.84469
