;FLAVOR:Marlin
;TIME:2164
;Filament used: 1.21161m
;Layer height: 0.2
;MINX:83.972
;MINY:70.969
;MINZ:0.2
;MAXX:136.033
;MAXY:149.03
;MAXZ:6
;Generated with Cura_SteamEngine 4.2.1
M140 S50
M105
M190 S50
M104 S200
M105
M109 S200
M82 ;absolute extrusion mode
M201 X500.00 Y500.00 Z100.00 E5000.00 ;Setup machine max acceleration
M203 X500.00 Y500.00 Z10.00 E50.00 ;Setup machine max feedrate
M204 P500.00 R1000.00 T500.00 ;Setup Print/Retract/Travel acceleration
M205 X8.00 Y8.00 Z0.40 E5.00 ;Setup Jerk
M220 S100 ;Reset Feedrate
M221 S100 ;Reset Flowrate

G28 ;Home

G92 E0 ;Reset Extruder
G1 Z2.0 F3000 ;Move Z Axis up
G1 X10.1 Y20 Z0.28 F5000.0 ;Move to start position
G1 X10.1 Y200.0 Z0.28 F1500.0 E15 ;Draw the first line
G1 X10.4 Y200.0 Z0.28 F5000.0 ;Move to side a little
G1 X10.4 Y20 Z0.28 F1500.0 E30 ;Draw the second line
G92 E0 ;Reset Extruder
G1 Z2.0 F3000 ;Move Z Axis up

M141 S28
G92 E0
G92 E0
G1 F2700 E-5
;LAYER_COUNT:30
;LAYER:0
M107
G0 F6000 X90.462 Y79.8 Z0.2
;TYPE:SKIRT
G1 F2700 E0
G1 F1200 X90.618 Y79.624 E0.0086
G1 X90.842 Y79.379 E0.02075
G1 X91.228 Y78.968 E0.04138
G1 X91.598 Y78.591 E0.0607
G1 X92.127 Y78.077 E0.08769
G1 X92.543 Y77.692 E0.10843
G1 X93.053 Y77.243 E0.13329
G1 X93.476 Y76.889 E0.15347
G1 X94.028 Y76.448 E0.17932
G1 X94.498 Y76.092 E0.20089
G1 X95.13 Y75.638 E0.22936
G1 X95.632 Y75.297 E0.25156
G1 X96.293 Y74.873 E0.28029
G1 X96.814 Y74.558 E0.30257
G1 X97.369 Y74.242 E0.32593
G1 X97.816 Y74 E0.34453
G1 X98.501 Y73.649 E0.37269
G1 X99.073 Y73.376 E0.39588
G1 X99.763 Y73.069 E0.42351
G1 X100.271 Y72.857 E0.44365
G1 X100.901 Y72.612 E0.46838
G1 X101.449 Y72.414 E0.4897
G1 X102.124 Y72.19 E0.51572
G1 X102.692 Y72.018 E0.53743
G1 X103.479 Y71.801 E0.5673
G1 X104.058 Y71.657 E0.58913
G1 X104.742 Y71.506 E0.61475
G1 X105.307 Y71.396 E0.63581
G1 X105.958 Y71.286 E0.65997
G1 X106.503 Y71.208 E0.68011
G1 X107.301 Y71.112 E0.70952
G1 X107.909 Y71.055 E0.73186
G1 X108.657 Y71.005 E0.75929
G1 X109.243 Y70.98 E0.78075
G1 X109.934 Y70.969 E0.80603
G1 X110.479 Y70.974 E0.82597
G1 X111.15 Y70.995 E0.85053
G1 X111.505 Y71.011 E0.86353
G1 X111.714 Y71.024 E0.87119
G1 X112.005 Y71.046 E0.88187
G1 X112.496 Y71.089 E0.8999
G1 X112.748 Y71.114 E0.90917
G1 X113.067 Y71.149 E0.92091
G1 X113.532 Y71.209 E0.93806
G1 X114.227 Y71.314 E0.96378
G1 X114.582 Y71.374 E0.97695
G1 X114.784 Y71.411 E0.98446
G1 X115.088 Y71.471 E0.9958
G1 X115.704 Y71.601 E1.01883
G1 X116.235 Y71.726 E1.03879
G1 X116.871 Y71.892 E1.06284
G1 X117.383 Y72.038 E1.08232
G1 X118.065 Y72.25 E1.10845
G1 X118.424 Y72.368 E1.12228
G1 X118.617 Y72.435 E1.12975
G1 X118.903 Y72.539 E1.14088
G1 X119.529 Y72.775 E1.16536
G1 X120.047 Y72.985 E1.18581
G1 X120.64 Y73.242 E1.20946
G1 X121.142 Y73.474 E1.22969
G1 X121.793 Y73.794 E1.25623
G1 X122.3 Y74.059 E1.27716
G1 X122.949 Y74.419 E1.30431
G1 X123.458 Y74.718 E1.32591
G1 X124.101 Y75.119 E1.35363
G1 X124.609 Y75.455 E1.37592
G1 X125.208 Y75.874 E1.40266
G1 X125.676 Y76.219 E1.42393
G1 X126.287 Y76.694 E1.45225
G1 X126.743 Y77.068 E1.47382
G1 X127.224 Y77.483 E1.49707
G1 X127.445 Y77.679 E1.50787
G1 X127.642 Y77.858 E1.51761
G1 X127.917 Y78.116 E1.53141
G1 X128.351 Y78.537 E1.55353
G1 X128.722 Y78.914 E1.57288
G1 X129.196 Y79.418 E1.59819
G1 X129.56 Y79.824 E1.61814
G1 X130.003 Y80.342 E1.64308
G1 X130.249 Y80.639 E1.65719
G1 X130.388 Y80.813 E1.66534
G1 X130.56 Y81.034 E1.67558
G1 X130.924 Y81.513 E1.6976
G1 X131.239 Y81.947 E1.71722
G1 X131.598 Y82.468 E1.74036
G1 X131.778 Y82.739 E1.75227
G1 X131.907 Y82.938 E1.76094
G1 X132.082 Y83.215 E1.77293
G1 X132.407 Y83.749 E1.7958
G1 X132.686 Y84.233 E1.81624
G1 X133.019 Y84.845 E1.84173
G1 X133.255 Y85.304 E1.86061
G1 X133.549 Y85.907 E1.88516
G1 X133.701 Y86.231 E1.89825
G1 X133.786 Y86.42 E1.90583
G1 X133.911 Y86.708 E1.91732
G1 X134.161 Y87.307 E1.94107
G1 X134.367 Y87.837 E1.96187
G1 X134.574 Y88.411 E1.98419
G1 X134.675 Y88.704 E1.99553
G1 X134.756 Y88.949 E2.00497
G1 X134.851 Y89.249 E2.01649
G1 X135.01 Y89.778 E2.0367
G1 X135.151 Y90.291 E2.05616
G1 X135.338 Y91.036 E2.08426
G1 X135.465 Y91.603 E2.10552
G1 X135.605 Y92.31 E2.13189
G1 X135.705 Y92.891 E2.15346
G1 X135.808 Y93.599 E2.17964
G1 X135.874 Y94.147 E2.19983
G1 X135.942 Y94.849 E2.22563
G1 X135.985 Y95.468 E2.24833
G1 X136.022 Y96.331 E2.27994
G1 X136.032 Y96.963 E2.30306
G1 X136.024 Y97.632 E2.32754
G1 X136.006 Y98.152 E2.34658
G1 X135.966 Y98.852 E2.37223
G1 X135.927 Y99.351 E2.39054
G1 X135.62 Y102.4 E2.50266
G1 X135.439 Y104.923 E2.5952
G1 X135.332 Y107.391 E2.68558
G1 X135.293 Y109.92 E2.77812
G1 X135.326 Y112.413 E2.86933
G1 X135.429 Y114.903 E2.96051
G1 X135.605 Y117.429 E3.05315
G1 X135.95 Y120.962 E3.18303
G1 X135.997 Y121.644 E3.20804
G1 X136.026 Y122.408 E3.23601
G1 X136.033 Y122.978 E3.25686
G1 X136.026 Y123.59 E3.27926
G1 X136.019 Y123.897 E3.29049
G1 X136.011 Y124.107 E3.29818
G1 X135.996 Y124.403 E3.30902
G1 X135.963 Y124.92 E3.32798
G1 X135.941 Y125.207 E3.33851
G1 X135.921 Y125.432 E3.34677
G1 X135.887 Y125.757 E3.35873
G1 X135.816 Y126.361 E3.38098
G1 X135.742 Y126.888 E3.40045
G1 X135.637 Y127.526 E3.4241
G1 X135.58 Y127.841 E3.43582
G1 X135.54 Y128.048 E3.44353
G1 X135.473 Y128.372 E3.45563
G1 X135.34 Y128.968 E3.47798
G1 X135.21 Y129.493 E3.49776
G1 X135.016 Y130.204 E3.52473
G1 X134.857 Y130.735 E3.54501
G1 X134.657 Y131.35 E3.56867
G1 X134.533 Y131.71 E3.5826
G1 X134.445 Y131.953 E3.59205
G1 X134.341 Y132.23 E3.60288
G1 X134.132 Y132.764 E3.62386
G1 X133.937 Y133.232 E3.64241
G1 X133.669 Y133.837 E3.66662
G1 X133.527 Y134.145 E3.67903
G1 X133.426 Y134.356 E3.68758
G1 X133.28 Y134.651 E3.69963
G1 X133.027 Y135.143 E3.71987
G1 X132.785 Y135.588 E3.7384
G1 X132.399 Y136.264 E3.76688
G1 X132.085 Y136.782 E3.78904
G1 X131.734 Y137.328 E3.81279
G1 X131.55 Y137.606 E3.82499
G1 X131.422 Y137.793 E3.83328
G1 X131.235 Y138.058 E3.84514
G1 X130.863 Y138.57 E3.8683
G1 X130.546 Y138.987 E3.88746
G1 X130.166 Y139.463 E3.90975
G1 X129.96 Y139.713 E3.9216
G1 X129.807 Y139.894 E3.93027
G1 X129.6 Y140.132 E3.94181
G1 X129.215 Y140.563 E3.96295
G1 X128.847 Y140.956 E3.98265
G1 X128.33 Y141.483 E4.00966
G1 X127.916 Y141.885 E4.03077
G1 X127.414 Y142.348 E4.05576
G1 X127.185 Y142.553 E4.067
G1 X127.026 Y142.692 E4.07473
G1 X126.773 Y142.907 E4.08688
G1 X126.311 Y143.288 E4.10879
G1 X125.877 Y143.629 E4.12898
G1 X125.307 Y144.055 E4.15501
G1 X124.831 Y144.393 E4.17637
G1 X124.177 Y144.832 E4.20519
G1 X123.672 Y145.152 E4.22706
G1 X123.099 Y145.495 E4.2515
G1 X122.634 Y145.759 E4.27106
G1 X122.003 Y146.098 E4.29727
G1 X121.464 Y146.369 E4.31934
G1 X120.775 Y146.694 E4.34721
G1 X120.222 Y146.938 E4.36932
G1 X119.479 Y147.242 E4.39869
G1 X118.941 Y147.446 E4.41975
G1 X118.353 Y147.653 E4.44255
G1 X118.001 Y147.771 E4.45614
G1 X117.767 Y147.845 E4.46511
G1 X117.487 Y147.929 E4.47581
G1 X116.898 Y148.099 E4.49824
G1 X116.359 Y148.241 E4.51863
G1 X115.65 Y148.409 E4.54529
G1 X115.104 Y148.525 E4.56571
G1 X114.471 Y148.643 E4.58927
G1 X114.156 Y148.697 E4.60096
G1 X113.928 Y148.733 E4.60941
G1 X113.598 Y148.78 E4.6216
G1 X113.092 Y148.845 E4.64027
G1 X112.829 Y148.876 E4.64996
G1 X112.439 Y148.917 E4.6643
G1 X111.92 Y148.959 E4.68335
G1 X111.183 Y149.003 E4.71036
G1 X110.613 Y149.023 E4.73123
G1 X109.928 Y149.03 E4.75629
G1 X109.392 Y149.023 E4.77591
G1 X108.73 Y148.999 E4.80014
G1 X108.181 Y148.966 E4.82026
G1 X107.42 Y148.902 E4.8482
G1 X106.813 Y148.835 E4.87055
G1 X106.094 Y148.736 E4.8971
G1 X105.527 Y148.644 E4.91812
G1 X104.812 Y148.509 E4.94474
G1 X104.227 Y148.382 E4.96664
G1 X103.503 Y148.206 E4.9939
G1 X102.945 Y148.056 E5.01504
G1 X102.224 Y147.842 E5.04255
G1 X101.676 Y147.664 E5.06364
G1 X101.051 Y147.444 E5.08788
G1 X100.505 Y147.236 E5.10925
G1 X99.749 Y146.926 E5.13915
G1 X99.198 Y146.683 E5.16118
G1 X98.582 Y146.392 E5.18611
G1 X98.085 Y146.143 E5.20644
G1 X97.475 Y145.818 E5.23173
G1 X97.163 Y145.646 E5.24476
G1 X96.985 Y145.544 E5.25227
G1 X96.743 Y145.401 E5.26255
G1 X96.228 Y145.089 E5.28458
G1 X95.766 Y144.794 E5.30464
G1 X95.17 Y144.393 E5.33092
G1 X94.693 Y144.054 E5.35233
G1 X94.111 Y143.618 E5.37894
G1 X93.655 Y143.258 E5.40019
G1 X93.123 Y142.816 E5.4255
G1 X92.707 Y142.453 E5.4457
G1 X92.105 Y141.902 E5.47555
G1 X91.647 Y141.459 E5.49887
G1 X91.196 Y140.998 E5.52246
G1 X90.847 Y140.625 E5.54115
G1 X90.36 Y140.081 E5.56786
G1 X89.968 Y139.619 E5.59003
G1 X89.494 Y139.03 E5.61769
G1 X89.142 Y138.57 E5.63888
G1 X88.733 Y138.006 E5.66437
G1 X88.417 Y137.547 E5.68476
G1 X88.005 Y136.917 E5.7123
G1 X87.689 Y136.406 E5.73428
G1 X87.352 Y135.827 E5.75879
G1 X87.085 Y135.342 E5.77905
G1 X86.699 Y134.599 E5.80968
G1 X86.423 Y134.028 E5.83288
G1 X86.176 Y133.481 E5.85484
G1 X86.066 Y133.23 E5.86487
G1 X85.975 Y133.015 E5.87341
G1 X85.859 Y132.73 E5.88467
G1 X85.659 Y132.22 E5.90471
G1 X85.461 Y131.677 E5.92586
G1 X85.199 Y130.896 E5.95599
G1 X85.036 Y130.367 E5.97625
G1 X84.866 Y129.766 E5.9991
G1 X84.716 Y129.176 E6.02137
G1 X84.536 Y128.382 E6.05116
G1 X84.425 Y127.831 E6.07172
G1 X84.318 Y127.223 E6.09431
G1 X84.232 Y126.656 E6.11529
G1 X84.125 Y125.801 E6.14681
G1 X84.067 Y125.219 E6.16821
G1 X84.019 Y124.57 E6.19202
G1 X83.991 Y123.989 E6.2133
G1 X83.973 Y123.221 E6.24141
G1 X83.974 Y122.647 E6.26241
G1 X83.993 Y121.926 E6.2888
G1 X84.023 Y121.339 E6.3103
G1 X84.07 Y120.732 E6.33258
G1 X84.099 Y120.417 E6.34415
G1 X84.214 Y119.327 E6.38425
G1 X84.445 Y116.793 E6.47734
G1 X84.603 Y114.287 E6.56921
G1 X84.688 Y111.806 E6.66003
G1 X84.704 Y109.269 E6.75285
G1 X84.65 Y106.786 E6.84372
G1 X84.526 Y104.341 E6.93329
G1 X84.206 Y100.569 E7.07179
G1 X84.089 Y99.465 E7.1124
G1 X84.044 Y98.911 E7.13274
G1 X83.994 Y98.038 E7.16473
G1 X83.975 Y97.433 E7.18688
G1 X83.972 Y96.802 E7.20996
G1 X83.982 Y96.267 E7.22954
G1 X84.012 Y95.547 E7.2559
G1 X84.052 Y94.953 E7.27769
G1 X84.126 Y94.161 E7.30679
G1 X84.198 Y93.564 E7.32879
G1 X84.289 Y92.942 E7.35179
G1 X84.342 Y92.611 E7.36405
G1 X84.379 Y92.401 E7.37185
G1 X84.429 Y92.136 E7.38172
G1 X84.549 Y91.537 E7.40407
G1 X84.68 Y90.959 E7.42575
G1 X84.84 Y90.33 E7.4495
G1 X84.983 Y89.819 E7.46891
G1 X85.228 Y89.013 E7.49973
G1 X85.418 Y88.441 E7.52178
G1 X85.637 Y87.836 E7.54532
G1 X85.836 Y87.326 E7.56535
G1 X86.101 Y86.69 E7.59056
G1 X86.336 Y86.162 E7.61171
G1 X86.704 Y85.39 E7.643
G1 X87.001 Y84.81 E7.66684
G1 X87.309 Y84.248 E7.69028
G1 X87.556 Y83.82 E7.70836
G1 X87.939 Y83.187 E7.73543
G1 X88.261 Y82.684 E7.75728
G1 X88.657 Y82.1 E7.7831
G1 X89.005 Y81.614 E7.80496
G1 X89.493 Y80.969 E7.83456
G1 X89.872 Y80.495 E7.85676
G1 X90.274 Y80.018 E7.87958
G1 X90.462 Y79.8 E7.89011
G0 F6000 X90.791 Y80.092
G1 F1200 X90.947 Y79.916 E7.89872
G1 X91.163 Y79.68 E7.91042
G1 X91.549 Y79.269 E7.93105
G1 X91.905 Y78.907 E7.94963
G1 X92.434 Y78.393 E7.97661
G1 X92.834 Y78.023 E7.99655
G1 X93.344 Y77.574 E8.02141
G1 X93.751 Y77.233 E8.04083
G1 X94.303 Y76.792 E8.06668
G1 X94.755 Y76.449 E8.08744
G1 X95.387 Y75.995 E8.11591
G1 X95.87 Y75.667 E8.13727
G1 X96.531 Y75.243 E8.16601
G1 X97.032 Y74.94 E8.18743
G1 X97.587 Y74.624 E8.21079
G1 X98.017 Y74.391 E8.22869
G1 X98.702 Y74.04 E8.25685
G1 X99.252 Y73.778 E8.27913
G1 X99.942 Y73.471 E8.30676
G1 X100.431 Y73.267 E8.32615
G1 X101.061 Y73.022 E8.35088
G1 X101.588 Y72.832 E8.37138
G1 X102.263 Y72.608 E8.3974
G1 X102.808 Y72.442 E8.41824
G1 X103.595 Y72.225 E8.44811
G1 X104.153 Y72.087 E8.46914
G1 X104.837 Y71.936 E8.49477
G1 X105.381 Y71.83 E8.51504
G1 X106.032 Y71.72 E8.5392
G1 X106.555 Y71.644 E8.55853
G1 X107.353 Y71.548 E8.58794
G1 X107.939 Y71.494 E8.60947
G1 X108.687 Y71.444 E8.6369
G1 X109.25 Y71.42 E8.65751
G1 X109.941 Y71.409 E8.6828
G1 X110.465 Y71.413 E8.70197
G1 X111.136 Y71.434 E8.72653
G1 X111.478 Y71.45 E8.73906
G1 X111.687 Y71.463 E8.74672
G1 X111.966 Y71.484 E8.75696
G1 X112.457 Y71.527 E8.77499
G1 X112.7 Y71.551 E8.78392
G1 X113.019 Y71.586 E8.79566
G1 X113.466 Y71.645 E8.81216
G1 X114.161 Y71.75 E8.83787
G1 X114.503 Y71.807 E8.85056
G1 X114.705 Y71.844 E8.85807
G1 X114.997 Y71.901 E8.86896
G1 X115.613 Y72.031 E8.89199
G1 X116.124 Y72.152 E8.9112
G1 X116.76 Y72.318 E8.93525
G1 X117.252 Y72.458 E8.95397
G1 X117.934 Y72.67 E8.9801
G1 X118.279 Y72.784 E8.99339
G1 X118.472 Y72.851 E9.00086
G1 X118.748 Y72.951 E9.0116
G1 X119.374 Y73.187 E9.03608
G1 X119.872 Y73.388 E9.05573
G1 X120.465 Y73.645 E9.07937
G1 X120.948 Y73.868 E9.09884
G1 X121.599 Y74.188 E9.12538
G1 X122.086 Y74.443 E9.14549
G1 X122.735 Y74.803 E9.17264
G1 X123.225 Y75.091 E9.19344
G1 X123.868 Y75.492 E9.22116
G1 X124.356 Y75.815 E9.24257
G1 X124.955 Y76.234 E9.26932
G1 X125.406 Y76.567 E9.28983
G1 X126.017 Y77.042 E9.31814
G1 X126.455 Y77.401 E9.33886
G1 X126.936 Y77.816 E9.3621
G1 X127.15 Y78.005 E9.37255
G1 X127.347 Y78.184 E9.38229
G1 X127.611 Y78.432 E9.39554
G1 X128.045 Y78.853 E9.41766
G1 X128.402 Y79.215 E9.43626
G1 X128.876 Y79.719 E9.46158
G1 X129.226 Y80.11 E9.48078
G1 X129.669 Y80.628 E9.50571
G1 X129.906 Y80.914 E9.5193
G1 X130.045 Y81.088 E9.52745
G1 X130.21 Y81.3 E9.53728
G1 X130.574 Y81.779 E9.55929
G1 X130.876 Y82.197 E9.57816
G1 X131.235 Y82.718 E9.6013
G1 X131.409 Y82.978 E9.61275
G1 X131.538 Y83.177 E9.62143
G1 X131.706 Y83.444 E9.63297
G1 X132.031 Y83.978 E9.65584
G1 X132.299 Y84.444 E9.67551
G1 X132.632 Y85.056 E9.701
G1 X132.859 Y85.496 E9.71911
G1 X133.153 Y86.099 E9.74366
G1 X133.299 Y86.411 E9.75626
G1 X133.384 Y86.6 E9.76384
G1 X133.505 Y86.878 E9.77493
G1 X133.755 Y87.477 E9.79868
G1 X133.953 Y87.986 E9.81866
G1 X134.16 Y88.56 E9.84099
G1 X134.257 Y88.842 E9.8519
G1 X134.338 Y89.087 E9.86134
G1 X134.429 Y89.376 E9.87242
G1 X134.588 Y89.905 E9.89263
G1 X134.724 Y90.398 E9.91134
G1 X134.911 Y91.143 E9.93945
G1 X135.034 Y91.689 E9.95992
G1 X135.174 Y92.396 E9.98629
G1 X135.269 Y92.954 E10.007
G1 X135.372 Y93.662 E10.03317
G1 X135.436 Y94.19 E10.05263
G1 X135.504 Y94.892 E10.07844
G1 X135.546 Y95.487 E10.10026
G1 X135.583 Y96.35 E10.13186
G1 X135.592 Y96.958 E10.15411
G1 X135.584 Y97.627 E10.17859
G1 X135.567 Y98.127 E10.19689
G1 X135.527 Y98.827 E10.22254
G1 X135.489 Y99.307 E10.24016
G1 X135.182 Y102.358 E10.35235
G1 X135.001 Y104.873 E10.4446
G1 X134.891 Y107.401 E10.53718
G1 X134.853 Y109.92 E10.62935
G1 X134.886 Y112.401 E10.72013
G1 X134.991 Y114.953 E10.81357
G1 X135.164 Y117.427 E10.90431
G1 X135.513 Y121.004 E11.0358
G1 X135.557 Y121.661 E11.05989
G1 X135.586 Y122.425 E11.08786
G1 X135.593 Y122.973 E11.10791
G1 X135.586 Y123.585 E11.1303
G1 X135.579 Y123.881 E11.14114
G1 X135.571 Y124.091 E11.14883
G1 X135.556 Y124.375 E11.15923
G1 X135.523 Y124.892 E11.17818
G1 X135.502 Y125.168 E11.18831
G1 X135.482 Y125.393 E11.19658
G1 X135.45 Y125.706 E11.20809
G1 X135.379 Y126.31 E11.23034
G1 X135.308 Y126.817 E11.24907
G1 X135.203 Y127.455 E11.27272
G1 X135.148 Y127.758 E11.28399
G1 X135.108 Y127.965 E11.2917
G1 X135.044 Y128.277 E11.30336
G1 X134.911 Y128.873 E11.3257
G1 X134.786 Y129.377 E11.3447
G1 X134.592 Y130.088 E11.37166
G1 X134.439 Y130.599 E11.39117
G1 X134.239 Y131.214 E11.41484
G1 X134.12 Y131.561 E11.42826
G1 X134.032 Y131.804 E11.43771
G1 X133.932 Y132.07 E11.44811
G1 X133.723 Y132.604 E11.46909
G1 X133.535 Y133.054 E11.48693
G1 X133.267 Y133.659 E11.51114
G1 X133.13 Y133.956 E11.52311
G1 X133.029 Y134.167 E11.53167
G1 X132.888 Y134.45 E11.54323
G1 X132.635 Y134.942 E11.56347
G1 X132.403 Y135.37 E11.58129
G1 X132.017 Y136.046 E11.60977
G1 X131.715 Y136.544 E11.63107
G1 X131.364 Y137.09 E11.65482
G1 X131.187 Y137.358 E11.66657
G1 X131.059 Y137.545 E11.67486
G1 X130.879 Y137.8 E11.68628
G1 X130.507 Y138.312 E11.70944
G1 X130.202 Y138.712 E11.72784
G1 X129.822 Y139.188 E11.75012
G1 X129.624 Y139.429 E11.76154
G1 X129.471 Y139.61 E11.77021
