;FLAVOR:Marlin
;TIME:3297
;Filament used: 1.27412m
;Layer height: 0.16
;MINX:87.786
;MINY:84.286
;MINZ:0.2
;MAXX:133.04
;MAXY:136.532
;MAXZ:13.96
;Generated with Cura_SteamEngine 4.2.1
M140 S50
M105
M190 S50
M104 S200
M105
M109 S200
M82 ;absolute extrusion mode
M201 X500.00 Y500.00 Z100.00 E5000.00 ;Setup machine max acceleration
M203 X500.00 Y500.00 Z10.00 E50.00 ;Setup machine max feedrate
M204 P500.00 R1000.00 T500.00 ;Setup Print/Retract/Travel acceleration
M205 X8.00 Y8.00 Z0.40 E5.00 ;Setup Jerk
M220 S100 ;Reset Feedrate
M221 S100 ;Reset Flowrate

G28 ;Home

G92 E0 ;Reset Extruder
G1 Z2.0 F3000 ;Move Z Axis up
G1 X10.1 Y20 Z0.28 F5000.0 ;Move to start position
G1 X10.1 Y200.0 Z0.28 F1500.0 E15 ;Draw the first line
G1 X10.4 Y200.0 Z0.28 F5000.0 ;Move to side a little
G1 X10.4 Y20 Z0.28 F1500.0 E30 ;Draw the second line
G92 E0 ;Reset Extruder
G1 Z2.0 F3000 ;Move Z Axis up

M141 S28
G92 E0
G92 E0
G1 F2700 E-5
;LAYER_COUNT:114
;LAYER:0
M107
G0 F6000 X91.346 Y87.977 Z0.2
;TYPE:SKIRT
G1 F2700 E0
G1 F1200 X92.045 Y87.318 E0.03515
G1 X92.858 Y86.674 E0.07309
G1 X93.023 Y86.555 E0.08054
G1 X93.824 Y86.026 E0.11566
G1 X94.668 Y85.566 E0.15082
G1 X95.546 Y85.177 E0.18596
G1 X96.784 Y84.769 E0.23365
G1 X97.06 Y84.695 E0.2441
G1 X97.998 Y84.485 E0.27927
G1 X98.95 Y84.353 E0.31443
G1 X99.874 Y84.302 E0.34829
G1 X100.863 Y84.287 E0.38448
G1 X101.057 Y84.286 E0.39157
G1 X102.865 Y84.289 E0.45772
G1 X103.025 Y84.29 E0.46358
G1 X103.47 Y84.297 E0.47986
G1 X106.593 Y84.294 E0.59412
G1 X106.882 Y84.289 E0.60469
G1 X107.086 Y84.287 E0.61216
G1 X120.798 Y84.288 E1.11383
G1 X120.964 Y84.289 E1.1199
G1 X121.657 Y84.299 E1.14526
G1 X122.616 Y84.353 E1.1804
G1 X123.567 Y84.486 E1.21553
G1 X124.504 Y84.699 E1.25069
G1 X125.42 Y84.988 E1.28583
G1 X126.309 Y85.352 E1.32097
G1 X127.164 Y85.789 E1.3561
G1 X127.98 Y86.296 E1.39125
G1 X128.751 Y86.869 E1.4264
G1 X129.472 Y87.504 E1.46155
G1 X130.138 Y88.197 E1.49671
G1 X130.743 Y88.942 E1.53182
G1 X131.285 Y89.736 E1.567
G1 X131.758 Y90.572 E1.60214
G1 X132.161 Y91.444 E1.63728
G1 X132.489 Y92.347 E1.67243
G1 X132.741 Y93.274 E1.70758
G1 X132.916 Y94.218 E1.7427
G1 X133.025 Y95.485 E1.78923
G1 X133.035 Y95.812 E1.8012
G1 X133.04 Y96.165 E1.81412
G1 X133.04 Y124.24 E2.84127
G1 X133.039 Y124.384 E2.84654
G1 X133.03 Y125.107 E2.87299
G1 X132.978 Y126.066 E2.90813
G1 X132.847 Y127.017 E2.94325
G1 X132.636 Y127.955 E2.97843
G1 X132.349 Y128.871 E3.01355
G1 X131.986 Y129.761 E3.04871
G1 X131.551 Y130.617 E3.08384
G1 X131.046 Y131.434 E3.11898
G1 X130.474 Y132.207 E3.15417
G1 X129.841 Y132.929 E3.1893
G1 X129.149 Y133.595 E3.22443
G1 X128.405 Y134.203 E3.25959
G1 X127.613 Y134.746 E3.29472
G1 X126.778 Y135.221 E3.32987
G1 X125.906 Y135.625 E3.36503
G1 X125.004 Y135.955 E3.40017
G1 X124.078 Y136.209 E3.4353
G1 X123.133 Y136.386 E3.47047
G1 X121.799 Y136.499 E3.51945
G1 X120.975 Y136.521 E3.54961
G1 X120.781 Y136.524 E3.55671
G1 X120.07 Y136.531 E3.58272
G1 X119.923 Y136.532 E3.5881
G1 X119.225 Y136.53 E3.61364
G1 X118.265 Y136.487 E3.6488
G1 X117.312 Y136.365 E3.68395
G1 X116.336 Y136.154 E3.72048
G1 X115.432 Y135.917 E3.75467
G1 X114.624 Y135.719 E3.78511
G1 X114.483 Y135.684 E3.79042
G1 X112.973 Y135.293 E3.84749
G1 X112.054 Y135.013 E3.88264
G1 X111.142 Y134.65 E3.91855
G1 X110.957 Y134.567 E3.92597
G1 X110.098 Y134.138 E3.9611
G1 X109.277 Y133.638 E3.99627
G1 X108.501 Y133.072 E4.03141
G1 X107.774 Y132.444 E4.06656
G1 X107.18 Y131.842 E4.0975
G1 X106.934 Y131.574 E4.11081
G1 X106.314 Y130.839 E4.14599
G1 X105.672 Y129.922 E4.18694
G1 X104.192 Y127.573 E4.28852
G1 X102.799 Y125.495 E4.38005
G1 X101.329 Y123.433 E4.4727
G1 X99.838 Y121.462 E4.56312
G1 X98.273 Y119.507 E4.65474
G1 X96.649 Y117.594 E4.74654
G1 X94.978 Y115.736 E4.83797
G1 X93.26 Y113.929 E4.92919
G1 X91.442 Y112.13 E5.02276
G1 X90.788 Y111.427 E5.05789
G1 X90.185 Y110.657 E5.09368
G1 X90.04 Y110.455 E5.10277
G1 X89.513 Y109.652 E5.13791
G1 X89.054 Y108.808 E5.17306
G1 X88.668 Y107.929 E5.20819
G1 X88.242 Y106.613 E5.25879
G1 X88.165 Y106.315 E5.27005
G1 X87.964 Y105.376 E5.30519
G1 X87.841 Y104.423 E5.34034
G1 X87.8 Y103.647 E5.36877
G1 X87.788 Y103.014 E5.39194
G1 X87.786 Y102.783 E5.40039
G1 X87.792 Y97.156 E5.60626
G1 X87.794 Y96.976 E5.61284
G1 X87.805 Y96.314 E5.63707
G1 X87.861 Y95.355 E5.67221
G1 X87.996 Y94.404 E5.70736
G1 X88.338 Y93.033 E5.75905
G1 X88.415 Y92.789 E5.76841
G1 X88.742 Y91.886 E5.80355
G1 X89.143 Y91.013 E5.8387
G1 X89.615 Y90.176 E5.87385
G1 X90.155 Y89.382 E5.90899
G1 X90.516 Y88.92 E5.93044
G1 X90.704 Y88.692 E5.94125
G1 X91.346 Y87.977 E5.97641
G0 F6000 X91.674 Y88.272
G1 F1200 X92.36 Y87.627 E6.01085
G1 X93.115 Y87.031 E6.04605
G1 X93.28 Y86.912 E6.05349
G1 X94.067 Y86.394 E6.08796
G1 X94.895 Y85.944 E6.12244
G1 X95.758 Y85.567 E6.15689
G1 X96.898 Y85.194 E6.20078
G1 X97.174 Y85.12 E6.21123
G1 X98.094 Y84.915 E6.24572
G1 X99.028 Y84.788 E6.2802
G1 X99.881 Y84.742 E6.31146
G1 X100.87 Y84.727 E6.34764
G1 X101.056 Y84.726 E6.35445
G1 X102.864 Y84.729 E6.4206
G1 X103.018 Y84.73 E6.42623
G1 X103.463 Y84.737 E6.44251
G1 X106.602 Y84.734 E6.55736
G1 X106.89 Y84.729 E6.5679
G1 X107.086 Y84.727 E6.57507
G1 X120.798 Y84.728 E7.07674
G1 X120.957 Y84.729 E7.08255
G1 X121.65 Y84.739 E7.10791
G1 X122.591 Y84.793 E7.1424
G1 X123.523 Y84.926 E7.17684
G1 X124.441 Y85.138 E7.21131
G1 X125.338 Y85.426 E7.24578
G1 X126.207 Y85.79 E7.28025
G1 X127.042 Y86.226 E7.31471
G1 X127.837 Y86.732 E7.34919
G1 X128.587 Y87.303 E7.38367
G1 X129.285 Y87.936 E7.41815
G1 X129.927 Y88.625 E7.4526
G1 X130.508 Y89.366 E7.48705
G1 X131.025 Y90.154 E7.52154
G1 X131.472 Y90.983 E7.55599
G1 X131.848 Y91.847 E7.59047
G1 X132.149 Y92.74 E7.62494
G1 X132.373 Y93.655 E7.65941
G1 X132.519 Y94.586 E7.69389
G1 X132.585 Y95.499 E7.72738
G1 X132.595 Y95.826 E7.73935
G1 X132.6 Y96.165 E7.75175
G1 X132.6 Y124.24 E8.77891
G1 X132.599 Y124.378 E8.78396
G1 X132.59 Y125.101 E8.81041
G1 X132.538 Y126.042 E8.84489
G1 X132.407 Y126.975 E8.87936
G1 X132.197 Y127.893 E8.91381
G1 X131.91 Y128.791 E8.94831
G1 X131.548 Y129.66 E8.98275
G1 X131.114 Y130.496 E9.01721
G1 X130.61 Y131.292 E9.05168
G1 X130.04 Y132.043 E9.08617
G1 X129.409 Y132.742 E9.12062
G1 X128.721 Y133.386 E9.1551
G1 X127.98 Y133.968 E9.18958
G1 X127.193 Y134.486 E9.22405
G1 X126.365 Y134.936 E9.25852
G1 X125.502 Y135.313 E9.29298
G1 X124.61 Y135.616 E9.32745
G1 X123.695 Y135.842 E9.36193
G1 X122.765 Y135.99 E9.39638
G1 X121.787 Y136.059 E9.43225
G1 X120.963 Y136.081 E9.46241
G1 X120.776 Y136.084 E9.46925
G1 X120.065 Y136.091 E9.49527
G1 X119.924 Y136.092 E9.50042
G1 X119.226 Y136.09 E9.52596
G1 X118.285 Y136.047 E9.56042
G1 X117.351 Y135.925 E9.59489
G1 X116.448 Y135.728 E9.6287
G1 X115.588 Y135.503 E9.66122
G1 X114.729 Y135.292 E9.69359
G1 X114.594 Y135.258 E9.69868
G1 X113.084 Y134.867 E9.75575
G1 X112.182 Y134.592 E9.79025
G1 X111.322 Y134.248 E9.82413
G1 X111.137 Y134.165 E9.83155
G1 X110.295 Y133.744 E9.86599
G1 X109.491 Y133.252 E9.90048
G1 X108.732 Y132.694 E9.93495
G1 X108.023 Y132.073 E9.96943
G1 X107.504 Y131.544 E9.99654
G1 X107.258 Y131.276 E10.00985
G1 X106.651 Y130.556 E10.04431
G1 X106.044 Y129.687 E10.08309
G1 X104.568 Y127.345 E10.18437
G1 X103.151 Y125.231 E10.27748
G1 X101.69 Y123.181 E10.36958
G1 X100.189 Y121.197 E10.4606
G1 X98.591 Y119.201 E10.55415
G1 X97 Y117.327 E10.64409
G1 X95.297 Y115.432 E10.7373
G1 X93.56 Y113.607 E10.82948
G1 X91.752 Y111.817 E10.92256
G1 X91.111 Y111.127 E10.95702
G1 X90.543 Y110.401 E10.99074
G1 X90.398 Y110.199 E10.99984
G1 X89.881 Y109.411 E11.03432
G1 X89.434 Y108.582 E11.06878
G1 X89.058 Y107.718 E11.10325
G1 X88.668 Y106.503 E11.14994
G1 X88.591 Y106.205 E11.1612
G1 X88.394 Y105.284 E11.19566
G1 X88.276 Y104.349 E11.23014
G1 X88.24 Y103.638 E11.25618
G1 X88.228 Y103.005 E11.27935
G1 X88.226 Y102.783 E11.28747
G1 X88.232 Y97.156 E11.49334
G1 X88.234 Y96.984 E11.49963
G1 X88.245 Y96.322 E11.52385
G1 X88.3 Y95.381 E11.55834
G1 X88.435 Y94.449 E11.5928
G1 X88.758 Y93.166 E11.6412
G1 X88.835 Y92.922 E11.65056
G1 X89.156 Y92.036 E11.68504
G1 X89.551 Y91.181 E11.7195
G1 X90.018 Y90.362 E11.75399
G1 X90.552 Y89.586 E11.78845
G1 X90.856 Y89.2 E11.80643
G1 X91.044 Y88.972 E11.81724
G1 X91.674 Y88.272 E11.8517
G0 F6000 X92.001 Y88.566
G1 F1200 X92.676 Y87.936 E11.88548
G1 X93.372 Y87.388 E11.91789
G1 X93.537 Y87.269 E11.92533
G1 X94.309 Y86.762 E11.95912
G1 X95.121 Y86.323 E11.99289
G1 X95.969 Y85.957 E12.02668
G1 X97.012 Y85.619 E12.0668
G1 X97.288 Y85.545 E12.07725
G1 X98.19 Y85.344 E12.11106
G1 X99.105 Y85.223 E12.14483
G1 X99.887 Y85.182 E12.17348
G1 X100.876 Y85.167 E12.20967
G1 X101.056 Y85.166 E12.21625
G1 X102.864 Y85.169 E12.2824
G1 X103.011 Y85.17 E12.28778
G1 X103.456 Y85.177 E12.30406
G1 X106.61 Y85.174 E12.41945
G1 X106.898 Y85.169 E12.42999
G1 X107.086 Y85.167 E12.43687
G1 X120.798 Y85.168 E12.93854
G1 X120.951 Y85.169 E12.94414
G1 X121.644 Y85.179 E12.96949
G1 X122.566 Y85.232 E13.00328
G1 X123.479 Y85.365 E13.03704
G1 X124.378 Y85.577 E13.07083
G1 X125.255 Y85.865 E13.1046
G1 X126.104 Y86.228 E13.13838
G1 X126.918 Y86.663 E13.17215
G1 X127.691 Y87.168 E13.20593
G1 X128.418 Y87.737 E13.23971
G1 X129.093 Y88.367 E13.27349
G1 X129.711 Y89.052 E13.30724
G1 X130.268 Y89.789 E13.34104
G1 X130.758 Y90.572 E13.37484
G1 X131.179 Y91.393 E13.40859
G1 X131.527 Y92.248 E13.44236
G1 X131.8 Y93.13 E13.47614
G1 X131.996 Y94.033 E13.50995
G1 X132.113 Y94.948 E13.5437
G1 X132.145 Y95.512 E13.56437
G1 X132.155 Y95.839 E13.57634
G1 X132.16 Y96.165 E13.58827
G1 X132.16 Y124.24 E14.61542
G1 X132.159 Y124.373 E14.62029
G1 X132.15 Y125.096 E14.64674
G1 X132.099 Y126.018 E14.68053
G1 X131.968 Y126.931 E14.71427
G1 X131.758 Y127.831 E14.74808
G1 X131.471 Y128.708 E14.78184
G1 X131.11 Y129.558 E14.81563
G1 X130.676 Y130.373 E14.84941
G1 X130.174 Y131.147 E14.88316
G1 X129.606 Y131.875 E14.91695
G1 X128.978 Y132.552 E14.95073
G1 X128.293 Y133.171 E14.98451
G1 X127.557 Y133.729 E15.0183
G1 X126.776 Y134.221 E15.05207
G1 X125.955 Y134.643 E15.08584
G1 X125.101 Y134.993 E15.11961
G1 X124.219 Y135.268 E15.15341
G1 X123.317 Y135.465 E15.18719
G1 X122.402 Y135.584 E15.22095
G1 X121.776 Y135.619 E15.24389
G1 X120.952 Y135.641 E15.27405
G1 X120.772 Y135.644 E15.28063
G1 X120.061 Y135.651 E15.30665
G1 X119.925 Y135.652 E15.31162
G1 X119.227 Y135.65 E15.33716
G1 X118.305 Y135.607 E15.37093
G1 X117.39 Y135.485 E15.4047
G1 X116.559 Y135.303 E15.43582
G1 X115.605 Y135.053 E15.47191
G1 X114.834 Y134.864 E15.50095
G1 X114.704 Y134.832 E15.50585
G1 X113.194 Y134.441 E15.56291
G1 X112.311 Y134.171 E15.5967
G1 X111.502 Y133.847 E15.62858
G1 X111.317 Y133.764 E15.636
G1 X110.492 Y133.35 E15.66977
G1 X109.706 Y132.866 E15.70354
G1 X108.964 Y132.316 E15.73733
G1 X108.273 Y131.704 E15.7711
G1 X107.828 Y131.247 E15.79444
G1 X107.582 Y130.979 E15.80775
G1 X106.988 Y130.272 E15.84153
G1 X106.416 Y129.453 E15.87808
G1 X104.919 Y127.077 E15.98083
G1 X103.515 Y124.983 E16.07306
G1 X102.056 Y122.936 E16.16503
G1 X100.523 Y120.909 E16.25801
G1 X98.943 Y118.936 E16.35049
G1 X97.334 Y117.04 E16.44147
G1 X95.614 Y115.127 E16.53559
G1 X93.894 Y113.319 E16.62689
G1 X92.061 Y111.505 E16.72124
G1 X91.434 Y110.827 E16.75503
G1 X90.9 Y110.144 E16.78674
G1 X90.755 Y109.942 E16.79584
G1 X90.25 Y109.17 E16.82959
G1 X89.813 Y108.356 E16.86339
G1 X89.448 Y107.508 E16.89717
G1 X89.094 Y106.393 E16.93997
G1 X89.017 Y106.095 E16.95123
G1 X88.825 Y105.192 E16.98501
G1 X88.712 Y104.275 E17.01881
G1 X88.68 Y103.63 E17.04244
G1 X88.668 Y102.997 E17.0656
G1 X88.666 Y102.784 E17.07339
G1 X88.672 Y97.157 E17.27926
G1 X88.673 Y96.991 E17.28534
G1 X88.684 Y96.329 E17.30956
G1 X88.74 Y95.407 E17.34336
G1 X88.875 Y94.494 E17.37712
G1 X89.177 Y93.298 E17.42225
G1 X89.254 Y93.054 E17.43161
G1 X89.57 Y92.186 E17.46541
G1 X89.959 Y91.349 E17.49918
G1 X90.42 Y90.549 E17.53296
G1 X91.195 Y89.48 E17.58127
G1 X91.383 Y89.252 E17.59208
G1 X92.001 Y88.566 E17.62586
G0 F6000 X92.328 Y88.861
G1 F1200 X92.991 Y88.246 E17.65894
G1 X93.63 Y87.745 E17.68865
G1 X93.795 Y87.626 E17.69609
G1 X94.551 Y87.13 E17.72918
G1 X95.347 Y86.703 E17.76222
G1 X96.179 Y86.348 E17.79532
G1 X97.126 Y86.044 E17.83171
G1 X97.402 Y85.97 E17.84216
G1 X98.285 Y85.774 E17.87525
G1 X99.181 Y85.658 E17.90831
G1 X99.894 Y85.622 E17.93443
G1 X100.883 Y85.607 E17.97061
G1 X101.055 Y85.606 E17.97691
G1 X102.863 Y85.609 E18.04306
G1 X103.004 Y85.61 E18.04821
G1 X103.45 Y85.617 E18.06453
G1 X106.618 Y85.614 E18.18044
G1 X106.905 Y85.609 E18.19094
G1 X107.086 Y85.607 E18.19756
G1 X120.798 Y85.608 E18.69923
G1 X120.944 Y85.609 E18.70457
G1 X121.637 Y85.619 E18.72993
G1 X122.54 Y85.672 E18.76302
G1 X123.434 Y85.805 E18.79609
G1 X124.313 Y86.016 E18.82917
G1 X125.17 Y86.304 E18.86224
G1 X125.998 Y86.666 E18.89531
G1 X126.791 Y87.1 E18.92838
G1 X127.542 Y87.603 E18.96145
G1 X128.246 Y88.17 E18.99452
G1 X128.898 Y88.797 E19.02761
G1 X129.491 Y89.479 E19.06068
G1 X130.021 Y90.211 E19.09374
G1 X130.485 Y90.987 E19.12682
G1 X130.879 Y91.801 E19.15991
G1 X131.199 Y92.646 E19.19297
G1 X131.443 Y93.517 E19.22606
G1 X131.609 Y94.405 E19.25911
G1 X131.705 Y95.526 E19.30027
G1 X131.715 Y95.853 E19.31224
G1 X131.72 Y96.165 E19.32366
G1 X131.72 Y124.24 E20.35082
G1 X131.719 Y124.367 E20.35546
G1 X131.71 Y125.09 E20.38192
G1 X131.659 Y125.993 E20.41501
G1 X131.528 Y126.887 E20.44806
G1 X131.319 Y127.767 E20.48116
G1 X131.033 Y128.624 E20.51421
G1 X130.672 Y129.453 E20.54729
G1 X130.239 Y130.247 E20.58038
G1 X129.738 Y130.999 E20.61344
G1 X129.172 Y131.704 E20.64652
G1 X128.547 Y132.357 E20.67959
G1 X127.866 Y132.951 E20.71265
G1 X127.135 Y133.483 E20.74572
G1 X126.36 Y133.949 E20.77881
G1 X125.547 Y134.344 E20.81188
G1 X124.702 Y134.665 E20.84495
G1 X123.832 Y134.911 E20.87803
G1 X122.944 Y135.079 E20.91109
G1 X121.764 Y135.179 E20.95442
G1 X120.94 Y135.201 E20.98458
G1 X120.768 Y135.205 E20.99087
G1 X120.057 Y135.212 E21.01688
G1 X119.927 Y135.212 E21.02164
G1 X119.229 Y135.21 E21.04718
G1 X118.326 Y135.167 E21.08025
G1 X117.43 Y135.045 E21.11334
G1 X116.67 Y134.877 E21.14181
G1 X115.745 Y134.635 E21.17679
G1 X114.939 Y134.437 E21.20716
G1 X114.814 Y134.406 E21.21187
G1 X113.304 Y134.015 E21.26894
G1 X112.44 Y133.75 E21.302
G1 X111.683 Y133.446 E21.33185
G1 X111.498 Y133.363 E21.33927
G1 X110.69 Y132.956 E21.37237
G1 X109.921 Y132.48 E21.40546
G1 X109.198 Y131.938 E21.43851
G1 X108.525 Y131.335 E21.47157
G1 X108.152 Y130.949 E21.49121
G1 X107.906 Y130.681 E21.50452
G1 X107.325 Y129.989 E21.53758
G1 X106.788 Y129.218 E21.57196
G1 X105.296 Y126.849 E21.67439
G1 X103.867 Y124.718 E21.76826
G1 X102.405 Y122.667 E21.86041
G1 X100.888 Y120.661 E21.95242
G1 X99.276 Y118.648 E22.04678
G1 X97.655 Y116.738 E22.13843
G1 X95.948 Y114.84 E22.23182
G1 X94.195 Y112.997 E22.32488
G1 X92.371 Y111.192 E22.41877
G1 X91.757 Y110.528 E22.45185
G1 X91.258 Y109.888 E22.48154
G1 X91.113 Y109.686 E22.49064
G1 X90.618 Y108.929 E22.52373
G1 X90.193 Y108.131 E22.55681
G1 X89.84 Y107.299 E22.58988
G1 X89.52 Y106.283 E22.62885
G1 X89.443 Y105.985 E22.64011
G1 X89.256 Y105.1 E22.6732
G1 X89.147 Y104.203 E22.70626
G1 X89.12 Y103.622 E22.72754
G1 X89.108 Y102.989 E22.75071
G1 X89.106 Y102.784 E22.75821
G1 X89.112 Y97.157 E22.96408
G1 X89.113 Y96.998 E22.96989
G1 X89.124 Y96.336 E22.99412
G1 X89.179 Y95.434 E23.02718
G1 X89.314 Y94.54 E23.06026
G1 X89.597 Y93.43 E23.10217
G1 X89.674 Y93.186 E23.11153
G1 X89.984 Y92.337 E23.1446
G1 X90.367 Y91.519 E23.17764
G1 X90.822 Y90.737 E23.21074
G1 X91.535 Y89.76 E23.25499
G1 X91.723 Y89.532 E23.2658
G1 X92.328 Y88.861 E23.29886
G1 F2700 E18.29886
;MESH:Ender_3_filament_guide_with_gap.stl
G0 F6000 X98.845 Y104.102
