;FLAVOR:Marlin
;TIME:813
;Filament used: 0.201548m
;Layer height: 0.12
;MINX:84.822
;MINY:94.562
;MINZ:0.12
;MAXX:135.619
;MAXY:125.855
;MAXZ:4.92
;Generated with Cura_SteamEngine 4.2.1
M140 S50
M105
M190 S50
M104 S200
M105
M109 S200
M82 ;absolute extrusion mode
M201 X500.00 Y500.00 Z100.00 E5000.00 ;Setup machine max acceleration
M203 X500.00 Y500.00 Z10.00 E50.00 ;Setup machine max feedrate
M204 P500.00 R1000.00 T500.00 ;Setup Print/Retract/Travel acceleration
M205 X8.00 Y8.00 Z0.40 E5.00 ;Setup Jerk
M220 S100 ;Reset Feedrate
M221 S100 ;Reset Flowrate

G28 ;Home

G92 E0 ;Reset Extruder
G1 Z2.0 F3000 ;Move Z Axis up
G1 X10.1 Y20 Z0.28 F5000.0 ;Move to start position
G1 X10.1 Y200.0 Z0.28 F1500.0 E15 ;Draw the first line
G1 X10.4 Y200.0 Z0.28 F5000.0 ;Move to side a little
G1 X10.4 Y20 Z0.28 F1500.0 E30 ;Draw the second line
G92 E0 ;Reset Extruder
G1 Z2.0 F3000 ;Move Z Axis up

M141 S28
G92 E0
G92 E0
G1 F2700 E-5
;LAYER_COUNT:41
;LAYER:0
M107
G0 F6000 X89.667 Y99.03 Z0.12
;TYPE:SKIRT
G1 F2700 E0
G1 F1200 X89.877 Y98.841 E0.0062
G1 X90.569 Y98.266 E0.02595
G1 X90.793 Y98.094 E0.03215
G1 X91.908 Y97.337 E0.06174
G1 X92.337 Y97.081 E0.0727
G1 X93.181 Y96.624 E0.09377
G1 X93.96 Y96.278 E0.11248
G1 X94.422 Y96.093 E0.12341
G1 X95.752 Y95.652 E0.15417
G1 X96.125 Y95.553 E0.16264
G1 X97.084 Y95.342 E0.18419
G1 X97.402 Y95.286 E0.19128
G1 X97.939 Y95.204 E0.20321
G1 X98.283 Y95.16 E0.21082
G1 X99.606 Y95.068 E0.23993
G1 X99.934 Y95.064 E0.24713
G1 X100.673 Y95.079 E0.26336
G1 X103.439 Y95.223 E0.32416
G1 X106.031 Y95.301 E0.38108
G1 X108.53 Y95.308 E0.43594
G1 X111.014 Y95.243 E0.49049
G1 X113.515 Y95.107 E0.54547
G1 X116.047 Y94.898 E0.60124
G1 X118.25 Y94.658 E0.64988
G1 X118.814 Y94.61 E0.66231
G1 X119.302 Y94.581 E0.67304
G1 X120.102 Y94.562 E0.69061
G1 X120.303 Y94.564 E0.69502
G1 X121.291 Y94.616 E0.71674
G1 X121.739 Y94.659 E0.72662
G1 X122.732 Y94.798 E0.74863
G1 X122.954 Y94.839 E0.75358
G1 X123.643 Y94.988 E0.76906
G1 X123.84 Y95.037 E0.77352
G1 X124.768 Y95.31 E0.79475
G1 X125.23 Y95.467 E0.80546
G1 X126.29 Y95.886 E0.83048
G1 X126.607 Y96.03 E0.83812
G1 X127.265 Y96.355 E0.85423
G1 X127.475 Y96.467 E0.85946
G1 X128.279 Y96.938 E0.87991
G1 X128.536 Y97.103 E0.88662
G1 X129.196 Y97.561 E0.90425
G1 X129.404 Y97.716 E0.90995
G1 X130.001 Y98.192 E0.92671
G1 X130.206 Y98.367 E0.93262
G1 X130.845 Y98.955 E0.95169
G1 X131.129 Y99.237 E0.96047
G1 X131.913 Y100.099 E0.98605
G1 X132.153 Y100.391 E0.99435
G1 X132.755 Y101.192 E1.01634
G1 X132.971 Y101.507 E1.02473
G1 X133.539 Y102.424 E1.04841
G1 X133.727 Y102.762 E1.0569
G1 X134.159 Y103.62 E1.07798
G1 X134.377 Y104.135 E1.09026
G1 X134.639 Y104.799 E1.10593
G1 X134.954 Y105.707 E1.12703
G1 X135.135 Y106.382 E1.14237
G1 X135.251 Y106.873 E1.15344
G1 X135.483 Y108.195 E1.18291
G1 X135.542 Y108.703 E1.19413
G1 X135.619 Y110.034 E1.2234
G1 X135.619 Y110.371 E1.2308
G1 X135.59 Y111.191 E1.24881
G1 X135.556 Y111.668 E1.25931
G1 X135.44 Y112.671 E1.28147
G1 X135.396 Y112.946 E1.28758
G1 X135.168 Y114.035 E1.31201
G1 X135.041 Y114.522 E1.32306
G1 X134.76 Y115.441 E1.34415
G1 X134.579 Y115.92 E1.35539
G1 X134.488 Y116.146 E1.36074
G1 X133.92 Y117.352 E1.39
G1 X133.661 Y117.828 E1.4019
G1 X133.176 Y118.637 E1.4226
G1 X132.965 Y118.959 E1.43106
G1 X132.424 Y119.716 E1.45148
G1 X132.26 Y119.927 E1.45735
G1 X131.673 Y120.624 E1.47735
G1 X131.443 Y120.876 E1.48484
G1 X130.887 Y121.445 E1.5023
G1 X130.689 Y121.634 E1.50831
G1 X130.198 Y122.076 E1.52281
G1 X129.977 Y122.264 E1.52918
G1 X129.424 Y122.706 E1.54472
G1 X129.252 Y122.835 E1.54944
G1 X128.796 Y123.16 E1.56174
G1 X128.598 Y123.294 E1.56698
G1 X127.539 Y123.931 E1.59411
G1 X126.919 Y124.26 E1.60952
G1 X126.053 Y124.674 E1.63059
G1 X125.171 Y125.01 E1.65131
G1 X124.899 Y125.101 E1.65761
G1 X124.142 Y125.326 E1.67494
G1 X123.892 Y125.391 E1.68061
G1 X122.825 Y125.615 E1.70454
G1 X122.397 Y125.684 E1.71406
G1 X121.467 Y125.795 E1.73462
G1 X121.074 Y125.826 E1.74327
G1 X119.756 Y125.855 E1.77221
G1 X119.139 Y125.833 E1.78577
G1 X118.272 Y125.769 E1.80485
G1 X117.343 Y125.665 E1.82537
G1 X114.786 Y125.417 E1.88177
G1 X112.256 Y125.244 E1.93743
G1 X109.789 Y125.143 E1.99163
G1 X107.268 Y125.113 E2.04698
G1 X104.809 Y125.153 E2.10096
G1 X102.191 Y125.27 E2.15849
G1 X102.013 Y125.281 E2.1624
G1 X101.935 Y125.286 E2.16412
G1 X101.082 Y125.335 E2.18288
G1 X100.682 Y125.351 E2.19166
G1 X100.153 Y125.363 E2.20328
G1 X98.767 Y125.311 E2.23373
G1 X98.297 Y125.265 E2.24409
G1 X97.346 Y125.132 E2.26517
G1 X96.87 Y125.034 E2.27584
G1 X96.473 Y124.944 E2.28478
G1 X95.698 Y124.74 E2.30237
G1 X95.502 Y124.681 E2.30686
G1 X94.823 Y124.454 E2.32258
G1 X94.496 Y124.333 E2.33023
G1 X93.61 Y123.962 E2.35132
G1 X92.968 Y123.637 E2.36711
G1 X92.569 Y123.419 E2.37709
G1 X91.887 Y123.015 E2.39449
G1 X91.596 Y122.829 E2.40208
G1 X90.809 Y122.279 E2.42315
G1 X90.409 Y121.96 E2.43438
G1 X90.098 Y121.7 E2.44328
G1 X89.158 Y120.82 E2.47155
G1 X88.79 Y120.435 E2.48324
G1 X87.916 Y119.406 E2.51287
G1 X87.76 Y119.199 E2.51856
G1 X87.044 Y118.129 E2.54683
G1 X86.779 Y117.681 E2.55825
G1 X86.244 Y116.666 E2.58344
G1 X86.153 Y116.47 E2.58818
G1 X85.71 Y115.372 E2.61417
G1 X85.64 Y115.169 E2.61889
G1 X85.434 Y114.505 E2.63415
G1 X85.31 Y114.06 E2.64429
G1 X85.09 Y113.124 E2.6654
G1 X84.999 Y112.575 E2.67761
G1 X84.939 Y112.15 E2.68703
G1 X84.828 Y110.729 E2.71832
G1 X84.822 Y110.368 E2.72625
G1 X84.836 Y109.567 E2.74383
G1 X84.851 Y109.283 E2.75008
G1 X84.938 Y108.354 E2.77056
G1 X84.984 Y108.012 E2.77813
G1 X85.151 Y107.067 E2.7992
G1 X85.277 Y106.495 E2.81206
G1 X85.523 Y105.567 E2.83313
G1 X85.884 Y104.566 E2.85649
G1 X86.059 Y104.143 E2.86654
G1 X86.4 Y103.394 E2.88461
G1 X86.502 Y103.19 E2.88961
G1 X86.9 Y102.462 E2.90783
G1 X87.027 Y102.248 E2.91329
G1 X87.634 Y101.327 E2.9375
G1 X87.797 Y101.104 E2.94357
G1 X88.332 Y100.427 E2.96251
G1 X88.465 Y100.271 E2.96701
G1 X88.811 Y99.884 E2.9784
G1 X88.951 Y99.734 E2.98291
G1 X89.667 Y99.03 E3.00495
G0 F6000 X89.961 Y99.357
G1 F1200 X90.171 Y99.168 E3.01115
G1 X90.837 Y98.615 E3.03015
G1 X91.061 Y98.443 E3.03635
G1 X92.133 Y97.715 E3.0648
G1 X92.562 Y97.459 E3.07577
G1 X93.391 Y97.011 E3.09645
G1 X94.124 Y96.686 E3.11405
G1 X94.586 Y96.501 E3.12498
G1 X95.864 Y96.077 E3.15453
G1 X96.237 Y95.978 E3.16301
G1 X97.16 Y95.775 E3.18375
G1 X97.478 Y95.719 E3.19084
G1 X97.995 Y95.641 E3.20232
G1 X98.339 Y95.597 E3.20993
G1 X99.612 Y95.508 E3.23794
G1 X99.94 Y95.504 E3.24514
G1 X100.65 Y95.518 E3.26073
G1 X103.448 Y95.663 E3.32224
G1 X106.017 Y95.741 E3.37866
G1 X108.541 Y95.748 E3.43406
G1 X111.014 Y95.684 E3.48837
G1 X113.577 Y95.544 E3.54471
G1 X116.053 Y95.339 E3.59925
G1 X118.298 Y95.095 E3.64882
G1 X118.841 Y95.05 E3.66078
G1 X119.329 Y95.021 E3.67151
G1 X120.097 Y95.002 E3.68838
G1 X120.298 Y95.004 E3.69279
G1 X121.249 Y95.054 E3.7137
G1 X121.697 Y95.097 E3.72358
G1 X122.652 Y95.231 E3.74474
G1 X122.874 Y95.272 E3.7497
G1 X123.537 Y95.415 E3.76459
G1 X123.734 Y95.464 E3.76905
G1 X124.626 Y95.726 E3.78945
G1 X125.088 Y95.883 E3.80016
G1 X126.108 Y96.287 E3.82425
G1 X126.425 Y96.431 E3.83189
G1 X127.058 Y96.743 E3.84738
G1 X127.268 Y96.855 E3.85261
G1 X128.041 Y97.308 E3.87227
G1 X128.298 Y97.473 E3.87898
G1 X128.934 Y97.914 E3.89597
G1 X129.142 Y98.069 E3.90166
G1 X129.716 Y98.527 E3.91778
G1 X129.921 Y98.702 E3.9237
G1 X130.535 Y99.267 E3.94202
G1 X130.819 Y99.549 E3.9508
G1 X131.573 Y100.378 E3.9754
G1 X131.813 Y100.67 E3.9837
G1 X132.392 Y101.441 E4.00486
G1 X132.608 Y101.756 E4.01325
G1 X133.154 Y102.637 E4.036
G1 X133.342 Y102.975 E4.04449
G1 X133.765 Y103.818 E4.06519
G1 X133.967 Y104.297 E4.07661
G1 X134.229 Y104.961 E4.09228
G1 X134.538 Y105.851 E4.11296
G1 X134.707 Y106.483 E4.12732
G1 X134.823 Y106.974 E4.13839
G1 X135.046 Y108.245 E4.16672
G1 X135.105 Y108.753 E4.17795
G1 X135.179 Y110.034 E4.20611
G1 X135.179 Y110.371 E4.21351
G1 X135.151 Y111.16 E4.23084
G1 X135.117 Y111.637 E4.24134
G1 X135.006 Y112.602 E4.26266
G1 X134.962 Y112.877 E4.26877
G1 X134.742 Y113.924 E4.29226
G1 X134.615 Y114.411 E4.30331
G1 X134.339 Y115.312 E4.32399
G1 X134.171 Y115.756 E4.33441
G1 X134.08 Y115.982 E4.33976
G1 X133.533 Y117.141 E4.3679
G1 X133.274 Y117.617 E4.37979
G1 X132.808 Y118.396 E4.39972
G1 X132.597 Y118.718 E4.40817
G1 X132.077 Y119.446 E4.42781
G1 X131.913 Y119.657 E4.43367
G1 X131.348 Y120.328 E4.45293
G1 X131.118 Y120.58 E4.46042
G1 X130.583 Y121.126 E4.4772
G1 X130.385 Y121.315 E4.48321
G1 X129.913 Y121.741 E4.49717
G1 X129.692 Y121.929 E4.50354
G1 X129.16 Y122.354 E4.51848
G1 X128.988 Y122.483 E4.5232
G1 X128.549 Y122.796 E4.53504
G1 X128.351 Y122.93 E4.54029
G1 X127.333 Y123.542 E4.56636
G1 X126.713 Y123.871 E4.58177
G1 X125.863 Y124.277 E4.60245
G1 X125.032 Y124.593 E4.62196
G1 X124.76 Y124.684 E4.62826
G1 X124.031 Y124.9 E4.64495
G1 X123.781 Y124.965 E4.65062
G1 X122.755 Y125.181 E4.67363
G1 X122.327 Y125.25 E4.68315
G1 X121.433 Y125.357 E4.70292
G1 X121.04 Y125.388 E4.71157
G1 X119.771 Y125.415 E4.73943
G1 X119.154 Y125.393 E4.75299
G1 X118.321 Y125.332 E4.77132
G1 X117.363 Y125.225 E4.79248
G1 X114.825 Y124.979 E4.84846
G1 X112.303 Y124.806 E4.90395
G1 X109.777 Y124.703 E4.95944
G1 X107.302 Y124.673 E5.01378
G1 X104.747 Y124.715 E5.06987
G1 X102.193 Y124.829 E5.12599
G1 X101.984 Y124.842 E5.13059
G1 X101.91 Y124.847 E5.13222
G1 X101.057 Y124.896 E5.15097
G1 X100.672 Y124.911 E5.15943
G1 X100.143 Y124.923 E5.17105
G1 X98.81 Y124.873 E5.20033
G1 X98.34 Y124.827 E5.2107
G1 X96.967 Y124.605 E5.24123
G1 X96.57 Y124.515 E5.25016
G1 X95.824 Y124.319 E5.26709
G1 X95.628 Y124.26 E5.27159
G1 X94.976 Y124.041 E5.28669
G1 X94.649 Y123.92 E5.29434
G1 X93.78 Y123.556 E5.31502
G1 X93.179 Y123.251 E5.32982
G1 X92.78 Y123.033 E5.3398
G1 X92.124 Y122.645 E5.35653
G1 X91.833 Y122.459 E5.36411
G1 X91.061 Y121.918 E5.3848
G1 X90.691 Y121.622 E5.3952
G1 X90.38 Y121.362 E5.4041
G1 X89.476 Y120.516 E5.43128
G1 X89.108 Y120.131 E5.44297
G1 X88.267 Y119.142 E5.47147
G1 X88.111 Y118.935 E5.47716
G1 X87.422 Y117.905 E5.50436
G1 X87.157 Y117.457 E5.51579
G1 X86.643 Y116.48 E5.54002
G1 X86.552 Y116.284 E5.54477
G1 X86.126 Y115.228 E5.56976
G1 X86.056 Y115.025 E5.57448
G1 X85.857 Y114.387 E5.58915
G1 X85.733 Y113.942 E5.59929
G1 X85.519 Y113.024 E5.61998
G1 X85.435 Y112.514 E5.63133
G1 X85.375 Y112.089 E5.64075
G1 X85.268 Y110.721 E5.67087
G1 X85.262 Y110.36 E5.6788
G1 X85.275 Y109.591 E5.69568
G1 X85.29 Y109.307 E5.70192
G1 X85.374 Y108.412 E5.72165
G1 X85.42 Y108.07 E5.72923
G1 X85.581 Y107.162 E5.74947
G1 X85.707 Y106.59 E5.76233
G1 X85.948 Y105.68 E5.78299
G1 X86.29 Y104.735 E5.80506
G1 X86.465 Y104.312 E5.8151
G1 X86.794 Y103.591 E5.8325
G1 X86.896 Y103.387 E5.83751
G1 X87.278 Y102.686 E5.85503
G1 X87.405 Y102.472 E5.8605
G1 X87.99 Y101.587 E5.88378
G1 X88.153 Y101.364 E5.88985
G1 X88.667 Y100.713 E5.90806
G1 X88.8 Y100.557 E5.91256
G1 X89.132 Y100.184 E5.92352
G1 X89.272 Y100.034 E5.92802
G1 X89.961 Y99.357 E5.94923
G0 F6000 X90.256 Y99.684
G1 F1200 X90.466 Y99.495 E5.95543
G1 X91.105 Y98.964 E5.97367
G1 X91.329 Y98.792 E5.97986
G1 X92.358 Y98.093 E6.00717
G1 X92.787 Y97.837 E6.01814
G1 X93.6 Y97.399 E6.03841
G1 X94.287 Y97.095 E6.0549
G1 X94.749 Y96.91 E6.06583
G1 X95.977 Y96.503 E6.09422
G1 X96.35 Y96.404 E6.1027
G1 X97.236 Y96.209 E6.12261
G1 X97.554 Y96.153 E6.1297
G1 X98.051 Y96.077 E6.14074
G1 X98.395 Y96.033 E6.14835
G1 X99.617 Y95.948 E6.17524
G1 X99.945 Y95.944 E6.18244
G1 X100.628 Y95.957 E6.19744
G1 X103.461 Y96.104 E6.25971
G1 X106.001 Y96.181 E6.31549
G1 X108.551 Y96.188 E6.37147
G1 X111.05 Y96.123 E6.42634
G1 X113.565 Y95.986 E6.48163
G1 X116.135 Y95.774 E6.53824
G1 X118.345 Y95.533 E6.58704
G1 X118.867 Y95.489 E6.59854
G1 X119.355 Y95.46 E6.60927
G1 X120.093 Y95.442 E6.62548
G1 X120.294 Y95.444 E6.62989
G1 X121.206 Y95.492 E6.64994
G1 X121.654 Y95.535 E6.65982
G1 X122.572 Y95.663 E6.68016
G1 X122.794 Y95.704 E6.68512
G1 X123.431 Y95.842 E6.69943
G1 X123.628 Y95.891 E6.70388
G1 X124.485 Y96.143 E6.72349
G1 X124.947 Y96.3 E6.7342
G1 X125.926 Y96.687 E6.75731
G1 X126.243 Y96.831 E6.76496
G1 X126.85 Y97.131 E6.77982
G1 X127.06 Y97.243 E6.78504
G1 X127.803 Y97.679 E6.80395
G1 X128.06 Y97.844 E6.81066
G1 X128.671 Y98.266 E6.82696
G1 X128.879 Y98.421 E6.83265
G1 X129.43 Y98.861 E6.84813
G1 X129.635 Y99.036 E6.85405
G1 X130.225 Y99.58 E6.87167
G1 X130.509 Y99.862 E6.88045
G1 X131.233 Y100.657 E6.90406
G1 X131.473 Y100.949 E6.91235
G1 X132.03 Y101.689 E6.93268
G1 X132.246 Y102.004 E6.94107
G1 X132.77 Y102.851 E6.96293
G1 X132.958 Y103.189 E6.97142
G1 X133.371 Y104.015 E6.99169
G1 X133.558 Y104.458 E7.00225
G1 X133.82 Y105.122 E7.01792
G1 X134.121 Y105.995 E7.03819
G1 X134.278 Y106.584 E7.05157
G1 X134.394 Y107.075 E7.06265
G1 X134.609 Y108.296 E7.08986
G1 X134.668 Y108.804 E7.10109
G1 X134.739 Y110.034 E7.12813
G1 X134.739 Y110.371 E7.13553
G1 X134.712 Y111.129 E7.15218
G1 X134.678 Y111.606 E7.16268
G1 X134.571 Y112.532 E7.18314
G1 X134.527 Y112.807 E7.18926
G1 X134.316 Y113.813 E7.21182
G1 X134.189 Y114.3 E7.22287
G1 X133.762 Y115.592 E7.25274
G1 X133.671 Y115.818 E7.25809
G1 X133.147 Y116.931 E7.28509
G1 X132.888 Y117.407 E7.29699
G1 X132.44 Y118.155 E7.31613
G1 X132.229 Y118.477 E7.32458
G1 X131.73 Y119.176 E7.34343
G1 X131.566 Y119.387 E7.3493
G1 X131.023 Y120.031 E7.36779
G1 X130.793 Y120.283 E7.37528
G1 X130.279 Y120.808 E7.39141
G1 X130.081 Y120.997 E7.39741
G1 X129.628 Y121.406 E7.41081
G1 X129.407 Y121.594 E7.41718
G1 X128.896 Y122.002 E7.43153
G1 X128.724 Y122.131 E7.43625
G1 X128.303 Y122.431 E7.4476
G1 X128.105 Y122.565 E7.45285
G1 X127.127 Y123.153 E7.4779
G1 X126.507 Y123.482 E7.49331
G1 X125.673 Y123.879 E7.51358
G1 X124.892 Y124.175 E7.53192
G1 X124.62 Y124.266 E7.53821
G1 X123.92 Y124.474 E7.55425
G1 X123.67 Y124.539 E7.55992
G1 X122.685 Y124.746 E7.58201
G1 X122.257 Y124.815 E7.59153
G1 X121.398 Y124.918 E7.61052
G1 X121.005 Y124.949 E7.61917
G1 X119.787 Y124.975 E7.64592
G1 X119.17 Y124.953 E7.65947
G1 X118.369 Y124.894 E7.6771
G1 X117.451 Y124.792 E7.69737
G1 X114.861 Y124.541 E7.7545
G1 X112.315 Y124.365 E7.81052
G1 X109.8 Y124.263 E7.86577
G1 X107.299 Y124.233 E7.92068
G1 X104.721 Y124.275 E7.97728
G1 X102.195 Y124.388 E8.03278
G1 X101.956 Y124.403 E8.03804
G1 X101.884 Y124.407 E8.03962
G1 X101.031 Y124.456 E8.05838
G1 X100.662 Y124.471 E8.06648
G1 X100.133 Y124.483 E8.0781
G1 X98.853 Y124.435 E8.10622
G1 X98.383 Y124.389 E8.11658
G1 X97.064 Y124.176 E8.14591
G1 X96.667 Y124.086 E8.15485
G1 X95.951 Y123.898 E8.1711
G1 X95.755 Y123.839 E8.17559
G1 X95.129 Y123.629 E8.19009
G1 X94.802 Y123.508 E8.19774
G1 X93.95 Y123.15 E8.21803
G1 X93.39 Y122.865 E8.23182
G1 X92.991 Y122.647 E8.2418
G1 X92.361 Y122.274 E8.25787
G1 X92.07 Y122.088 E8.26546
G1 X90.974 Y121.284 E8.29529
G1 X90.663 Y121.024 E8.30419
G1 X89.794 Y120.212 E8.3303
G1 X89.426 Y119.827 E8.34199
G1 X88.619 Y118.877 E8.36935
G1 X88.463 Y118.67 E8.37504
G1 X87.801 Y117.681 E8.40117
G1 X87.536 Y117.233 E8.41259
G1 X87.042 Y116.295 E8.43587
G1 X86.951 Y116.099 E8.44061
G1 X86.542 Y115.085 E8.46461
G1 X86.472 Y114.882 E8.46932
G1 X86.281 Y114.268 E8.48344
G1 X86.157 Y113.823 E8.49358
G1 X85.948 Y112.924 E8.51384
G1 X85.871 Y112.452 E8.52434
G1 X85.811 Y112.027 E8.53376
G1 X85.707 Y110.714 E8.56267
G1 X85.701 Y110.353 E8.5706
G1 X85.715 Y109.614 E8.58683
G1 X85.73 Y109.33 E8.59307
G1 X85.81 Y108.471 E8.61201
G1 X85.856 Y108.129 E8.61958
G1 X86.011 Y107.257 E8.63902
G1 X86.137 Y106.685 E8.65188
G1 X86.374 Y105.793 E8.67214
G1 X86.697 Y104.903 E8.69293
G1 X86.872 Y104.48 E8.70297
G1 X87.187 Y103.788 E8.71966
G1 X87.289 Y103.584 E8.72467
G1 X87.657 Y102.911 E8.74151
G1 X87.784 Y102.697 E8.74697
