;FLAVOR:Marlin
;TIME:2650
;Filament used: 0.496578m
;Layer height: 0.12
;MINX:80.053
;MINY:84.096
;MINZ:0.12
;MAXX:140.221
;MAXY:136.121
;MAXZ:4.92
;Generated with Cura_SteamEngine 4.2.1
M140 S50
M105
M190 S50
M104 S200
M105
M109 S200
M82 ;absolute extrusion mode
M201 X500.00 Y500.00 Z100.00 E5000.00 ;Setup machine max acceleration
M203 X500.00 Y500.00 Z10.00 E50.00 ;Setup machine max feedrate
M204 P500.00 R1000.00 T500.00 ;Setup Print/Retract/Travel acceleration
M205 X8.00 Y8.00 Z0.40 E5.00 ;Setup Jerk
M220 S100 ;Reset Feedrate
M221 S100 ;Reset Flowrate

G28 ;Home

G92 E0 ;Reset Extruder
G1 Z2.0 F3000 ;Move Z Axis up
G1 X10.1 Y20 Z0.28 F5000.0 ;Move to start position
G1 X10.1 Y200.0 Z0.28 F1500.0 E15 ;Draw the first line
G1 X10.4 Y200.0 Z0.28 F5000.0 ;Move to side a little
G1 X10.4 Y20 Z0.28 F1500.0 E30 ;Draw the second line
G92 E0 ;Reset Extruder
G1 Z2.0 F3000 ;Move Z Axis up

M141 S28
G92 E0
G92 E0
G1 F2700 E-5
;LAYER_COUNT:41
;LAYER:0
M107
G0 F6000 X85.155 Y95.375 Z0.12
;TYPE:SKIRT
G1 F2700 E0
G1 F1200 X85.616 Y94.963 E0.01234
G1 X85.844 Y94.77 E0.0183
G1 X86.351 Y94.365 E0.03125
G1 X86.513 Y94.243 E0.0353
G1 X87.067 Y93.851 E0.04884
G1 X87.293 Y93.701 E0.05425
G1 X87.758 Y93.408 E0.06522
G1 X88.033 Y93.244 E0.07161
G1 X89.026 Y92.716 E0.09405
G1 X89.405 Y92.538 E0.10241
G1 X90.214 Y92.196 E0.11994
G1 X90.486 Y92.093 E0.12574
G1 X90.687 Y92.019 E0.13002
G1 X93.182 Y91.127 E0.18289
G1 X95.546 Y90.207 E0.23352
G1 X97.833 Y89.242 E0.28305
G1 X100.126 Y88.195 E0.33336
G1 X102.383 Y87.088 E0.38352
G1 X104.414 Y86.023 E0.42929
G1 X104.745 Y85.857 E0.43668
G1 X105.289 Y85.594 E0.44874
G1 X106.317 Y85.157 E0.47103
G1 X106.744 Y85 E0.48011
G1 X107.993 Y84.621 E0.50615
G1 X108.513 Y84.495 E0.51683
G1 X109.903 Y84.248 E0.545
G1 X110.454 Y84.185 E0.55607
G1 X111.273 Y84.121 E0.57247
G1 X111.584 Y84.108 E0.57868
G1 X111.903 Y84.099 E0.58505
G1 X112.121 Y84.096 E0.5894
G1 X113.124 Y84.126 E0.60942
G1 X113.608 Y84.162 E0.61911
G1 X114.65 Y84.288 E0.64005
G1 X115.043 Y84.354 E0.64801
G1 X116.026 Y84.564 E0.66807
G1 X116.491 Y84.685 E0.67765
G1 X117.404 Y84.964 E0.69671
G1 X118.051 Y85.214 E0.71055
G1 X118.748 Y85.508 E0.72564
G1 X119.86 Y86.05 E0.75033
G1 X120.126 Y86.198 E0.7564
G1 X120.892 Y86.665 E0.77431
G1 X122.082 Y87.456 E0.80282
G1 X123.177 Y88.178 E0.829
G1 X125.32 Y89.521 E0.87947
G1 X127.455 Y90.776 E0.92889
G1 X130.835 Y92.609 E1.00562
G1 X131.575 Y92.99 E1.02223
G1 X132.113 Y93.286 E1.03449
G1 X132.506 Y93.516 E1.04357
G1 X133.481 Y94.156 E1.06685
G1 X133.828 Y94.41 E1.07543
G1 X134.409 Y94.864 E1.09014
G1 X134.574 Y95.002 E1.09444
G1 X135.331 Y95.696 E1.11493
G1 X135.719 Y96.085 E1.1259
G1 X136.511 Y96.966 E1.14954
G1 X136.744 Y97.254 E1.15693
G1 X137.315 Y98.023 E1.17604
G1 X137.602 Y98.446 E1.18624
G1 X138.169 Y99.375 E1.20796
G1 X138.343 Y99.693 E1.2152
G1 X138.801 Y100.63 E1.23601
G1 X138.997 Y101.082 E1.24584
G1 X139.266 Y101.762 E1.26044
G1 X139.335 Y101.954 E1.26451
G1 X139.533 Y102.556 E1.27715
G1 X139.6 Y102.781 E1.28184
G1 X139.777 Y103.449 E1.29563
G1 X139.848 Y103.754 E1.30188
G1 X139.998 Y104.515 E1.31736
G1 X140.063 Y104.916 E1.32546
G1 X140.19 Y106.06 E1.34843
G1 X140.221 Y106.579 E1.35881
G1 X140.219 Y107.96 E1.38637
G1 X140.181 Y108.577 E1.39871
G1 X140.005 Y109.992 E1.42716
G1 X139.886 Y110.622 E1.43996
G1 X139.669 Y111.553 E1.45903
G1 X139.593 Y111.827 E1.46471
G1 X139.153 Y113.111 E1.49179
G1 X139.038 Y113.391 E1.49783
G1 X138.667 Y114.203 E1.51565
G1 X138.482 Y114.569 E1.52383
G1 X138.009 Y115.414 E1.54316
G1 X137.809 Y115.738 E1.55076
G1 X137.361 Y116.409 E1.56686
G1 X137.148 Y116.705 E1.57414
G1 X136.709 Y117.276 E1.58851
G1 X136.572 Y117.443 E1.59282
G1 X136.127 Y117.954 E1.60634
G1 X135.856 Y118.247 E1.61431
G1 X135.052 Y119.034 E1.63676
G1 X134.618 Y119.419 E1.64834
G1 X133.885 Y120.017 E1.66721
G1 X133.698 Y120.157 E1.67188
G1 X133.139 Y120.55 E1.68551
G1 X132.834 Y120.751 E1.6928
G1 X132.176 Y121.153 E1.70819
G1 X131.888 Y121.316 E1.71479
G1 X131.21 Y121.67 E1.73006
G1 X130.979 Y121.781 E1.73517
G1 X130.611 Y121.95 E1.74325
G1 X130.275 Y122.097 E1.75057
G1 X130.113 Y122.167 E1.75409
G1 X128.271 Y122.939 E1.79395
G1 X125.994 Y123.97 E1.84383
G1 X123.707 Y125.085 E1.89461
G1 X121.532 Y126.223 E1.94359
G1 X119.318 Y127.462 E1.99422
G1 X117.187 Y128.734 E2.04375
G1 X115.045 Y130.097 E2.09442
G1 X112.979 Y131.496 E2.14421
G1 X111.804 Y132.329 E2.17295
G1 X110.279 Y133.429 E2.21048
G1 X109.482 Y133.954 E2.22952
G1 X109.051 Y134.201 E2.23943
G1 X108.854 Y134.308 E2.24391
G1 X107.985 Y134.733 E2.26321
G1 X107.8 Y134.814 E2.26724
G1 X107.286 Y135.024 E2.27832
G1 X107.076 Y135.104 E2.28281
G1 X106.468 Y135.316 E2.29566
G1 X106.194 Y135.403 E2.3014
G1 X105.528 Y135.593 E2.31522
G1 X105.25 Y135.663 E2.32094
G1 X104.809 Y135.765 E2.32997
G1 X104.59 Y135.811 E2.33444
G1 X103.803 Y135.947 E2.35037
G1 X103.52 Y135.986 E2.35608
G1 X102.717 Y136.068 E2.37218
G1 X102.309 Y136.095 E2.38034
G1 X101.59 Y136.12 E2.3947
G1 X101.252 Y136.121 E2.40145
G1 X99.951 Y136.05 E2.42745
G1 X99.352 Y135.983 E2.43948
G1 X98.103 Y135.773 E2.46475
G1 X97.661 Y135.673 E2.47379
G1 X96.69 Y135.408 E2.49388
G1 X96.332 Y135.293 E2.50138
G1 X95.6 Y135.03 E2.51691
G1 X95.359 Y134.934 E2.52208
G1 X94.419 Y134.509 E2.54267
G1 X93.954 Y134.273 E2.55308
G1 X93.431 Y133.99 E2.56494
G1 X93.224 Y133.871 E2.56971
G1 X92.437 Y133.375 E2.58827
G1 X92.244 Y133.242 E2.59295
G1 X91.345 Y132.554 E2.61554
G1 X90.894 Y132.172 E2.62734
G1 X89.965 Y131.291 E2.65289
G1 X89.688 Y130.997 E2.66095
G1 X89.042 Y130.249 E2.68067
G1 X88.74 Y129.867 E2.69039
G1 X88.18 Y129.094 E2.70944
G1 X87.787 Y128.457 E2.72437
G1 X87.501 Y127.957 E2.73587
G1 X87.031 Y127.042 E2.7564
G1 X86.863 Y126.675 E2.76445
G1 X86.581 Y126.001 E2.77903
G1 X86.503 Y125.797 E2.78339
G1 X86.373 Y125.441 E2.79095
G1 X86.312 Y125.264 E2.79469
G1 X85.424 Y122.807 E2.84683
G1 X84.516 Y120.497 E2.89636
G1 X83.527 Y118.181 E2.94661
G1 X82.477 Y115.898 E2.99676
G1 X81.634 Y114.18 E3.03495
G1 X81.276 Y113.372 E3.05259
G1 X81.074 Y112.864 E3.0635
G1 X80.74 Y111.903 E3.0838
G1 X80.679 Y111.698 E3.08807
G1 X80.53 Y111.144 E3.09952
G1 X80.465 Y110.877 E3.105
G1 X80.268 Y109.876 E3.12536
G1 X80.231 Y109.63 E3.13032
G1 X80.18 Y109.247 E3.13803
G1 X80.135 Y108.859 E3.14583
G1 X80.06 Y107.719 E3.16863
G1 X80.053 Y107.259 E3.17781
G1 X80.089 Y106.172 E3.19951
G1 X80.131 Y105.65 E3.20996
G1 X80.274 Y104.547 E3.23216
G1 X80.354 Y104.102 E3.24118
G1 X80.564 Y103.162 E3.2604
G1 X80.669 Y102.771 E3.26848
G1 X80.936 Y101.914 E3.2864
G1 X81.089 Y101.483 E3.29552
G1 X81.471 Y100.542 E3.31579
G1 X81.622 Y100.213 E3.32301
G1 X82.016 Y99.435 E3.34042
G1 X82.177 Y99.145 E3.34704
G1 X82.613 Y98.424 E3.36385
G1 X82.8 Y98.139 E3.37065
G1 X83.309 Y97.424 E3.38817
G1 X83.516 Y97.156 E3.39493
G1 X84.082 Y96.48 E3.41252
G1 X84.346 Y96.188 E3.42038
G1 X84.976 Y95.544 E3.43836
G1 X85.155 Y95.375 E3.44327
G0 F6000 X85.429 Y95.666
G1 F1200 X85.874 Y95.268 E3.45518
G1 X86.102 Y95.075 E3.46114
G1 X86.592 Y94.684 E3.47365
G1 X86.754 Y94.562 E3.4777
G1 X87.288 Y94.184 E3.49076
G1 X87.514 Y94.034 E3.49617
G1 X87.963 Y93.751 E3.50676
G1 X88.238 Y93.587 E3.51315
G1 X89.196 Y93.078 E3.5348
G1 X89.575 Y92.9 E3.54316
G1 X90.356 Y92.57 E3.56008
G1 X90.628 Y92.467 E3.56588
G1 X90.821 Y92.396 E3.56998
G1 X93.325 Y91.501 E3.62305
G1 X95.681 Y90.584 E3.6735
G1 X98.005 Y89.603 E3.72384
G1 X100.289 Y88.56 E3.77395
G1 X102.596 Y87.429 E3.82522
G1 X104.6 Y86.378 E3.87038
G1 X104.919 Y86.217 E3.87751
G1 X105.463 Y85.954 E3.88957
G1 X106.455 Y85.533 E3.91108
G1 X106.882 Y85.376 E3.92016
G1 X108.088 Y85.009 E3.94531
G1 X108.608 Y84.883 E3.95599
G1 X109.948 Y84.645 E3.98315
G1 X110.499 Y84.582 E3.99422
G1 X111.29 Y84.521 E4.01005
G1 X111.601 Y84.508 E4.01626
G1 X111.909 Y84.499 E4.02241
G1 X112.127 Y84.496 E4.02676
G1 X113.094 Y84.525 E4.04607
G1 X113.578 Y84.561 E4.05575
G1 X114.584 Y84.683 E4.07597
G1 X114.977 Y84.749 E4.08393
G1 X115.925 Y84.952 E4.10327
G1 X116.39 Y85.073 E4.11286
G1 X117.287 Y85.347 E4.13158
G1 X117.895 Y85.583 E4.1446
G1 X118.592 Y85.877 E4.15969
G1 X119.665 Y86.4 E4.18351
G1 X119.931 Y86.548 E4.18959
G1 X120.671 Y86.998 E4.20687
G1 X121.896 Y87.812 E4.23622
G1 X122.957 Y88.512 E4.26159
G1 X125.126 Y89.871 E4.31267
G1 X127.251 Y91.121 E4.36187
G1 X130.66 Y92.969 E4.43925
G1 X131.392 Y93.346 E4.45568
G1 X131.911 Y93.631 E4.4675
G1 X132.304 Y93.861 E4.47659
G1 X133.245 Y94.479 E4.49905
G1 X133.592 Y94.733 E4.50763
G1 X134.152 Y95.171 E4.52182
G1 X134.317 Y95.309 E4.52611
G1 X135.048 Y95.979 E4.5459
G1 X135.436 Y96.368 E4.55687
G1 X136.2 Y97.217 E4.57966
G1 X136.433 Y97.505 E4.58705
G1 X136.984 Y98.248 E4.60551
G1 X137.271 Y98.671 E4.61571
G1 X137.818 Y99.567 E4.63666
G1 X137.992 Y99.885 E4.6439
G1 X138.434 Y100.789 E4.66398
G1 X138.63 Y101.241 E4.67381
G1 X138.89 Y101.897 E4.68789
G1 X138.959 Y102.089 E4.69196
G1 X139.15 Y102.67 E4.70417
G1 X139.217 Y102.895 E4.70885
G1 X139.388 Y103.54 E4.72217
G1 X139.459 Y103.845 E4.72842
G1 X139.603 Y104.579 E4.74334
G1 X139.668 Y104.98 E4.75145
G1 X139.79 Y106.084 E4.77362
G1 X139.821 Y106.603 E4.78399
G1 X139.82 Y107.935 E4.81057
G1 X139.782 Y108.552 E4.82291
G1 X139.612 Y109.918 E4.85038
G1 X139.493 Y110.548 E4.86318
G1 X139.284 Y111.446 E4.88157
G1 X139.208 Y111.72 E4.88725
G1 X138.783 Y112.959 E4.91339
G1 X138.668 Y113.239 E4.91943
G1 X138.31 Y114.022 E4.93661
G1 X138.125 Y114.388 E4.94479
G1 X137.668 Y115.204 E4.96346
G1 X137.468 Y115.528 E4.97106
G1 X137.037 Y116.175 E4.98657
G1 X136.824 Y116.471 E4.99385
G1 X136.399 Y117.023 E5.00775
G1 X136.262 Y117.19 E5.01206
G1 X135.833 Y117.682 E5.02509
G1 X135.562 Y117.975 E5.03305
G1 X134.787 Y118.735 E5.05471
G1 X134.353 Y119.12 E5.06629
G1 X133.645 Y119.697 E5.08452
G1 X133.458 Y119.837 E5.08918
G1 X132.919 Y120.216 E5.10233
G1 X132.614 Y120.417 E5.10962
G1 X131.979 Y120.805 E5.12447
G1 X131.691 Y120.968 E5.13107
G1 X131.037 Y121.31 E5.1458
G1 X130.806 Y121.421 E5.15092
G1 X130.451 Y121.584 E5.15871
G1 X130.115 Y121.731 E5.16603
G1 X129.958 Y121.798 E5.16944
G1 X128.1 Y122.577 E5.20964
G1 X125.833 Y123.604 E5.25931
G1 X123.554 Y124.714 E5.3099
G1 X121.331 Y125.877 E5.35996
G1 X119.123 Y127.112 E5.41045
G1 X116.948 Y128.411 E5.46101
G1 X114.853 Y129.745 E5.51057
G1 X112.734 Y131.179 E5.56163
G1 X111.541 Y132.025 E5.59082
G1 X110.045 Y133.104 E5.62763
G1 X108.86 Y133.849 E5.65556
G1 X108.663 Y133.956 E5.66003
G1 X107.825 Y134.366 E5.67865
G1 X107.64 Y134.447 E5.68268
G1 X107.144 Y134.65 E5.69338
G1 X106.934 Y134.73 E5.69786
G1 X106.347 Y134.935 E5.71027
G1 X106.073 Y135.022 E5.71601
G1 X105.43 Y135.205 E5.72935
G1 X105.152 Y135.275 E5.73507
G1 X104.727 Y135.373 E5.74377
G1 X104.508 Y135.419 E5.74824
G1 X103.749 Y135.551 E5.76361
G1 X103.466 Y135.59 E5.76931
G1 X102.69 Y135.669 E5.78488
G1 X102.282 Y135.696 E5.79304
G1 X101.589 Y135.72 E5.80688
G1 X101.251 Y135.721 E5.81362
G1 X99.995 Y135.653 E5.83872
G1 X99.396 Y135.586 E5.85075
G1 X98.192 Y135.383 E5.87512
G1 X97.75 Y135.283 E5.88416
G1 X96.813 Y135.027 E5.90355
G1 X96.455 Y134.912 E5.91105
G1 X95.748 Y134.658 E5.92604
G1 X95.507 Y134.562 E5.93122
G1 X94.6 Y134.152 E5.95108
G1 X94.135 Y133.916 E5.96149
G1 X93.631 Y133.643 E5.97293
G1 X93.424 Y133.524 E5.97769
G1 X92.664 Y133.046 E5.99561
G1 X92.471 Y132.913 E6.00029
G1 X91.603 Y132.249 E6.0221
G1 X91.152 Y131.867 E6.03389
G1 X90.256 Y131.016 E6.05855
G1 X89.979 Y130.722 E6.06661
G1 X89.356 Y130.001 E6.08563
G1 X89.054 Y129.619 E6.09534
G1 X88.504 Y128.859 E6.11407
G1 X88.135 Y128.259 E6.12812
G1 X87.849 Y127.759 E6.13962
G1 X87.395 Y126.876 E6.15943
G1 X87.227 Y126.509 E6.16749
G1 X86.954 Y125.859 E6.18156
G1 X86.876 Y125.655 E6.18591
G1 X86.751 Y125.311 E6.19322
G1 X86.687 Y125.124 E6.19716
G1 X85.801 Y122.673 E6.24917
G1 X84.88 Y120.33 E6.29941
G1 X83.9 Y118.036 E6.34919
G1 X82.833 Y115.717 E6.40014
G1 X81.993 Y114.004 E6.43821
G1 X81.647 Y113.224 E6.45524
G1 X81.445 Y112.716 E6.46615
G1 X81.124 Y111.789 E6.48572
G1 X81.063 Y111.584 E6.48999
G1 X80.918 Y111.049 E6.50105
G1 X80.853 Y110.782 E6.50654
G1 X80.663 Y109.816 E6.52619
G1 X80.626 Y109.57 E6.53115
G1 X80.577 Y109.201 E6.53858
G1 X80.532 Y108.813 E6.54637
G1 X80.46 Y107.713 E6.56837
G1 X80.453 Y107.253 E6.57755
G1 X80.487 Y106.204 E6.5985
G1 X80.529 Y105.682 E6.60895
G1 X80.668 Y104.618 E6.63036
G1 X80.748 Y104.173 E6.63938
G1 X80.95 Y103.266 E6.65793
G1 X81.055 Y102.875 E6.66601
G1 X81.313 Y102.048 E6.6833
G1 X81.466 Y101.617 E6.69242
G1 X81.835 Y100.709 E6.71198
G1 X81.986 Y100.38 E6.71921
G1 X82.366 Y99.629 E6.736
G1 X82.527 Y99.339 E6.74262
G1 X82.947 Y98.643 E6.75884
G1 X83.134 Y98.358 E6.76565
G1 X83.625 Y97.669 E6.78253
G1 X83.832 Y97.401 E6.78929
G1 X84.378 Y96.748 E6.80627
G1 X84.642 Y96.456 E6.81413
G1 X85.25 Y95.835 E6.83147
G1 X85.429 Y95.666 E6.83639
G0 F6000 X85.704 Y95.956
G1 F1200 X86.132 Y95.573 E6.84785
G1 X86.36 Y95.38 E6.85381
G1 X86.832 Y95.004 E6.86585
G1 X86.994 Y94.882 E6.8699
G1 X87.509 Y94.517 E6.8825
G1 X87.735 Y94.367 E6.88791
G1 X88.168 Y94.095 E6.89811
G1 X88.443 Y93.931 E6.9045
G1 X89.366 Y93.44 E6.92537
G1 X89.745 Y93.262 E6.93372
G1 X90.497 Y92.944 E6.95002
G1 X90.769 Y92.841 E6.95582
G1 X90.956 Y92.772 E6.9598
G1 X93.488 Y91.867 E7.01346
G1 X95.845 Y90.95 E7.06393
G1 X98.148 Y89.977 E7.11382
G1 X100.471 Y88.917 E7.16478
G1 X102.749 Y87.8 E7.21541
G1 X104.785 Y86.732 E7.26129
G1 X105.093 Y86.577 E7.26817
G1 X105.637 Y86.314 E7.28023
G1 X106.593 Y85.908 E7.30096
G1 X107.02 Y85.751 E7.31003
G1 X108.182 Y85.398 E7.33427
G1 X108.702 Y85.272 E7.34495
G1 X109.994 Y85.043 E7.37113
G1 X110.545 Y84.98 E7.3822
G1 X111.306 Y84.92 E7.39743
G1 X111.617 Y84.907 E7.40365
G1 X111.914 Y84.899 E7.40957
G1 X112.132 Y84.896 E7.41393
G1 X113.064 Y84.924 E7.43253
G1 X113.548 Y84.96 E7.44222
G1 X114.518 Y85.077 E7.46172
G1 X114.911 Y85.143 E7.46967
G1 X115.824 Y85.339 E7.4883
G1 X116.289 Y85.46 E7.49789
G1 X117.169 Y85.73 E7.51626
G1 X117.74 Y85.951 E7.52848
G1 X118.437 Y86.245 E7.54358
G1 X119.471 Y86.749 E7.56653
G1 X119.737 Y86.897 E7.57261
G1 X120.45 Y87.331 E7.58926
G1 X121.675 Y88.145 E7.61862
G1 X121.675 Y88.146 E7.61864
G1 X122.755 Y88.858 E7.64445
G1 X124.89 Y90.196 E7.69473
G1 X127.059 Y91.471 E7.74494
G1 X130.465 Y93.318 E7.82226
G1 X131.209 Y93.701 E7.83896
G1 X131.709 Y93.977 E7.85036
G1 X132.102 Y94.207 E7.85945
G1 X133.009 Y94.802 E7.88109
G1 X133.356 Y95.056 E7.88967
G1 X133.895 Y95.478 E7.90334
G1 X134.06 Y95.616 E7.90763
G1 X134.765 Y96.261 E7.9267
G1 X135.153 Y96.65 E7.93766
G1 X135.889 Y97.469 E7.95963
G1 X136.122 Y97.757 E7.96703
G1 X136.653 Y98.473 E7.98482
G1 X136.94 Y98.896 E7.99502
G1 X137.467 Y99.759 E8.0152
G1 X137.641 Y100.077 E8.02243
G1 X138.067 Y100.948 E8.04178
G1 X138.263 Y101.4 E8.05161
G1 X138.513 Y102.032 E8.06518
G1 X138.582 Y102.224 E8.06925
G1 X138.766 Y102.784 E8.08101
G1 X138.833 Y103.009 E8.08569
G1 X138.998 Y103.631 E8.09854
G1 X139.069 Y103.936 E8.10479
G1 X139.208 Y104.643 E8.11917
G1 X139.273 Y105.044 E8.12727
G1 X139.391 Y106.108 E8.14864
G1 X139.422 Y106.627 E8.15901
G1 X139.421 Y107.911 E8.18463
G1 X139.383 Y108.528 E8.19697
G1 X139.219 Y109.843 E8.22342
G1 X139.1 Y110.473 E8.23621
G1 X138.898 Y111.339 E8.25396
G1 X138.822 Y111.613 E8.25963
G1 X138.413 Y112.807 E8.28482
G1 X138.298 Y113.087 E8.29086
G1 X137.953 Y113.842 E8.30742
G1 X137.768 Y114.208 E8.31561
G1 X137.328 Y114.994 E8.33358
G1 X137.128 Y115.318 E8.34118
G1 X136.712 Y115.941 E8.35613
G1 X136.499 Y116.237 E8.36341
G1 X136.09 Y116.769 E8.3768
G1 X135.953 Y116.936 E8.38111
G1 X135.54 Y117.41 E8.39366
G1 X135.269 Y117.703 E8.40162
G1 X134.521 Y118.436 E8.42252
G1 X134.087 Y118.821 E8.4341
