;FLAVOR:Marlin
;TIME:1876
;Filament used: 0.840213m
;Layer height: 0.2
;MINX:89.96
;MINY:79.629
;MINZ:0.2
;MAXX:130.04
;MAXY:143.203
;MAXZ:10
;Generated with Cura_SteamEngine 4.2.1
M140 S50
M105
M190 S50
M104 S200
M105
M109 S200
M82 ;absolute extrusion mode
M201 X500.00 Y500.00 Z100.00 E5000.00 ;Setup machine max acceleration
M203 X500.00 Y500.00 Z10.00 E50.00 ;Setup machine max feedrate
M204 P500.00 R1000.00 T500.00 ;Setup Print/Retract/Travel acceleration
M205 X8.00 Y8.00 Z0.40 E5.00 ;Setup Jerk
M220 S100 ;Reset Feedrate
M221 S100 ;Reset Flowrate

G28 ;Home

G92 E0 ;Reset Extruder
G1 Z2.0 F3000 ;Move Z Axis up
G1 X10.1 Y20 Z0.28 F5000.0 ;Move to start position
G1 X10.1 Y200.0 Z0.28 F1500.0 E15 ;Draw the first line
G1 X10.4 Y200.0 Z0.28 F5000.0 ;Move to side a little
G1 X10.4 Y20 Z0.28 F1500.0 E30 ;Draw the second line
G92 E0 ;Reset Extruder
G1 Z2.0 F3000 ;Move Z Axis up

M141 S28
G92 E0
G92 E0
G1 F2700 E-5
;LAYER_COUNT:50
;LAYER:0
M107
G0 F6000 X93.186 Y86.183 Z0.2
;TYPE:SKIRT
G1 F2700 E0
G1 F1200 X93.598 Y85.754 E0.02176
G1 X93.763 Y85.585 E0.0304
G1 X95.861 Y83.488 E0.13893
G1 X95.98 Y83.37 E0.14506
G1 X96.461 Y82.903 E0.16959
G1 X97.178 Y82.263 E0.20475
G1 X97.945 Y81.685 E0.23989
G1 X98.758 Y81.173 E0.27504
G1 X99.61 Y80.73 E0.31017
G1 X100.496 Y80.36 E0.3453
G1 X101.41 Y80.064 E0.38045
G1 X102.346 Y79.846 E0.41561
G1 X103.296 Y79.706 E0.45074
G1 X104.213 Y79.647 E0.48436
G1 X104.775 Y79.633 E0.50493
G1 X105.062 Y79.629 E0.51543
G1 X114.793 Y79.629 E0.87145
G1 X114.958 Y79.63 E0.87749
G1 X115.656 Y79.64 E0.90303
G1 X116.615 Y79.694 E0.93817
G1 X117.567 Y79.827 E0.97334
G1 X118.504 Y80.039 E1.00849
G1 X119.42 Y80.328 E1.04363
G1 X120.309 Y80.693 E1.07879
G1 X121.164 Y81.13 E1.11392
G1 X121.98 Y81.636 E1.14905
G1 X122.751 Y82.209 E1.18419
G1 X123.398 Y82.773 E1.21559
G1 X123.718 Y83.074 E1.23167
G1 X123.971 Y83.32 E1.24458
G1 X126.179 Y85.528 E1.35882
G1 X126.284 Y85.634 E1.36428
G1 X126.742 Y86.104 E1.38829
G1 X127.383 Y86.819 E1.42342
G1 X127.963 Y87.586 E1.4586
G1 X128.476 Y88.397 E1.49371
G1 X128.921 Y89.249 E1.52888
G1 X129.293 Y90.135 E1.56403
G1 X129.59 Y91.048 E1.59916
G1 X129.81 Y91.983 E1.6343
G1 X129.952 Y92.933 E1.66945
G1 X130.008 Y93.695 E1.6974
G1 X130.031 Y94.268 E1.71838
G1 X130.04 Y94.731 E1.73532
G1 X130.04 Y99.962 E1.92671
G1 X130.039 Y100.13 E1.93285
G1 X130.029 Y100.818 E1.95803
G1 X130.02 Y101.128 E1.96937
G1 X130.012 Y101.316 E1.97626
G1 X129.94 Y103.867 E2.06963
G1 X129.94 Y106.42 E2.16303
G1 X129.989 Y108.375 E2.23458
G1 X130.028 Y109.467 E2.27456
G1 X130.035 Y109.766 E2.2855
G1 X130.039 Y110.16 E2.29991
G1 X130.04 Y110.277 E2.30419
G1 X130.04 Y115.508 E2.49558
G1 X130.039 Y115.671 E2.50154
G1 X130.016 Y117.3 E2.56114
G1 X130.012 Y117.472 E2.56744
G1 X129.993 Y118.13 E2.59152
G1 X129.991 Y120.671 E2.68449
G1 X130.009 Y121.394 E2.71095
G1 X130.012 Y121.531 E2.71596
G1 X130.024 Y122.462 E2.75003
G1 X130.025 Y122.583 E2.75445
G1 X130.038 Y127.964 E2.95132
G1 X130.037 Y128.114 E2.95681
G1 X130.03 Y128.778 E2.98111
G1 X129.98 Y129.737 E3.01624
G1 X129.851 Y130.689 E3.05139
G1 X129.642 Y131.627 E3.08655
G1 X129.356 Y132.544 E3.12169
G1 X128.995 Y133.434 E3.15683
G1 X128.562 Y134.291 E3.19196
G1 X128.058 Y135.109 E3.22711
G1 X127.488 Y135.882 E3.26225
G1 X126.814 Y136.649 E3.29961
G1 X126.402 Y137.078 E3.32137
G1 X126.237 Y137.247 E3.33001
G1 X124.147 Y139.336 E3.43812
G1 X124.037 Y139.444 E3.44376
G1 X123.553 Y139.915 E3.46847
G1 X122.837 Y140.556 E3.50363
G1 X122.071 Y141.135 E3.53876
G1 X121.259 Y141.648 E3.5739
G1 X120.407 Y142.092 E3.60905
G1 X119.521 Y142.464 E3.64421
G1 X118.607 Y142.76 E3.67936
G1 X117.672 Y142.98 E3.7145
G1 X116.722 Y143.121 E3.74964
G1 X115.871 Y143.179 E3.78084
G1 X115.304 Y143.197 E3.8016
G1 X114.938 Y143.203 E3.81499
G1 X105.207 Y143.203 E4.17101
G1 X105.042 Y143.202 E4.17705
G1 X104.344 Y143.192 E4.20259
G1 X103.385 Y143.138 E4.23773
G1 X102.433 Y143.005 E4.2729
G1 X101.496 Y142.793 E4.30804
G1 X100.58 Y142.504 E4.34318
G1 X99.691 Y142.139 E4.37834
G1 X98.836 Y141.702 E4.41347
G1 X98.02 Y141.196 E4.4486
G1 X97.249 Y140.623 E4.48375
G1 X96.771 Y140.214 E4.50676
G1 X96.615 Y140.073 E4.51446
G1 X96.278 Y139.756 E4.53138
G1 X96.083 Y139.565 E4.54137
G1 X95.998 Y139.481 E4.54574
G1 X93.821 Y137.304 E4.65838
G1 X93.71 Y137.192 E4.66415
G1 X93.241 Y136.71 E4.68876
G1 X92.601 Y135.994 E4.72389
G1 X92.022 Y135.227 E4.75905
G1 X91.508 Y134.415 E4.79421
G1 X91.065 Y133.563 E4.82934
G1 X90.693 Y132.677 E4.8645
G1 X90.397 Y131.764 E4.89962
G1 X90.177 Y130.829 E4.93476
G1 X90.036 Y129.878 E4.96993
G1 X89.975 Y128.909 E5.00545
G1 X89.963 Y128.348 E5.02598
G1 X89.96 Y128.101 E5.03502
G1 X89.96 Y122.87 E5.2264
G1 X89.961 Y122.707 E5.23237
G1 X89.984 Y121.078 E5.29197
G1 X89.988 Y120.906 E5.29827
G1 X90.007 Y120.248 E5.32235
G1 X90.009 Y117.707 E5.41532
G1 X89.991 Y116.984 E5.44178
G1 X89.988 Y116.847 E5.44679
G1 X89.976 Y115.916 E5.48085
G1 X89.975 Y115.795 E5.48528
G1 X89.962 Y110.414 E5.68215
G1 X89.963 Y110.264 E5.68764
G1 X89.97 Y109.604 E5.71179
G1 X89.978 Y109.258 E5.72445
G1 X90.005 Y108.584 E5.74913
G1 X90.071 Y106.055 E5.84169
G1 X90.064 Y103.526 E5.93421
G1 X90.014 Y101.638 E6.00331
G1 X89.986 Y100.88 E6.03106
G1 X89.979 Y100.604 E6.04116
G1 X89.976 Y100.368 E6.0498
G1 X89.975 Y100.249 E6.05415
G1 X89.962 Y94.868 E6.25102
G1 X89.963 Y94.718 E6.25651
G1 X89.97 Y94.054 E6.28081
G1 X90.02 Y93.095 E6.31594
G1 X90.149 Y92.143 E6.35109
G1 X90.358 Y91.205 E6.38625
G1 X90.644 Y90.288 E6.42139
G1 X91.005 Y89.398 E6.45653
G1 X91.438 Y88.541 E6.49166
G1 X91.942 Y87.723 E6.52681
G1 X92.512 Y86.95 E6.56195
G1 X93.186 Y86.183 E6.59931
G0 F6000 X93.503 Y86.487
G1 F1200 X93.915 Y86.058 E6.62107
G1 X94.074 Y85.896 E6.62937
G1 X96.172 Y83.799 E6.7379
G1 X96.287 Y83.686 E6.7438
G1 X96.768 Y83.219 E6.76832
G1 X97.471 Y82.592 E6.80279
G1 X98.225 Y82.027 E6.83726
G1 X99.024 Y81.528 E6.87172
G1 X99.862 Y81.098 E6.90618
G1 X100.734 Y80.741 E6.94066
G1 X101.633 Y80.46 E6.97512
G1 X102.553 Y80.255 E7.0096
G1 X103.487 Y80.129 E7.04408
G1 X104.224 Y80.086 E7.07109
G1 X104.786 Y80.072 E7.09166
G1 X105.062 Y80.069 E7.10176
G1 X114.793 Y80.069 E7.45778
G1 X114.952 Y80.07 E7.4636
G1 X115.65 Y80.08 E7.48914
G1 X116.591 Y80.134 E7.52362
G1 X117.523 Y80.267 E7.55806
G1 X118.441 Y80.478 E7.59253
G1 X119.338 Y80.767 E7.627
G1 X120.207 Y81.131 E7.66147
G1 X121.042 Y81.567 E7.69594
G1 X121.837 Y82.072 E7.7304
G1 X122.587 Y82.643 E7.76488
G1 X123.096 Y83.094 E7.78976
G1 X123.416 Y83.395 E7.80584
G1 X123.66 Y83.631 E7.81826
G1 X125.868 Y85.839 E7.9325
G1 X125.969 Y85.941 E7.93775
G1 X126.427 Y86.411 E7.96176
G1 X127.055 Y87.113 E7.99622
G1 X127.621 Y87.866 E8.03069
G1 X128.122 Y88.664 E8.06516
G1 X128.553 Y89.502 E8.09964
G1 X128.912 Y90.373 E8.1341
G1 X129.195 Y91.272 E8.16858
G1 X129.401 Y92.191 E8.20304
G1 X129.529 Y93.124 E8.2375
G1 X129.568 Y93.713 E8.25909
G1 X129.591 Y94.286 E8.28007
G1 X129.6 Y94.731 E8.29636
G1 X129.6 Y99.962 E8.48774
G1 X129.599 Y100.123 E8.49363
G1 X129.589 Y100.811 E8.5188
G1 X129.58 Y101.11 E8.52975
G1 X129.576 Y101.205 E8.53323
G1 X129.5 Y103.891 E8.63154
G1 X129.5 Y106.391 E8.723
G1 X129.55 Y108.398 E8.79645
G1 X129.589 Y109.482 E8.83614
G1 X129.595 Y109.77 E8.84668
G1 X129.599 Y110.164 E8.86109
G1 X129.6 Y110.277 E8.86523
G1 X129.6 Y115.508 E9.05661
G1 X129.599 Y115.665 E9.06235
G1 X129.576 Y117.294 E9.12196
G1 X129.572 Y117.459 E9.128
G1 X129.553 Y118.116 E9.15204
G1 X129.551 Y120.643 E9.2445
G1 X129.57 Y121.405 E9.27238
G1 X129.572 Y121.537 E9.27721
G1 X129.584 Y122.468 E9.31128
G1 X129.585 Y122.584 E9.31552
G1 X129.598 Y127.965 E9.51239
G1 X129.597 Y128.109 E9.51766
G1 X129.59 Y128.773 E9.54196
G1 X129.54 Y129.714 E9.57643
G1 X129.411 Y130.647 E9.61089
G1 X129.203 Y131.566 E9.64537
G1 X128.917 Y132.464 E9.67985
G1 X128.557 Y133.334 E9.71429
G1 X128.124 Y134.171 E9.74877
G1 X127.622 Y134.968 E9.78323
G1 X127.054 Y135.719 E9.81768
G1 X126.497 Y136.345 E9.84834
G1 X126.085 Y136.774 E9.8701
G1 X125.926 Y136.936 E9.87841
G1 X123.836 Y139.025 E9.98652
G1 X123.73 Y139.129 E9.99195
G1 X123.246 Y139.6 E10.01666
G1 X122.544 Y140.228 E10.05112
G1 X121.791 Y140.794 E10.08558
G1 X120.992 Y141.294 E10.12007
G1 X120.154 Y141.724 E10.15453
G1 X119.283 Y142.082 E10.18898
G1 X118.384 Y142.365 E10.22346
G1 X117.465 Y142.571 E10.25792
G1 X116.531 Y142.697 E10.2924
G1 X115.857 Y142.739 E10.31711
G1 X115.29 Y142.757 E10.33786
G1 X114.938 Y142.763 E10.35074
G1 X105.207 Y142.763 E10.70676
G1 X105.048 Y142.762 E10.71258
G1 X104.35 Y142.752 E10.73812
G1 X103.409 Y142.698 E10.7726
G1 X102.477 Y142.565 E10.80705
G1 X101.559 Y142.354 E10.84151
G1 X100.662 Y142.065 E10.87599
G1 X99.793 Y141.701 E10.91046
G1 X98.958 Y141.265 E10.94492
G1 X98.163 Y140.76 E10.97938
G1 X97.066 Y139.888 E11.03065
G1 X96.91 Y139.747 E11.03834
G1 X96.586 Y139.442 E11.05462
G1 X96.391 Y139.251 E11.06461
G1 X96.309 Y139.17 E11.06883
G1 X94.132 Y136.993 E11.18147
G1 X94.026 Y136.885 E11.187
G1 X93.557 Y136.403 E11.21161
G1 X92.929 Y135.7 E11.2461
G1 X92.363 Y134.947 E11.28056
G1 X91.863 Y134.149 E11.31501
G1 X91.432 Y133.311 E11.34949
G1 X91.074 Y132.439 E11.38398
G1 X90.792 Y131.54 E11.41845
G1 X90.586 Y130.621 E11.4529
G1 X90.459 Y129.687 E11.48739
G1 X90.415 Y128.899 E11.51627
G1 X90.403 Y128.338 E11.5368
G1 X90.4 Y128.101 E11.54547
G1 X90.4 Y122.87 E11.73685
G1 X90.401 Y122.713 E11.74259
G1 X90.424 Y121.084 E11.8022
G1 X90.428 Y120.919 E11.80824
G1 X90.447 Y120.262 E11.83228
G1 X90.449 Y117.735 E11.92474
G1 X90.43 Y116.973 E11.95262
G1 X90.428 Y116.841 E11.95745
G1 X90.416 Y115.91 E11.99152
G1 X90.415 Y115.794 E11.99576
G1 X90.402 Y110.413 E12.19263
G1 X90.403 Y110.268 E12.19794
G1 X90.41 Y109.608 E12.22209
G1 X90.418 Y109.276 E12.23424
G1 X90.445 Y108.613 E12.25851
G1 X90.511 Y106.066 E12.35173
G1 X90.504 Y103.513 E12.44513
G1 X90.457 Y101.737 E12.51013
G1 X90.425 Y100.864 E12.5421
G1 X90.419 Y100.598 E12.55183
G1 X90.416 Y100.362 E12.56046
G1 X90.415 Y100.248 E12.56464
G1 X90.402 Y94.867 E12.76151
G1 X90.403 Y94.723 E12.76677
G1 X90.41 Y94.059 E12.79107
G1 X90.46 Y93.118 E12.82555
G1 X90.589 Y92.185 E12.86001
G1 X90.797 Y91.266 E12.89448
G1 X91.083 Y90.368 E12.92896
G1 X91.443 Y89.498 E12.96341
G1 X91.876 Y88.661 E12.99788
G1 X92.378 Y87.864 E13.03234
G1 X92.946 Y87.113 E13.06679
G1 X93.503 Y86.487 E13.09745
G0 F6000 X93.82 Y86.792
G1 F1200 X94.232 Y86.363 E13.11921
G1 X94.385 Y86.207 E13.12721
G1 X96.483 Y84.11 E13.23573
G1 X96.593 Y84.002 E13.24137
G1 X97.074 Y83.535 E13.2659
G1 X97.764 Y82.921 E13.29969
G1 X98.504 Y82.369 E13.33347
G1 X99.289 Y81.883 E13.36725
G1 X100.114 Y81.467 E13.40105
G1 X100.971 Y81.124 E13.43482
G1 X101.854 Y80.857 E13.46857
G1 X102.758 Y80.666 E13.50238
G1 X103.674 Y80.555 E13.53614
G1 X104.235 Y80.526 E13.55669
G1 X104.797 Y80.512 E13.57726
G1 X105.062 Y80.509 E13.58695
G1 X114.793 Y80.509 E13.94297
G1 X114.946 Y80.51 E13.94857
G1 X115.644 Y80.52 E13.97411
G1 X116.565 Y80.573 E14.00786
G1 X117.479 Y80.706 E14.04165
G1 X118.378 Y80.917 E14.07544
G1 X119.255 Y81.206 E14.10922
G1 X120.104 Y81.569 E14.143
G1 X120.918 Y82.004 E14.17677
G1 X121.692 Y82.508 E14.21056
G1 X122.419 Y83.077 E14.24434
G1 X122.795 Y83.414 E14.26281
G1 X123.115 Y83.715 E14.27888
G1 X123.349 Y83.942 E14.29081
G1 X125.557 Y86.15 E14.40506
G1 X125.654 Y86.248 E14.4101
G1 X126.112 Y86.718 E14.43411
G1 X126.727 Y87.407 E14.4679
G1 X127.28 Y88.146 E14.50167
G1 X127.767 Y88.93 E14.53543
G1 X128.185 Y89.754 E14.56924
G1 X128.529 Y90.61 E14.60299
G1 X128.799 Y91.493 E14.63677
G1 X128.99 Y92.396 E14.67054
G1 X129.128 Y93.73 E14.71961
G1 X129.151 Y94.303 E14.74059
G1 X129.16 Y94.731 E14.75625
G1 X129.16 Y99.962 E14.94763
G1 X129.159 Y100.117 E14.9533
G1 X129.149 Y100.805 E14.97848
G1 X129.141 Y101.092 E14.98898
G1 X129.134 Y101.254 E14.99491
G1 X129.06 Y103.879 E15.09099
G1 X129.06 Y106.402 E15.1833
G1 X129.11 Y108.425 E15.25733
G1 X129.149 Y109.498 E15.29662
G1 X129.155 Y109.775 E15.30675
G1 X129.159 Y110.169 E15.32117
G1 X129.16 Y110.277 E15.32512
G1 X129.16 Y115.508 E15.5165
G1 X129.159 Y115.658 E15.52199
G1 X129.136 Y117.287 E15.5816
G1 X129.133 Y117.447 E15.58745
G1 X129.113 Y118.139 E15.61278
G1 X129.111 Y120.653 E15.70476
G1 X129.13 Y121.416 E15.73268
G1 X129.132 Y121.543 E15.73733
G1 X129.144 Y122.474 E15.77139
G1 X129.145 Y122.585 E15.77545
G1 X129.158 Y127.966 E15.97232
G1 X129.157 Y128.104 E15.97737
G1 X129.15 Y128.768 E16.00167
G1 X129.101 Y129.69 E16.03545
G1 X128.971 Y130.604 E16.06922
G1 X128.764 Y131.504 E16.10301
G1 X128.479 Y132.382 E16.13678
G1 X128.119 Y133.232 E16.17056
G1 X127.687 Y134.048 E16.20434
G1 X127.186 Y134.824 E16.23813
G1 X126.619 Y135.553 E16.27192
G1 X126.18 Y136.04 E16.29591
G1 X125.768 Y136.469 E16.31767
G1 X125.615 Y136.625 E16.32566
G1 X123.525 Y138.714 E16.43377
G1 X123.423 Y138.814 E16.439
G1 X122.939 Y139.285 E16.46371
G1 X122.251 Y139.899 E16.49745
G1 X121.511 Y140.452 E16.53124
G1 X120.726 Y140.939 E16.56504
G1 X119.903 Y141.356 E16.5988
G1 X119.046 Y141.7 E16.63258
G1 X118.163 Y141.968 E16.66634
G1 X117.259 Y142.16 E16.70016
G1 X116.343 Y142.272 E16.73392
G1 X115.843 Y142.3 E16.75224
G1 X115.276 Y142.318 E16.773
G1 X114.938 Y142.323 E16.78536
G1 X105.207 Y142.323 E17.14138
G1 X105.054 Y142.322 E17.14698
G1 X104.356 Y142.312 E17.17252
G1 X103.435 Y142.259 E17.20627
G1 X102.521 Y142.126 E17.24006
G1 X101.622 Y141.915 E17.27385
G1 X100.745 Y141.626 E17.30763
G1 X99.896 Y141.263 E17.34141
G1 X99.082 Y140.828 E17.37518
G1 X98.308 Y140.324 E17.40897
G1 X97.361 Y139.561 E17.45347
G1 X97.205 Y139.42 E17.46116
G1 X96.894 Y139.127 E17.47679
G1 X96.699 Y138.936 E17.48678
G1 X96.62 Y138.859 E17.49081
G1 X94.443 Y136.682 E17.60345
G1 X94.341 Y136.578 E17.60878
G1 X93.872 Y136.096 E17.63339
G1 X93.257 Y135.407 E17.66718
G1 X92.705 Y134.668 E17.70092
G1 X92.218 Y133.883 E17.73472
G1 X91.801 Y133.059 E17.76851
G1 X91.457 Y132.202 E17.8023
G1 X91.188 Y131.319 E17.83607
G1 X90.997 Y130.416 E17.86984
G1 X90.885 Y129.499 E17.90363
G1 X90.854 Y128.89 E17.92594
G1 X90.842 Y128.329 E17.94647
G1 X90.84 Y128.101 E17.95482
G1 X90.84 Y122.87 E18.1462
G1 X90.841 Y122.72 E18.15169
G1 X90.864 Y121.091 E18.21129
G1 X90.867 Y120.931 E18.21715
G1 X90.887 Y120.239 E18.24247
G1 X90.889 Y117.725 E18.33445
G1 X90.87 Y116.962 E18.36238
G1 X90.868 Y116.835 E18.36702
G1 X90.856 Y115.904 E18.40109
G1 X90.855 Y115.793 E18.40515
G1 X90.842 Y110.412 E18.60202
G1 X90.843 Y110.273 E18.6071
G1 X90.85 Y109.613 E18.63125
G1 X90.858 Y109.294 E18.64293
G1 X90.884 Y108.643 E18.66676
G1 X90.951 Y106.076 E18.76071
G1 X90.944 Y103.5 E18.85496
G1 X90.897 Y101.72 E18.9201
G1 X90.865 Y100.847 E18.95207
G1 X90.859 Y100.592 E18.9614
G1 X90.856 Y100.356 E18.97003
G1 X90.855 Y100.247 E18.97402
G1 X90.842 Y94.866 E19.17089
G1 X90.843 Y94.728 E19.17594
G1 X90.85 Y94.064 E19.20024
G1 X90.899 Y93.142 E19.23402
G1 X91.029 Y92.228 E19.26779
G1 X91.236 Y91.328 E19.30158
G1 X91.521 Y90.45 E19.33535
G1 X91.881 Y89.6 E19.36912
G1 X92.313 Y88.784 E19.4029
G1 X92.814 Y88.008 E19.4367
G1 X93.381 Y87.279 E19.47049
G1 X93.82 Y86.792 E19.49447
G0 F6000 X94.138 Y87.097
G1 F1200 X94.55 Y86.668 E19.51624
G1 X94.696 Y86.519 E19.52387
G1 X96.794 Y84.422 E19.63239
G1 X96.9 Y84.317 E19.63785
G1 X97.381 Y83.85 E19.66238
G1 X98.057 Y83.25 E19.69545
G1 X98.783 Y82.712 E19.72851
G1 X99.554 Y82.24 E19.76158
G1 X100.363 Y81.838 E19.79463
G1 X101.205 Y81.509 E19.82771
G1 X102.073 Y81.255 E19.8608
G1 X102.96 Y81.08 E19.89387
G1 X104.245 Y80.966 E19.94107
G1 X104.807 Y80.952 E19.96164
G1 X105.062 Y80.949 E19.97097
G1 X114.793 Y80.949 E20.32699
G1 X114.939 Y80.95 E20.33233
G1 X115.637 Y80.96 E20.35787
G1 X116.54 Y81.013 E20.39096
