;FLAVOR:Marlin
;TIME:15372
;Filament used: 6.76644m
;Layer height: 0.12
;MINX:40.979
;MINY:67.723
;MINZ:0.12
;MAXX:179.009
;MAXY:151.003
;MAXZ:13.92
;Generated with Cura_SteamEngine 4.2.1
M140 S50
M105
M190 S50
M104 S200
M105
M109 S200
M82 ;absolute extrusion mode
M201 X500.00 Y500.00 Z100.00 E5000.00 ;Setup machine max acceleration
M203 X500.00 Y500.00 Z10.00 E50.00 ;Setup machine max feedrate
M204 P500.00 R1000.00 T500.00 ;Setup Print/Retract/Travel acceleration
M205 X8.00 Y8.00 Z0.40 E5.00 ;Setup Jerk
M220 S100 ;Reset Feedrate
M221 S100 ;Reset Flowrate

G28 ;Home

G92 E0 ;Reset Extruder
G1 Z2.0 F3000 ;Move Z Axis up
G1 X10.1 Y20 Z0.28 F5000.0 ;Move to start position
G1 X10.1 Y200.0 Z0.28 F1500.0 E15 ;Draw the first line
G1 X10.4 Y200.0 Z0.28 F5000.0 ;Move to side a little
G1 X10.4 Y20 Z0.28 F1500.0 E30 ;Draw the second line
G92 E0 ;Reset Extruder
G1 Z2.0 F3000 ;Move Z Axis up

M141 S28
G92 E0
G92 E0
G1 F2700 E-5
;LAYER_COUNT:116
;LAYER:0
M107
G0 F6000 X48.582 Y70.821 Z0.12
;TYPE:SKIRT
G1 F2700 E0
G1 F1200 X48.916 Y70.599 E0.0088
G1 X49.398 Y70.291 E0.02136
G1 X50.228 Y69.808 E0.04244
G1 X50.729 Y69.559 E0.05472
G1 X51.123 Y69.375 E0.06427
G1 X51.448 Y69.229 E0.07209
G1 X51.955 Y69.011 E0.0842
G1 X52.852 Y68.669 E0.10528
G1 X53.42 Y68.495 E0.11832
G1 X53.855 Y68.374 E0.12823
G1 X54.214 Y68.281 E0.13637
G1 X54.743 Y68.152 E0.14832
G1 X55.685 Y67.963 E0.16941
G1 X56.233 Y67.89 E0.18155
G1 X56.648 Y67.845 E0.19071
G1 X57.025 Y67.811 E0.19902
G1 X57.569 Y67.77 E0.211
G1 X58.249 Y67.739 E0.22594
G1 X58.991 Y67.727 E0.24223
G1 X59.15 Y67.725 E0.24572
G1 X59.987 Y67.723 E0.26409
G1 X160.786 Y67.723 E2.4768
G1 X160.949 Y67.724 E2.48038
G1 X161.655 Y67.734 E2.49588
G1 X162.186 Y67.754 E2.50754
G1 X162.568 Y67.777 E2.51595
G1 X162.958 Y67.807 E2.52453
G1 X163.509 Y67.859 E2.53668
G1 X164.776 Y68.05 E2.56481
G1 X165.074 Y68.112 E2.57149
G1 X165.591 Y68.232 E2.58314
G1 X166.234 Y68.397 E2.59771
G1 X167.154 Y68.674 E2.6188
G1 X167.626 Y68.85 E2.62986
G1 X167.981 Y68.991 E2.63825
G1 X168.363 Y69.151 E2.64734
G1 X168.891 Y69.383 E2.66
G1 X170.006 Y69.947 E2.68743
G1 X170.211 Y70.065 E2.69262
G1 X170.675 Y70.346 E2.70453
G1 X171.289 Y70.739 E2.72053
G1 X172.354 Y71.51 E2.74939
G1 X172.51 Y71.637 E2.75381
G1 X172.936 Y72.002 E2.76612
G1 X173.507 Y72.515 E2.78297
G1 X174.461 Y73.479 E2.81274
G1 X174.614 Y73.653 E2.81783
G1 X174.92 Y74.016 E2.82825
G1 X175.36 Y74.56 E2.84361
G1 X176.086 Y75.563 E2.87079
G1 X176.224 Y75.777 E2.87638
G1 X176.556 Y76.324 E2.89043
G1 X176.923 Y76.969 E2.90672
G1 X177.517 Y78.17 E2.93613
G1 X177.598 Y78.361 E2.94068
G1 X177.791 Y78.847 E2.95216
G1 X178.05 Y79.544 E2.96849
G1 X178.432 Y80.778 E2.99684
G1 X178.484 Y80.987 E3.00157
G1 X178.607 Y81.539 E3.01398
G1 X178.756 Y82.294 E3.03088
G1 X178.943 Y83.677 E3.06151
G1 X178.96 Y83.907 E3.06658
G1 X178.985 Y84.377 E3.07691
G1 X179.009 Y85.104 E3.09288
G1 X178.975 Y86.44 E3.12221
G1 X178.954 Y86.693 E3.12779
G1 X178.898 Y87.22 E3.13942
G1 X178.805 Y87.938 E3.15531
G1 X178.642 Y88.885 E3.17641
G1 X178.51 Y89.435 E3.18882
G1 X178.409 Y89.813 E3.19741
G1 X178.304 Y90.18 E3.20579
G1 X178.141 Y90.718 E3.21813
G1 X177.706 Y91.912 E3.24603
G1 X177.611 Y92.134 E3.25133
G1 X177.384 Y92.633 E3.26336
G1 X177.07 Y93.28 E3.27915
G1 X176.615 Y94.126 E3.30023
G1 X176.344 Y94.56 E3.31147
G1 X176.13 Y94.887 E3.32005
G1 X175.882 Y95.251 E3.32971
G1 X175.551 Y95.717 E3.34226
G1 X174.765 Y96.704 E3.36996
G1 X174.62 Y96.867 E3.37475
G1 X174.258 Y97.256 E3.38641
G1 X173.738 Y97.789 E3.40276
G1 X172.737 Y98.701 E3.43248
G1 X171.927 Y99.356 E3.45535
G1 X169.879 Y101.054 E3.51375
G1 X168.042 Y102.669 E3.56744
G1 X166.162 Y104.417 E3.6238
G1 X164.427 Y106.124 E3.67722
G1 X162.676 Y107.947 E3.73271
G1 X160.982 Y109.815 E3.78807
G1 X159.373 Y111.692 E3.84234
G1 X157.785 Y113.653 E3.89773
G1 X156.26 Y115.652 E3.95292
G1 X154.812 Y117.664 E4.00734
G1 X153.409 Y119.736 E4.06227
G1 X152.06 Y121.853 E4.11737
G1 X150.776 Y124.002 E4.17233
G1 X149.557 Y126.178 E4.22708
G1 X148.389 Y128.409 E4.28236
G1 X147.304 Y130.629 E4.3366
G1 X147.149 Y130.956 E4.34454
G1 X147.093 Y131.072 E4.34737
G1 X146.865 Y131.54 E4.3588
G1 X146.791 Y131.691 E4.36249
G1 X146.46 Y132.346 E4.3786
G1 X146.164 Y132.894 E4.39227
G1 X145.85 Y133.44 E4.4061
G1 X145.768 Y133.58 E4.40966
G1 X145.452 Y134.112 E4.42324
G1 X145.364 Y134.257 E4.42697
G1 X145.014 Y134.827 E4.44165
G1 X144.685 Y135.333 E4.4549
G1 X144.305 Y135.885 E4.46961
G1 X144.197 Y136.039 E4.47374
G1 X143.852 Y136.523 E4.48679
G1 X143.761 Y136.649 E4.4902
G1 X143.343 Y137.219 E4.50571
G1 X142.966 Y137.706 E4.51923
G1 X142.573 Y138.186 E4.53285
G1 X142.453 Y138.33 E4.53697
G1 X142.062 Y138.792 E4.55025
G1 X141.95 Y138.922 E4.55402
G1 X141.493 Y139.446 E4.56928
G1 X141.106 Y139.868 E4.58185
G1 X140.683 Y140.307 E4.59523
G1 X140.552 Y140.441 E4.59935
G1 X140.118 Y140.877 E4.61285
G1 X139.989 Y141.005 E4.61684
G1 X139.461 Y141.519 E4.63302
G1 X139.018 Y141.928 E4.64625
G1 X138.54 Y142.347 E4.66021
G1 X138.393 Y142.474 E4.66447
G1 X137.961 Y142.84 E4.6769
G1 X137.834 Y142.945 E4.68052
G1 X137.252 Y143.424 E4.69706
G1 X136.77 Y143.8 E4.71048
G1 X136.259 Y144.177 E4.72442
G1 X136.13 Y144.271 E4.72793
G1 X135.65 Y144.615 E4.74089
G1 X135.51 Y144.714 E4.74465
G1 X134.934 Y145.114 E4.76005
G1 X134.403 Y145.461 E4.77397
G1 X133.807 Y145.828 E4.78934
G1 X133.651 Y145.923 E4.79335
G1 X133.237 Y146.169 E4.80392
G1 X133.115 Y146.24 E4.80702
G1 X132.433 Y146.634 E4.82431
G1 X131.881 Y146.933 E4.83809
G1 X131.404 Y147.175 E4.84983
G1 X131.268 Y147.243 E4.85317
G1 X130.669 Y147.537 E4.86781
G1 X130.51 Y147.614 E4.87169
G1 X129.866 Y147.918 E4.88732
G1 X129.313 Y148.161 E4.90058
G1 X128.683 Y148.419 E4.91553
G1 X128.498 Y148.493 E4.9199
G1 X127.987 Y148.692 E4.93194
G1 X127.847 Y148.746 E4.93523
G1 X127.177 Y148.997 E4.95094
G1 X126.606 Y149.194 E4.9642
G1 X126.03 Y149.376 E4.97746
G1 X125.85 Y149.431 E4.98159
G1 X125.216 Y149.62 E4.99611
G1 X125.077 Y149.661 E4.99929
G1 X124.49 Y149.828 E5.01269
G1 X123.902 Y149.978 E5.02601
G1 X123.228 Y150.132 E5.04119
G1 X123.061 Y150.169 E5.04494
G1 X122.502 Y150.288 E5.05749
G1 X122.326 Y150.324 E5.06143
G1 X121.599 Y150.467 E5.0777
G1 X120.972 Y150.573 E5.09166
G1 X120.322 Y150.664 E5.10606
G1 X120.153 Y150.686 E5.10981
G1 X119.617 Y150.753 E5.12166
G1 X119.45 Y150.773 E5.12536
G1 X118.706 Y150.855 E5.14179
G1 X118.116 Y150.904 E5.15478
G1 X117.484 Y150.941 E5.16868
G1 X117.293 Y150.951 E5.17288
G1 X116.72 Y150.975 E5.18547
G1 X116.562 Y150.98 E5.18894
G1 X115.816 Y151.001 E5.20532
G1 X115.217 Y151.003 E5.21847
G1 X114.627 Y150.989 E5.23142
G1 X114.441 Y150.983 E5.23551
G1 X113.864 Y150.96 E5.24819
G1 X113.689 Y150.952 E5.25203
G1 X112.927 Y150.91 E5.26878
G1 X112.334 Y150.861 E5.28185
G1 X111.708 Y150.794 E5.29567
G1 X111.527 Y150.774 E5.29966
G1 X110.893 Y150.696 E5.31369
G1 X110.713 Y150.672 E5.31767
G1 X110.073 Y150.583 E5.33186
G1 X109.483 Y150.485 E5.34499
G1 X108.838 Y150.361 E5.3594
G1 X108.669 Y150.328 E5.36318
G1 X108.082 Y150.206 E5.37634
G1 X107.895 Y150.165 E5.38055
G1 X107.189 Y150.006 E5.39643
G1 X106.603 Y149.858 E5.4097
G1 X106.005 Y149.69 E5.42334
G1 X105.835 Y149.641 E5.42722
G1 X105.314 Y149.486 E5.43915
G1 X105.165 Y149.44 E5.44258
G1 X104.422 Y149.208 E5.45966
G1 X103.829 Y149.005 E5.47342
G1 X103.266 Y148.795 E5.48661
G1 X103.114 Y148.738 E5.49017
G1 X102.564 Y148.524 E5.50313
G1 X102.422 Y148.467 E5.50649
G1 X101.742 Y148.192 E5.52259
G1 X101.156 Y147.936 E5.53663
G1 X100.58 Y147.665 E5.5506
G1 X100.445 Y147.6 E5.55389
G1 X99.89 Y147.33 E5.56744
G1 X99.729 Y147.25 E5.57139
G1 X99.132 Y146.948 E5.58607
G1 X98.6 Y146.662 E5.59933
G1 X98.028 Y146.334 E5.61381
G1 X97.875 Y146.244 E5.6177
G1 X97.338 Y145.925 E5.63141
G1 X97.208 Y145.847 E5.63474
G1 X96.641 Y145.5 E5.64933
G1 X96.088 Y145.139 E5.66383
G1 X95.507 Y144.736 E5.67935
G1 X95.381 Y144.648 E5.68273
G1 X94.976 Y144.359 E5.69365
G1 X94.845 Y144.264 E5.6972
G1 X94.234 Y143.815 E5.71384
G1 X93.751 Y143.44 E5.72727
G1 X93.268 Y143.044 E5.74098
G1 X93.137 Y142.935 E5.74472
G1 X92.647 Y142.521 E5.7588
G1 X92.524 Y142.415 E5.76237
G1 X92.042 Y141.996 E5.77638
G1 X91.587 Y141.579 E5.78993
G1 X91.088 Y141.096 E5.80518
G1 X90.965 Y140.975 E5.80897
G1 X90.598 Y140.609 E5.82034
G1 X90.474 Y140.483 E5.82422
G1 X89.945 Y139.939 E5.84088
G1 X89.529 Y139.488 E5.85435
G1 X89.106 Y139.004 E5.86846
G1 X88.993 Y138.873 E5.87226
G1 X88.603 Y138.413 E5.8855
G1 X88.503 Y138.293 E5.88893
G1 X88.065 Y137.762 E5.90404
G1 X87.685 Y137.276 E5.91758
G1 X87.306 Y136.763 E5.93158
G1 X87.2 Y136.617 E5.93554
G1 X86.859 Y136.14 E5.94841
G1 X86.76 Y135.999 E5.95219
G1 X86.35 Y135.407 E5.968
G1 X86.028 Y134.916 E5.98089
G1 X85.72 Y134.419 E5.99373
G1 X85.632 Y134.274 E5.99745
G1 X85.395 Y133.879 E6.00756
G1 X84.044 Y131.691 E6.06401
G1 X82.665 Y129.592 E6.11914
G1 X81.235 Y127.546 E6.17394
G1 X79.735 Y125.522 E6.22924
G1 X78.2 Y123.569 E6.28377
G1 X76.584 Y121.629 E6.33919
G1 X74.957 Y119.785 E6.39317
G1 X73.224 Y117.929 E6.44892
G1 X71.492 Y116.177 E6.503
G1 X69.647 Y114.411 E6.55906
G1 X67.822 Y112.762 E6.61305
G1 X65.904 Y111.125 E6.66841
G1 X63.953 Y109.552 E6.72342
G1 X61.946 Y108.027 E6.77875
G1 X59.929 Y106.581 E6.83323
G1 X57.877 Y105.198 E6.88755
G1 X55.733 Y103.839 E6.94328
G1 X53.58 Y102.558 E6.99827
G1 X51.383 Y101.333 E7.05349
G1 X50.323 Y100.771 E7.07983
G1 X49.706 Y100.42 E7.09541
G1 X49.268 Y100.152 E7.10668
G1 X48.865 Y99.894 E7.11718
G1 X48.413 Y99.591 E7.12913
G1 X47.638 Y99.023 E7.15022
G1 X47.244 Y98.693 E7.1615
G1 X46.942 Y98.429 E7.17031
G1 X46.647 Y98.162 E7.17904
G1 X46.219 Y97.761 E7.19192
G1 X45.546 Y97.076 E7.213
G1 X45.206 Y96.683 E7.22441
G1 X44.933 Y96.352 E7.23382
G1 X44.647 Y95.99 E7.24395
G1 X44.312 Y95.549 E7.25611
G1 X43.763 Y94.76 E7.27721
G1 X43.502 Y94.329 E7.28827
G1 X43.29 Y93.961 E7.29759
G1 X43.088 Y93.596 E7.30675
G1 X42.823 Y93.095 E7.31919
G1 X42.41 Y92.228 E7.34027
G1 X42.208 Y91.723 E7.35221
G1 X42.064 Y91.336 E7.36128
G1 X41.926 Y90.943 E7.37042
G1 X41.743 Y90.391 E7.38319
G1 X41.479 Y89.468 E7.40426
G1 X41.372 Y88.978 E7.41527
G1 X41.296 Y88.59 E7.42395
G1 X41.221 Y88.165 E7.43342
G1 X41.129 Y87.58 E7.44642
G1 X41.019 Y86.625 E7.46752
G1 X40.992 Y86.07 E7.47972
G1 X40.982 Y85.663 E7.48866
G1 X40.979 Y85.281 E7.49704
G1 X40.984 Y84.7 E7.5098
G1 X41.033 Y83.74 E7.5309
G1 X41.096 Y83.192 E7.54301
G1 X41.159 Y82.744 E7.55294
G1 X41.22 Y82.362 E7.56143
G1 X41.311 Y81.842 E7.57302
G1 X41.516 Y80.903 E7.59412
G1 X41.677 Y80.346 E7.60685
G1 X41.817 Y79.904 E7.61702
G1 X41.94 Y79.538 E7.6255
G1 X42.117 Y79.038 E7.63714
G1 X42.474 Y78.147 E7.65821
G1 X42.723 Y77.629 E7.67083
G1 X42.935 Y77.215 E7.68104
G1 X43.127 Y76.857 E7.68996
G1 X43.38 Y76.403 E7.70137
G1 X44.14 Y75.216 E7.73231
G1 X44.389 Y74.875 E7.74158
G1 X44.668 Y74.508 E7.7517
G1 X45.025 Y74.058 E7.7643
G1 X45.653 Y73.331 E7.78539
G1 X46.052 Y72.927 E7.79786
G1 X46.368 Y72.622 E7.8075
G1 X46.654 Y72.355 E7.81609
G1 X47.061 Y71.988 E7.82812
G1 X47.801 Y71.375 E7.84921
G1 X48.241 Y71.056 E7.86114
G1 X48.582 Y70.821 E7.87023
G0 F6000 X48.831 Y71.183
G1 F1200 X49.153 Y70.97 E7.87871
G1 X49.635 Y70.662 E7.89126
G1 X50.45 Y70.188 E7.91196
G1 X50.915 Y69.958 E7.92335
G1 X51.309 Y69.774 E7.93289
G1 X51.621 Y69.634 E7.9404
G1 X52.128 Y69.416 E7.95252
G1 X53.009 Y69.081 E7.97321
G1 X53.538 Y68.919 E7.98535
G1 X53.973 Y68.798 E7.99526
G1 X54.318 Y68.708 E8.00309
G1 X54.847 Y68.579 E8.01504
G1 X55.771 Y68.395 E8.03572
G1 X56.28 Y68.328 E8.04699
G1 X56.695 Y68.283 E8.05616
G1 X57.058 Y68.249 E8.06416
G1 X57.602 Y68.208 E8.07614
G1 X58.257 Y68.178 E8.09053
G1 X58.999 Y68.166 E8.10682
G1 X59.151 Y68.165 E8.11016
G1 X59.988 Y68.163 E8.12853
G1 X160.786 Y68.163 E10.34122
G1 X160.943 Y68.164 E10.34466
G1 X161.649 Y68.174 E10.36016
G1 X162.159 Y68.193 E10.37136
G1 X162.541 Y68.216 E10.37977
G1 X162.917 Y68.245 E10.38804
G1 X163.468 Y68.297 E10.40019
G1 X164.686 Y68.481 E10.42723
G1 X164.984 Y68.543 E10.43392
G1 X165.482 Y68.658 E10.44513
G1 X166.125 Y68.823 E10.45971
G1 X167.463 Y69.259 E10.4906
G1 X167.818 Y69.4 E10.49898
G1 X168.186 Y69.554 E10.50774
G1 X168.714 Y69.786 E10.5204
G1 X169.786 Y70.328 E10.54677
G1 X169.991 Y70.446 E10.55196
G1 X170.438 Y70.717 E10.56344
G1 X171.052 Y71.11 E10.57944
G1 X172.076 Y71.851 E10.60719
G1 X172.232 Y71.978 E10.6116
G1 X172.642 Y72.329 E10.62345
G1 X173.213 Y72.842 E10.6403
G1 X174.131 Y73.769 E10.66894
G1 X174.284 Y73.943 E10.67402
G1 X174.578 Y74.293 E10.68406
G1 X175.018 Y74.837 E10.69942
G1 X175.717 Y75.801 E10.72556
G1 X175.855 Y76.015 E10.73115
G1 X176.174 Y76.542 E10.74467
G1 X176.541 Y77.187 E10.76096
G1 X177.112 Y78.342 E10.78924
G1 X177.193 Y78.533 E10.7938
G1 X177.379 Y79.001 E10.80485
G1 X177.638 Y79.698 E10.82118
G1 X178.005 Y80.884 E10.84843
G1 X178.057 Y81.093 E10.85316
G1 X178.175 Y81.624 E10.8651
G1 X178.324 Y82.379 E10.88199
G1 X178.504 Y83.71 E10.91147
G1 X178.521 Y83.94 E10.91654
G1 X178.545 Y84.392 E10.92647
G1 X178.569 Y85.119 E10.94244
G1 X178.537 Y86.403 E10.97063
G1 X178.516 Y86.656 E10.97621
G1 X178.462 Y87.164 E10.98742
G1 X178.369 Y87.882 E11.00331
G1 X178.208 Y88.81 E11.02399
G1 X178.085 Y89.321 E11.03553
G1 X177.984 Y89.699 E11.04412
G1 X177.883 Y90.053 E11.0522
G1 X177.72 Y90.591 E11.06454
G1 X177.302 Y91.739 E11.09136
G1 X177.207 Y91.961 E11.09666
G1 X176.988 Y92.44 E11.10822
G1 X176.674 Y93.087 E11.12401
G1 X176.227 Y93.917 E11.1447
G1 X175.976 Y94.319 E11.1551
G1 X175.762 Y94.646 E11.16368
G1 X175.523 Y94.996 E11.17299
G1 X175.192 Y95.462 E11.18553
G1 X174.436 Y96.412 E11.21218
G1 X174.291 Y96.575 E11.21697
G1 X173.943 Y96.948 E11.22817
G1 X173.423 Y97.481 E11.24452
G1 X172.46 Y98.359 E11.27312
G1 X171.634 Y99.027 E11.29644
G1 X169.62 Y100.697 E11.35388
G1 X167.707 Y102.379 E11.40979
G1 X165.901 Y104.058 E11.46392
G1 X164.077 Y105.853 E11.5201
G1 X162.357 Y107.643 E11.5746
G1 X160.666 Y109.507 E11.62984
G1 X159.026 Y111.421 E11.68517
G1 X157.437 Y113.384 E11.74061
G1 X155.913 Y115.381 E11.79576
G1 X154.451 Y117.413 E11.85071
G1 X153.046 Y119.488 E11.90572
G1 X151.672 Y121.643 E11.96182
G1 X150.4 Y123.772 E12.01626
G1 X149.17 Y125.97 E12.07155
G1 X148.004 Y128.194 E12.12667
G1 X146.92 Y130.412 E12.18087
G1 X146.752 Y130.768 E12.18951
G1 X146.698 Y130.879 E12.19222
G1 X146.47 Y131.347 E12.20365
G1 X146.398 Y131.492 E12.2072
G1 X146.067 Y132.147 E12.22331
G1 X145.782 Y132.675 E12.23648
G1 X145.468 Y133.221 E12.25031
G1 X145.389 Y133.356 E12.25374
G1 X145.073 Y133.888 E12.26732
G1 X144.989 Y134.027 E12.27089
G1 X144.639 Y134.597 E12.28557
G1 X144.323 Y135.083 E12.2983
G1 X143.943 Y135.635 E12.31301
G1 X143.839 Y135.784 E12.317
G1 X143.494 Y136.268 E12.33004
G1 X143.406 Y136.389 E12.33333
G1 X142.988 Y136.959 E12.34885
G1 X142.626 Y137.427 E12.36183
G1 X142.233 Y137.907 E12.37545
G1 X142.117 Y138.046 E12.37943
G1 X141.726 Y138.508 E12.39271
G1 X141.618 Y138.633 E12.39634
G1 X141.161 Y139.157 E12.4116
G1 X140.789 Y139.563 E12.42369
G1 X140.366 Y140.002 E12.43707
G1 X140.24 Y140.131 E12.44103
G1 X139.806 Y140.567 E12.45453
G1 X139.682 Y140.69 E12.45837
G1 X139.154 Y141.204 E12.47454
G1 X138.728 Y141.597 E12.48727
G1 X138.25 Y142.016 E12.50122
G1 X138.108 Y142.138 E12.50533
G1 X137.676 Y142.504 E12.51776
G1 X137.555 Y142.606 E12.52123
G1 X136.973 Y143.085 E12.53778
G1 X136.509 Y143.446 E12.55068
G1 X135.998 Y143.823 E12.56462
G1 X135.874 Y143.913 E12.56799
G1 X135.394 Y144.257 E12.58095
G1 X135.259 Y144.352 E12.58457
G1 X134.683 Y144.752 E12.59997
G1 X134.172 Y145.087 E12.61338
G1 X133.576 Y145.454 E12.62875
G1 X133.426 Y145.544 E12.63259
G1 X133.012 Y145.79 E12.64316
