;FLAVOR:Marlin
;TIME:27407
;Filament used: 20.7777m
;Layer height: 0.2
;MINX:41.2
;MINY:36.1
;MINZ:0.2
;MAXX:178.8
;MAXY:183.9
;MAXZ:45.4
;Generated with Cura_SteamEngine 4.2.1
M140 S50
M105
M190 S50
M104 S200
M105
M109 S200
M82 ;absolute extrusion mode
M201 X500.00 Y500.00 Z100.00 E5000.00 ;Setup machine max acceleration
M203 X500.00 Y500.00 Z10.00 E50.00 ;Setup machine max feedrate
M204 P500.00 R1000.00 T500.00 ;Setup Print/Retract/Travel acceleration
M205 X8.00 Y8.00 Z0.40 E5.00 ;Setup Jerk
M220 S100 ;Reset Feedrate
M221 S100 ;Reset Flowrate

G28 ;Home

G92 E0 ;Reset Extruder
G1 Z2.0 F3000 ;Move Z Axis up
G1 X10.1 Y20 Z0.28 F5000.0 ;Move to start position
G1 X10.1 Y200.0 Z0.28 F1500.0 E15 ;Draw the first line
G1 X10.4 Y200.0 Z0.28 F5000.0 ;Move to side a little
G1 X10.4 Y20 Z0.28 F1500.0 E30 ;Draw the second line
G92 E0 ;Reset Extruder
G1 Z2.0 F3000 ;Move Z Axis up

M141 S28
G92 E0
G92 E0
G1 F2700 E-5
;LAYER_COUNT:227
;LAYER:0
M107
G0 F6000 X44.405 Y39.593 Z0.2
;TYPE:SKIRT
G1 F2700 E0
G1 F1200 X45.096 Y38.935 E0.03174
G1 X45.84 Y38.336 E0.0635
G1 X46.632 Y37.802 E0.09528
G1 X47.465 Y37.336 E0.12702
G1 X48.334 Y36.941 E0.15877
G1 X49.233 Y36.62 E0.19052
G1 X50.156 Y36.376 E0.22227
G1 X51.097 Y36.21 E0.25405
G1 X52.289 Y36.113 E0.29383
G1 X52.61 Y36.104 E0.30451
G1 X52.93 Y36.1 E0.31516
G1 X166.693 Y36.1 E4.09893
G1 X166.856 Y36.101 E4.10435
G1 X167.554 Y36.111 E4.12757
G1 X168.508 Y36.165 E4.15935
G1 X169.453 Y36.298 E4.19109
G1 X170.384 Y36.51 E4.22285
G1 X171.294 Y36.799 E4.2546
G1 X172.177 Y37.163 E4.28637
G1 X173.026 Y37.6 E4.31813
G1 X173.835 Y38.106 E4.34987
G1 X174.599 Y38.678 E4.38161
G1 X175.313 Y39.312 E4.41337
G1 X175.971 Y40.004 E4.44513
G1 X176.569 Y40.748 E4.47688
G1 X177.103 Y41.54 E4.50865
G1 X177.568 Y42.374 E4.54041
G1 X177.963 Y43.243 E4.57216
G1 X178.282 Y44.143 E4.60391
G1 X178.526 Y45.066 E4.63567
G1 X178.691 Y46.007 E4.66744
G1 X178.786 Y47.19 E4.70692
G1 X178.795 Y47.51 E4.71756
G1 X178.8 Y47.83 E4.72821
G1 X178.8 Y160.764 E8.48441
G1 X178.799 Y160.905 E8.4891
G1 X178.79 Y161.632 E8.51328
G1 X178.738 Y162.585 E8.54502
G1 X178.607 Y163.531 E8.57679
G1 X178.397 Y164.463 E8.60856
G1 X178.11 Y165.373 E8.6403
G1 X177.747 Y166.256 E8.67205
G1 X177.312 Y167.106 E8.70381
G1 X176.807 Y167.917 E8.73559
G1 X176.237 Y168.682 E8.76732
G1 X175.604 Y169.397 E8.79908
G1 X174.914 Y170.057 E8.83084
G1 X174.17 Y170.656 E8.86261
G1 X173.38 Y171.191 E8.89434
G1 X172.547 Y171.658 E8.9261
G1 X171.678 Y172.054 E8.95787
G1 X170.779 Y172.376 E8.98963
G1 X169.856 Y172.621 E9.02139
G1 X168.916 Y172.788 E9.05314
G1 X167.711 Y172.887 E9.09336
G1 X167.39 Y172.896 E9.10404
G1 X167.07 Y172.9 E9.11468
G1 X160.672 Y172.9 E9.32748
G1 X158.082 Y172.937 E9.41363
G1 X155.547 Y173.044 E9.49802
G1 X153.074 Y173.22 E9.58048
G1 X150.601 Y173.465 E9.66314
G1 X148.092 Y173.786 E9.74727
G1 X145.62 Y174.174 E9.83049
G1 X143.152 Y174.633 E9.91399
G1 X140.711 Y175.158 E9.99703
G1 X138.269 Y175.757 E10.08066
G1 X135.855 Y176.421 E10.16393
G1 X133.475 Y177.15 E10.24672
G1 X131.092 Y177.953 E10.33036
G1 X128.723 Y178.827 E10.41434
G1 X126.406 Y179.757 E10.49738
G1 X124.112 Y180.756 E10.5806
G1 X121.842 Y181.82 E10.66399
G1 X120.981 Y182.254 E10.69606
G1 X120.861 Y182.313 E10.7005
G1 X120.011 Y182.729 E10.73198
G1 X119.137 Y183.113 E10.76373
G1 X118.233 Y183.422 E10.7955
G1 X117.307 Y183.654 E10.82726
G1 X116.365 Y183.808 E10.859
G1 X115.345 Y183.885 E10.89302
G1 X115.015 Y183.895 E10.90401
G1 X114.67 Y183.9 E10.91548
G1 X105.707 Y183.9 E11.21359
G1 X105.544 Y183.899 E11.21901
G1 X104.846 Y183.889 E11.24223
G1 X103.892 Y183.835 E11.27401
G1 X102.947 Y183.702 E11.30575
G1 X102.016 Y183.49 E11.33751
G1 X101.106 Y183.201 E11.36927
G1 X99.924 Y182.693 E11.41206
G1 X99.384 Y182.424 E11.43212
G1 X97.018 Y181.274 E11.51962
G1 X94.722 Y180.238 E11.6034
G1 X92.41 Y179.272 E11.68674
G1 X90.046 Y178.361 E11.771
G1 X87.722 Y177.543 E11.85295
G1 X85.318 Y176.771 E11.93693
G1 X82.916 Y176.073 E12.02012
G1 X80.521 Y175.45 E12.10243
G1 X78.031 Y174.877 E12.18741
G1 X75.577 Y174.385 E12.27066
G1 X73.152 Y173.972 E12.35247
G1 X70.622 Y173.612 E12.43747
G1 X68.154 Y173.332 E12.52008
G1 X65.67 Y173.121 E12.603
G1 X63.183 Y172.981 E12.68585
G1 X59.322 Y172.9 E12.81429
G1 X53.307 Y172.9 E13.01435
G1 X53.144 Y172.899 E13.01977
G1 X52.446 Y172.889 E13.04299
G1 X51.492 Y172.835 E13.07477
G1 X50.547 Y172.702 E13.10651
G1 X49.616 Y172.49 E13.13827
G1 X48.706 Y172.201 E13.17003
G1 X47.823 Y171.837 E13.20179
G1 X46.974 Y171.4 E13.23355
G1 X46.165 Y170.894 E13.26529
G1 X45.401 Y170.322 E13.29703
G1 X44.687 Y169.688 E13.32879
G1 X44.029 Y168.996 E13.36055
G1 X43.431 Y168.252 E13.3923
G1 X42.897 Y167.46 E13.42407
G1 X42.432 Y166.626 E13.45583
G1 X42.037 Y165.757 E13.48758
G1 X41.718 Y164.857 E13.51934
G1 X41.474 Y163.934 E13.55109
G1 X41.309 Y162.993 E13.58287
G1 X41.213 Y161.799 E13.62271
G1 X41.204 Y161.467 E13.63375
G1 X41.2 Y161.158 E13.64403
G1 X41.2 Y48.174 E17.4019
G1 X41.201 Y48.02 E17.40702
G1 X41.21 Y47.355 E17.42914
G1 X41.263 Y46.401 E17.46092
G1 X41.395 Y45.456 E17.49265
G1 X41.607 Y44.525 E17.52441
G1 X41.895 Y43.615 E17.55616
G1 X42.258 Y42.732 E17.58791
G1 X42.694 Y41.882 E17.61968
G1 X43.2 Y41.072 E17.65145
G1 X43.772 Y40.308 E17.68319
G1 X44.405 Y39.593 E17.71495
G0 F6000 X44.798 Y39.764
G1 F1200 X45.486 Y39.127 E17.74614
G1 X46.226 Y38.551 E17.77733
G1 X47.012 Y38.039 E17.80853
G1 X47.839 Y37.597 E17.83972
G1 X48.701 Y37.227 E17.87092
G1 X49.591 Y36.931 E17.90211
G1 X50.503 Y36.713 E17.9333
G1 X51.43 Y36.572 E17.96449
G1 X52.301 Y36.513 E17.99352
G1 X52.622 Y36.504 E18.0042
G1 X52.93 Y36.5 E18.01445
G1 X166.693 Y36.5 E21.79822
G1 X166.851 Y36.501 E21.80348
G1 X167.549 Y36.511 E21.82669
G1 X168.485 Y36.565 E21.85788
G1 X169.413 Y36.697 E21.88905
G1 X170.327 Y36.909 E21.92026
G1 X171.219 Y37.198 E21.95145
G1 X172.084 Y37.561 E21.98265
G1 X172.914 Y37.997 E22.01383
G1 X173.705 Y38.502 E22.04504
G1 X174.449 Y39.073 E22.07624
G1 X175.142 Y39.705 E22.10743
G1 X175.779 Y40.393 E22.13862
G1 X176.354 Y41.134 E22.16981
G1 X176.865 Y41.92 E22.20099
G1 X177.307 Y42.748 E22.23221
G1 X177.676 Y43.61 E22.2634
G1 X177.971 Y44.5 E22.29458
G1 X178.189 Y45.412 E22.32577
G1 X178.329 Y46.34 E22.35699
G1 X178.387 Y47.201 E22.38569
G1 X178.396 Y47.521 E22.39634
G1 X178.4 Y47.83 E22.40661
G1 X178.4 Y160.764 E26.16281
G1 X178.399 Y160.9 E26.16734
G1 X178.39 Y161.627 E26.19152
G1 X178.339 Y162.564 E26.22273
G1 X178.207 Y163.492 E26.25391
G1 X177.998 Y164.406 E26.28509
G1 X177.711 Y165.299 E26.31629
G1 X177.349 Y166.165 E26.34751
G1 X176.915 Y166.996 E26.37869
G1 X176.411 Y167.787 E26.40988
G1 X175.842 Y168.532 E26.44106
G1 X175.211 Y169.227 E26.47228
G1 X174.524 Y169.865 E26.50347
G1 X173.785 Y170.442 E26.53465
G1 X172.999 Y170.954 E26.56585
G1 X172.173 Y171.397 E26.59703
G1 X171.311 Y171.769 E26.62825
G1 X170.422 Y172.065 E26.65942
G1 X169.51 Y172.285 E26.69062
G1 X168.583 Y172.426 E26.72181
G1 X167.699 Y172.487 E26.75128
G1 X167.378 Y172.496 E26.76196
G1 X167.07 Y172.5 E26.7722
G1 X160.667 Y172.5 E26.98517
G1 X158.059 Y172.537 E27.07192
G1 X155.538 Y172.644 E27.15584
G1 X153.043 Y172.821 E27.23904
G1 X150.543 Y173.069 E27.3226
G1 X148.05 Y173.388 E27.40619
G1 X145.557 Y173.779 E27.49012
G1 X143.067 Y174.242 E27.57436
G1 X140.604 Y174.772 E27.65815
G1 X138.208 Y175.36 E27.74021
G1 X135.738 Y176.039 E27.82541
G1 X133.335 Y176.775 E27.909
G1 X130.943 Y177.582 E27.99296
G1 X128.603 Y178.445 E28.07591
G1 X126.247 Y179.391 E28.16036
G1 X123.949 Y180.391 E28.24371
G1 X121.67 Y181.459 E28.32742
G1 X120.801 Y181.897 E28.35979
G1 X120.685 Y181.954 E28.36409
G1 X119.835 Y182.37 E28.39556
G1 X118.976 Y182.746 E28.42675
G1 X118.088 Y183.048 E28.45795
G1 X117.178 Y183.272 E28.48912
G1 X116.251 Y183.419 E28.52033
G1 X115.333 Y183.485 E28.55095
G1 X115.003 Y183.495 E28.56193
G1 X114.67 Y183.5 E28.573
G1 X105.707 Y183.5 E28.87111
G1 X105.549 Y183.499 E28.87637
G1 X104.851 Y183.489 E28.89959
G1 X103.915 Y183.435 E28.93077
G1 X102.987 Y183.303 E28.96195
G1 X102.073 Y183.091 E28.99315
G1 X101.181 Y182.802 E29.02434
G1 X100.102 Y182.335 E29.06344
G1 X99.519 Y182.045 E29.0851
G1 X97.179 Y180.907 E29.17165
G1 X94.892 Y179.875 E29.2551
G1 X92.553 Y178.898 E29.33941
G1 X90.204 Y177.992 E29.42314
G1 X87.839 Y177.161 E29.50652
G1 X85.446 Y176.392 E29.59012
G1 X83.014 Y175.685 E29.67436
G1 X80.606 Y175.059 E29.75711
G1 X78.128 Y174.489 E29.84168
G1 X75.657 Y173.993 E29.92551
G1 X73.199 Y173.574 E30.00844
G1 X70.692 Y173.218 E30.09266
G1 X68.2 Y172.935 E30.17607
G1 X65.688 Y172.722 E30.25992
G1 X63.215 Y172.583 E30.34231
G1 X59.284 Y172.5 E30.47308
G1 X53.307 Y172.5 E30.67188
G1 X53.149 Y172.499 E30.67713
G1 X52.451 Y172.489 E30.70035
G1 X51.515 Y172.435 E30.73153
G1 X50.587 Y172.303 E30.76271
G1 X49.673 Y172.091 E30.79392
G1 X48.781 Y171.802 E30.8251
G1 X47.916 Y171.439 E30.8563
G1 X47.086 Y171.003 E30.88749
G1 X46.295 Y170.498 E30.9187
G1 X45.551 Y169.927 E30.94989
G1 X44.858 Y169.295 E30.98109
G1 X44.221 Y168.607 E31.01227
G1 X43.646 Y167.866 E31.04347
G1 X43.135 Y167.08 E31.07465
G1 X42.693 Y166.252 E31.10587
G1 X42.324 Y165.39 E31.13705
G1 X42.029 Y164.5 E31.16824
G1 X41.811 Y163.588 E31.19943
G1 X41.671 Y162.66 E31.23064
G1 X41.613 Y161.788 E31.25971
G1 X41.604 Y161.456 E31.27075
G1 X41.6 Y161.158 E31.28067
G1 X41.6 Y48.174 E35.03853
G1 X41.601 Y48.025 E35.04349
G1 X41.61 Y47.36 E35.06561
G1 X41.663 Y46.424 E35.09679
G1 X41.795 Y45.495 E35.128
G1 X42.006 Y44.581 E35.1592
G1 X42.294 Y43.689 E35.19037
G1 X42.657 Y42.824 E35.22157
G1 X43.092 Y41.993 E35.25277
G1 X43.596 Y41.203 E35.28394
G1 X44.166 Y40.458 E35.31514
G1 X44.798 Y39.764 E35.34636
G0 F6000 X45.189 Y39.939
G1 F1200 X45.874 Y39.323 E35.377
G1 X46.61 Y38.77 E35.40762
G1 X47.391 Y38.282 E35.43825
G1 X48.211 Y37.864 E35.46886
G1 X49.065 Y37.519 E35.49949
G1 X49.945 Y37.249 E35.53011
G1 X50.845 Y37.057 E35.56072
G1 X51.759 Y36.943 E35.59135
G1 X52.312 Y36.913 E35.60977
G1 X52.633 Y36.904 E35.62045
G1 X52.93 Y36.9 E35.63033
G1 X166.693 Y36.9 E39.4141
G1 X166.845 Y36.901 E39.41916
G1 X167.543 Y36.911 E39.44238
G1 X168.462 Y36.964 E39.47299
G1 X169.373 Y37.097 E39.50362
G1 X170.269 Y37.308 E39.53423
G1 X171.143 Y37.596 E39.56484
G1 X171.99 Y37.959 E39.59549
G1 X172.801 Y38.394 E39.6261
G1 X173.571 Y38.898 E39.65671
G1 X174.295 Y39.467 E39.68733
G1 X174.967 Y40.097 E39.71797
G1 X175.582 Y40.782 E39.74859
G1 X176.135 Y41.518 E39.77921
G1 X176.622 Y42.299 E39.80982
G1 X177.039 Y43.12 E39.84045
G1 X177.384 Y43.974 E39.87108
G1 X177.653 Y44.854 E39.90169
G1 X177.845 Y45.755 E39.93233
G1 X177.958 Y46.668 E39.96293
G1 X177.987 Y47.212 E39.98105
G1 X177.996 Y47.532 E39.99169
G1 X178 Y47.83 E40.0016
G1 X178 Y160.764 E43.75781
G1 X177.999 Y160.895 E43.76216
G1 X177.99 Y161.622 E43.78634
G1 X177.939 Y162.541 E43.81696
G1 X177.808 Y163.453 E43.8476
G1 X177.598 Y164.349 E43.87821
G1 X177.312 Y165.224 E43.90883
G1 X176.951 Y166.071 E43.93945
G1 X176.517 Y166.883 E43.97007
G1 X176.015 Y167.655 E44.0007
G1 X175.447 Y168.38 E44.03134
G1 X174.819 Y169.053 E44.06195
G1 X174.135 Y169.669 E44.09257
G1 X173.4 Y170.223 E44.12318
G1 X172.62 Y170.712 E44.1538
G1 X171.8 Y171.131 E44.18443
G1 X170.947 Y171.477 E44.21504
G1 X170.067 Y171.748 E44.24567
G1 X169.167 Y171.941 E44.27628
G1 X168.253 Y172.056 E44.30692
G1 X167.688 Y172.087 E44.32574
G1 X167.367 Y172.096 E44.33642
G1 X167.07 Y172.1 E44.3463
G1 X160.661 Y172.1 E44.55947
G1 X158.036 Y172.137 E44.64678
G1 X155.528 Y172.244 E44.73028
G1 X153.008 Y172.422 E44.8143
G1 X150.493 Y172.671 E44.89836
G1 X148.004 Y172.99 E44.98182
G1 X145.452 Y173.391 E45.06774
G1 X143.021 Y173.843 E45.14998
G1 X140.522 Y174.381 E45.235
G1 X138.086 Y174.978 E45.31842
G1 X135.62 Y175.656 E45.40349
G1 X133.227 Y176.389 E45.48673
G1 X130.813 Y177.203 E45.57146
G1 X128.463 Y178.07 E45.65477
G1 X126.075 Y179.029 E45.74036
G1 X123.798 Y180.02 E45.82296
G1 X121.499 Y181.097 E45.9074
G1 X120.621 Y181.54 E45.9401
G1 X120.51 Y181.595 E45.94422
G1 X119.66 Y182.011 E45.9757
G1 X118.816 Y182.379 E46.00632
G1 X117.943 Y182.673 E46.03696
G1 X117.049 Y182.89 E46.06756
G1 X116.139 Y183.029 E46.09818
G1 X115.321 Y183.085 E46.12545
G1 X114.991 Y183.095 E46.13643
G1 X114.67 Y183.1 E46.14711
G1 X105.707 Y183.1 E46.44522
G1 X105.555 Y183.099 E46.45027
G1 X104.857 Y183.089 E46.47349
G1 X103.938 Y183.036 E46.50411
G1 X103.027 Y182.903 E46.53473
G1 X102.131 Y182.692 E46.56535
G1 X101.257 Y182.404 E46.59595
G1 X100.281 Y181.977 E46.63139
G1 X99.694 Y181.684 E46.65321
G1 X97.382 Y180.561 E46.73869
G1 X95.031 Y179.5 E46.82448
G1 X92.703 Y178.527 E46.9084
G1 X90.315 Y177.607 E46.99352
G1 X87.99 Y176.789 E47.0755
G1 X85.565 Y176.01 E47.16021
G1 X83.13 Y175.302 E47.24455
G1 X80.683 Y174.666 E47.32865
G1 X78.225 Y174.1 E47.41254
G1 X75.705 Y173.595 E47.49802
G1 X73.286 Y173.183 E47.57964
G1 X70.722 Y172.818 E47.66577
G1 X68.243 Y172.537 E47.74875
G1 X65.71 Y172.322 E47.8333
G1 X63.245 Y172.183 E47.91542
G1 X59.292 Y172.1 E48.04693
G1 X53.307 Y172.1 E48.24599
G1 X53.155 Y172.099 E48.25104
G1 X52.457 Y172.089 E48.27426
G1 X51.538 Y172.036 E48.30488
G1 X50.627 Y171.903 E48.3355
G1 X49.731 Y171.692 E48.36612
G1 X48.857 Y171.404 E48.39672
G1 X48.01 Y171.041 E48.42737
G1 X47.199 Y170.606 E48.45798
G1 X46.429 Y170.102 E48.48859
G1 X45.705 Y169.533 E48.51922
G1 X45.033 Y168.903 E48.54986
G1 X44.418 Y168.218 E48.58047
G1 X43.865 Y167.482 E48.61109
G1 X43.378 Y166.701 E48.64171
G1 X42.961 Y165.88 E48.67233
G1 X42.616 Y165.026 E48.70297
G1 X42.347 Y164.146 E48.73357
G1 X42.155 Y163.245 E48.76421
G1 X42.042 Y162.332 E48.79481
G1 X42.013 Y161.777 E48.8133
G1 X42.004 Y161.445 E48.82434
G1 X42 Y161.158 E48.83389
G1 X42 Y48.174 E52.59175
G1 X42.001 Y48.031 E52.59651
G1 X42.01 Y47.366 E52.61863
G1 X42.062 Y46.446 E52.64928
G1 X42.194 Y45.535 E52.67989
G1 X42.405 Y44.639 E52.71051
G1 X42.692 Y43.764 E52.74114
G1 X43.055 Y42.918 E52.77176
G1 X43.489 Y42.106 E52.80238
G1 X43.992 Y41.335 E52.833
G1 X44.561 Y40.611 E52.86362
G1 X45.189 Y39.939 E52.89422
G0 F6000 X45.581 Y40.117
G1 F1200 X46.262 Y39.524 E52.92425
G1 X46.994 Y38.994 E52.95431
G1 X47.769 Y38.531 E52.98433
G1 X48.582 Y38.138 E53.01437
G1 X49.427 Y37.818 E53.04442
G1 X50.296 Y37.575 E53.07443
G1 X51.184 Y37.409 E53.10448
G1 X52.323 Y37.313 E53.1425
G1 X52.644 Y37.304 E53.15318
G1 X52.93 Y37.3 E53.16269
G1 X166.693 Y37.3 E56.94646
G1 X166.839 Y37.301 E56.95132
G1 X167.537 Y37.311 E56.97454
G1 X168.439 Y37.364 E57.00459
G1 X169.332 Y37.496 E57.03461
G1 X170.21 Y37.707 E57.06465
G1 X171.066 Y37.995 E57.09469
G1 X171.893 Y38.357 E57.12471
G1 X172.685 Y38.792 E57.15477
G1 X173.436 Y39.294 E57.18481
G1 X174.139 Y39.861 E57.21485
G1 X174.789 Y40.488 E57.24489
G1 X175.381 Y41.17 E57.27493
G1 X175.911 Y41.901 E57.30496
G1 X176.373 Y42.677 E57.33499
G1 X176.766 Y43.49 E57.36503
G1 X177.084 Y44.335 E57.39506
G1 X177.327 Y45.205 E57.4251
G1 X177.492 Y46.093 E57.45514
G1 X177.587 Y47.223 E57.49286
G1 X177.596 Y47.543 E57.50351
G1 X177.6 Y47.83 E57.51305
G1 X177.6 Y160.764 E61.26925
G1 X177.599 Y160.89 E61.27344
G1 X177.59 Y161.617 E61.29763
G1 X177.539 Y162.519 E61.32767
G1 X177.408 Y163.413 E61.35773
G1 X177.199 Y164.291 E61.38774
G1 X176.913 Y165.148 E61.41779
G1 X176.552 Y165.976 E61.44784
G1 X176.12 Y166.768 E61.47784
G1 X175.619 Y167.52 E61.5079
G1 X175.053 Y168.224 E61.53794
G1 X174.428 Y168.875 E61.56796
G1 X173.747 Y169.469 E61.59801
G1 X173.016 Y170 E61.62806
G1 X172.242 Y170.464 E61.65808
G1 X171.429 Y170.858 E61.68813
G1 X170.585 Y171.178 E61.71815
G1 X169.715 Y171.423 E61.74821
G1 X168.828 Y171.589 E61.77822
G1 X167.677 Y171.687 E61.81665
G1 X167.356 Y171.696 E61.82733
