;FLAVOR:Marlin
;TIME:3695
;Filament used: 1.81886m
;Layer height: 0.2
;MINX:79.7
;MINY:84.031
;MINZ:0.2
;MAXX:142.14
;MAXY:135.97
;MAXZ:23
;Generated with Cura_SteamEngine 4.2.1
M140 S60
M105
M190 S60
M104 S210
M105
M109 S210
M82 ;absolute extrusion mode
M201 X500.00 Y500.00 Z100.00 E5000.00 ;Setup machine max acceleration
M203 X500.00 Y500.00 Z10.00 E50.00 ;Setup machine max feedrate
M204 P500.00 R1000.00 T500.00 ;Setup Print/Retract/Travel acceleration
M205 X8.00 Y8.00 Z0.40 E5.00 ;Setup Jerk
M220 S100 ;Reset Feedrate
M221 S100 ;Reset Flowrate

G28 ;Home

G92 E0 ;Reset Extruder
G1 Z2.0 F3000 ;Move Z Axis up
G1 X10.1 Y20 Z0.28 F5000.0 ;Move to start position
G1 X10.1 Y200.0 Z0.28 F1500.0 E15 ;Draw the first line
G1 X10.4 Y200.0 Z0.28 F5000.0 ;Move to side a little
G1 X10.4 Y20 Z0.28 F1500.0 E30 ;Draw the second line
G92 E0 ;Reset Extruder
G1 Z2.0 F3000 ;Move Z Axis up

M141 S28
G92 E0
G92 E0
G1 F2700 E-5
;LAYER_COUNT:115
;LAYER:0
M107
G0 F6000 X83.818 Y92.705 Z0.2
;TYPE:SKIRT
G1 F2700 E0
G1 F1200 X84.553 Y92.086 E0.03516
G1 X85.337 Y91.531 E0.0703
G1 X86.164 Y91.042 E0.10545
G1 X87.029 Y90.624 E0.1406
G1 X87.925 Y90.279 E0.17573
G1 X88.848 Y90.011 E0.21089
G1 X89.789 Y89.819 E0.24603
G1 X91.193 Y89.682 E0.29764
G1 X92.359 Y89.639 E0.34033
G1 X95.047 Y89.519 E0.43877
G1 X97.517 Y89.339 E0.52937
G1 X99.979 Y89.089 E0.61991
G1 X102.498 Y88.762 E0.71285
G1 X104.962 Y88.37 E0.80413
G1 X107.428 Y87.906 E0.89593
G1 X109.84 Y87.381 E0.98625
G1 X112.263 Y86.782 E1.07756
G1 X114.642 Y86.111 E1.168
G1 X114.763 Y86.077 E1.1726
G1 X115.436 Y85.895 E1.1981
G1 X116.689 Y85.63 E1.24496
G1 X117.771 Y85.463 E1.28501
G1 X117.941 Y85.438 E1.2913
G1 X118.361 Y85.38 E1.30681
G1 X120.81 Y84.968 E1.39767
G1 X122.938 Y84.549 E1.47702
G1 X124.295 Y84.273 E1.52768
G1 X125.243 Y84.121 E1.56281
G1 X126.346 Y84.044 E1.60326
G1 X126.85 Y84.033 E1.62171
G1 X127.238 Y84.031 E1.6359
G1 X128.086 Y84.041 E1.66693
G1 X129.045 Y84.092 E1.70207
G1 X129.997 Y84.223 E1.73722
G1 X130.934 Y84.433 E1.77236
G1 X131.851 Y84.719 E1.8075
G1 X132.741 Y85.082 E1.84267
G1 X133.913 Y85.7 E1.89114
G1 X134.135 Y85.834 E1.90063
G1 X134.402 Y86 E1.91213
G1 X134.586 Y86.118 E1.92013
G1 X134.709 Y86.198 E1.9255
G1 X136.324 Y87.263 E1.99627
G1 X136.448 Y87.346 E2.00173
G1 X137.06 Y87.761 E2.02879
G1 X137.832 Y88.333 E2.06394
G1 X138.553 Y88.967 E2.09906
G1 X139.22 Y89.658 E2.1342
G1 X139.826 Y90.403 E2.16934
G1 X140.369 Y91.196 E2.2045
G1 X140.844 Y92.031 E2.23965
G1 X141.247 Y92.903 E2.27479
G1 X141.577 Y93.805 E2.30993
G1 X141.831 Y94.732 E2.3451
G1 X142.006 Y95.676 E2.38022
G1 X142.119 Y96.999 E2.4288
G1 X142.136 Y97.626 E2.45175
G1 X142.139 Y98.088 E2.46865
G1 X142.129 Y98.862 E2.49697
G1 X142.076 Y99.83 E2.53244
G1 X141.936 Y101.27 E2.58537
G1 X141.801 Y102.726 E2.63887
G1 X141.629 Y105.25 E2.73143
G1 X141.528 Y107.776 E2.82392
G1 X141.499 Y110.27 E2.91517
G1 X141.54 Y112.763 E3.00639
G1 X141.652 Y115.252 E3.09755
G1 X141.836 Y117.753 E3.1893
G1 X142.061 Y119.986 E3.27141
G1 X142.107 Y120.627 E3.29492
G1 X142.128 Y121.095 E3.31206
G1 X142.14 Y121.612 E3.33098
G1 X142.14 Y121.96 E3.34371
G1 X142.139 Y122.121 E3.3496
G1 X142.129 Y122.838 E3.37584
G1 X142.076 Y123.797 E3.41098
G1 X141.943 Y124.748 E3.44611
G1 X141.731 Y125.685 E3.48126
G1 X141.442 Y126.602 E3.51643
G1 X141.078 Y127.491 E3.55158
G1 X140.641 Y128.346 E3.58671
G1 X140.135 Y129.163 E3.62187
G1 X139.563 Y129.934 E3.65699
G1 X138.928 Y130.655 E3.69214
G1 X138.235 Y131.321 E3.72731
G1 X137.155 Y132.168 E3.77752
G1 X136.597 Y132.554 E3.80235
G1 X136.384 Y132.697 E3.81173
G1 X134.931 Y133.655 E3.87541
G1 X134.808 Y133.735 E3.88078
G1 X134.192 Y134.13 E3.90755
G1 X133.363 Y134.615 E3.94269
G1 X132.496 Y135.029 E3.97784
G1 X131.597 Y135.369 E4.013
G1 X130.674 Y135.633 E4.04813
G1 X129.731 Y135.82 E4.0833
G1 X128.461 Y135.945 E4.12999
G1 X128.183 Y135.957 E4.14017
G1 X127.746 Y135.968 E4.15616
G1 X127.368 Y135.97 E4.16999
G1 X127.142 Y135.969 E4.17826
G1 X126.443 Y135.959 E4.20384
G1 X125.484 Y135.905 E4.23898
G1 X124.207 Y135.708 E4.28625
G1 X123.668 Y135.593 E4.30641
G1 X121.144 Y135.087 E4.40059
G1 X118.673 Y134.665 E4.49231
G1 X117.559 Y134.506 E4.53348
G1 X117.392 Y134.481 E4.53966
G1 X116.68 Y134.369 E4.56603
G1 X115.738 Y134.18 E4.60118
G1 X114.815 Y133.914 E4.63632
G1 X114.18 Y133.681 E4.66107
G1 X113.671 Y133.477 E4.68113
G1 X112.795 Y133.083 E4.71627
G1 X111.955 Y132.617 E4.75142
G1 X111.41 Y132.263 E4.77519
G1 X110.668 Y131.751 E4.80818
G1 X110.527 Y131.653 E4.81446
G1 X109.816 Y131.146 E4.84641
G1 X107.72 Y129.743 E4.93868
G1 X105.621 Y128.42 E5.02946
G1 X104.273 Y127.622 E5.08677
G1 X104.139 Y127.542 E5.09248
G1 X103.716 Y127.284 E5.11061
G1 X102.917 Y126.75 E5.14577
G1 X102.143 Y126.131 E5.18203
G1 X101.59 Y125.649 E5.20887
G1 X101.461 Y125.536 E5.21514
G1 X100.505 Y124.677 E5.26216
G1 X98.596 Y123.058 E5.35374
G1 X96.668 Y121.514 E5.44411
G1 X94.638 Y119.982 E5.53716
G1 X92.631 Y118.553 E5.6273
G1 X90.547 Y117.157 E5.71907
G1 X88.397 Y115.804 E5.81201
G1 X86.507 Y114.682 E5.89242
G1 X85.498 Y114.101 E5.93502
G1 X84.686 Y113.587 E5.97018
G1 X83.92 Y113.008 E6.00531
G1 X83.205 Y112.367 E6.04044
G1 X82.546 Y111.668 E6.07559
G1 X81.946 Y110.917 E6.11076
G1 X81.412 Y110.119 E6.14589
G1 X80.946 Y109.279 E6.18103
G1 X80.551 Y108.404 E6.21616
G1 X80.23 Y107.498 E6.25132
G1 X79.986 Y106.569 E6.28646
G1 X79.82 Y105.623 E6.3216
G1 X79.738 Y104.763 E6.35321
G1 X79.719 Y104.432 E6.36534
G1 X79.7 Y103.771 E6.38953
G1 X79.7 Y102.322 E6.44255
G1 X79.701 Y102.157 E6.44858
G1 X79.711 Y101.459 E6.47412
G1 X79.765 Y100.5 E6.50927
G1 X79.898 Y99.548 E6.54443
G1 X80.11 Y98.611 E6.57958
G1 X80.399 Y97.695 E6.61472
G1 X80.764 Y96.806 E6.64988
G1 X81.201 Y95.951 E6.68501
G1 X81.707 Y95.135 E6.72014
G1 X82.477 Y94.127 E6.76655
G1 X82.659 Y93.914 E6.7768
G1 X82.956 Y93.58 E6.79315
G1 X83.138 Y93.383 E6.80296
G1 X83.818 Y92.705 E6.8381
G0 F6000 X84.129 Y93.017
G1 F1200 X84.851 Y92.412 E6.87256
G1 X85.622 Y91.87 E6.90704
G1 X86.436 Y91.396 E6.9415
G1 X87.287 Y90.992 E6.97597
G1 X88.169 Y90.662 E7.01042
G1 X89.076 Y90.408 E7.04488
G1 X90.002 Y90.232 E7.07937
G1 X91.209 Y90.121 E7.12371
G1 X92.468 Y90.075 E7.1698
G1 X95.029 Y89.961 E7.26359
G1 X97.557 Y89.776 E7.35633
G1 X100.081 Y89.521 E7.44914
G1 X102.552 Y89.199 E7.54031
G1 X105.012 Y88.808 E7.63145
G1 X107.53 Y88.334 E7.72519
G1 X109.933 Y87.812 E7.81515
G1 X112.367 Y87.21 E7.90689
G1 X114.762 Y86.534 E7.99794
G1 X114.878 Y86.502 E8.00234
G1 X115.551 Y86.32 E8.02784
G1 X116.756 Y86.065 E8.07291
G1 X117.838 Y85.898 E8.11296
G1 X118.002 Y85.874 E8.11903
G1 X118.423 Y85.816 E8.13457
G1 X120.895 Y85.4 E8.22629
G1 X123.018 Y84.982 E8.30545
G1 X124.383 Y84.704 E8.35642
G1 X125.313 Y84.556 E8.39087
G1 X126.356 Y84.484 E8.42912
G1 X126.86 Y84.473 E8.44756
G1 X127.233 Y84.471 E8.46121
G1 X128.081 Y84.481 E8.49224
G1 X129.022 Y84.532 E8.52672
G1 X129.955 Y84.663 E8.56119
G1 X130.873 Y84.872 E8.59563
G1 X131.771 Y85.158 E8.63011
G1 X132.641 Y85.52 E8.66459
G1 X133.686 Y86.077 E8.70791
G1 X133.908 Y86.211 E8.7174
G1 X134.164 Y86.37 E8.72842
G1 X134.348 Y86.488 E8.73642
G1 X134.467 Y86.565 E8.74161
G1 X136.082 Y87.63 E8.81238
G1 X136.201 Y87.71 E8.81763
G1 X136.813 Y88.125 E8.84468
G1 X137.569 Y88.686 E8.87913
G1 X138.276 Y89.31 E8.91363
G1 X138.926 Y89.991 E8.94807
G1 X139.517 Y90.725 E8.98255
G1 X140.044 Y91.506 E9.01702
G1 X140.502 Y92.329 E9.05148
G1 X140.889 Y93.189 E9.08598
G1 X141.201 Y94.077 E9.12041
G1 X141.437 Y94.989 E9.15488
G1 X141.595 Y95.918 E9.18936
G1 X141.679 Y97.011 E9.22946
G1 X141.696 Y97.638 E9.25241
G1 X141.699 Y98.082 E9.26866
G1 X141.689 Y98.856 E9.29698
G1 X141.638 Y99.787 E9.33109
G1 X141.498 Y101.227 E9.38402
G1 X141.362 Y102.7 E9.43814
G1 X141.189 Y105.237 E9.53118
G1 X141.088 Y107.754 E9.62334
G1 X141.059 Y110.272 E9.71547
G1 X141.1 Y112.755 E9.80632
G1 X141.214 Y115.303 E9.89964
G1 X141.397 Y117.793 E9.99098
G1 X141.623 Y120.03 E10.07324
G1 X141.668 Y120.646 E10.09584
G1 X141.689 Y121.114 E10.11298
G1 X141.7 Y121.612 E10.1312
G1 X141.7 Y121.96 E10.14394
G1 X141.699 Y122.115 E10.14961
G1 X141.689 Y122.832 E10.17584
G1 X141.636 Y123.772 E10.21029
G1 X141.503 Y124.705 E10.24477
G1 X141.292 Y125.623 E10.27923
G1 X141.003 Y126.52 E10.31371
G1 X140.64 Y127.389 E10.34816
G1 X140.204 Y128.225 E10.38266
G1 X139.699 Y129.02 E10.41712
G1 X139.128 Y129.77 E10.4516
G1 X138.496 Y130.468 E10.48605
G1 X137.807 Y131.11 E10.52051
G1 X136.905 Y131.806 E10.56219
G1 X136.347 Y132.192 E10.58702
G1 X136.142 Y132.33 E10.59606
G1 X134.689 Y133.288 E10.65973
G1 X134.571 Y133.365 E10.66489
G1 X133.955 Y133.76 E10.69166
G1 X133.141 Y134.234 E10.72612
G1 X132.289 Y134.638 E10.76062
G1 X131.407 Y134.968 E10.79507
G1 X130.5 Y135.222 E10.82953
G1 X129.574 Y135.398 E10.86402
G1 X128.442 Y135.506 E10.90562
G1 X128.164 Y135.518 E10.9158
G1 X127.744 Y135.528 E10.93117
G1 X127.366 Y135.53 E10.945
G1 X127.148 Y135.529 E10.95298
G1 X126.449 Y135.519 E10.97856
G1 X125.509 Y135.465 E11.013
G1 X124.299 Y135.277 E11.0578
G1 X123.76 Y135.162 E11.07797
G1 X121.239 Y134.657 E11.17203
G1 X118.737 Y134.229 E11.2649
G1 X117.621 Y134.07 E11.30614
G1 X117.46 Y134.046 E11.3121
G1 X116.748 Y133.934 E11.33847
G1 X115.825 Y133.748 E11.37292
G1 X114.92 Y133.485 E11.4074
G1 X114.344 Y133.272 E11.42987
G1 X113.835 Y133.068 E11.44993
G1 X112.976 Y132.681 E11.4844
G1 X112.153 Y132.222 E11.51887
G1 X111.66 Y131.901 E11.5404
G1 X110.918 Y131.389 E11.57338
G1 X110.782 Y131.294 E11.57945
G1 X110.063 Y130.782 E11.61174
G1 X107.989 Y129.393 E11.70307
G1 X105.853 Y128.046 E11.79546
G1 X104.497 Y127.244 E11.8531
G1 X104.368 Y127.166 E11.85861
G1 X103.945 Y126.908 E11.87674
G1 X103.162 Y126.384 E11.91121
G1 X102.432 Y125.8 E11.94541
G1 X101.879 Y125.318 E11.97225
G1 X101.755 Y125.208 E11.97831
G1 X100.808 Y124.358 E12.02487
G1 X98.884 Y122.726 E12.11718
G1 X96.933 Y121.163 E12.20864
G1 X94.905 Y119.633 E12.30158
G1 X92.855 Y118.173 E12.39366
G1 X90.799 Y116.796 E12.48419
G1 X88.63 Y115.43 E12.57797
G1 X86.725 Y114.3 E12.65901
G1 X85.718 Y113.72 E12.70153
G1 X84.922 Y113.215 E12.73601
G1 X84.172 Y112.645 E12.77048
G1 X83.473 Y112.014 E12.80493
G1 X82.83 Y111.325 E12.83941
G1 X82.248 Y110.584 E12.87388
G1 X81.731 Y109.797 E12.90833
G1 X81.282 Y108.968 E12.94283
G1 X80.906 Y108.105 E12.97727
G1 X80.604 Y107.212 E13.01176
G1 X80.378 Y106.297 E13.04624
G1 X80.231 Y105.367 E13.08069
G1 X80.177 Y104.738 E13.10378
G1 X80.158 Y104.407 E13.11591
G1 X80.14 Y103.771 E13.13919
G1 X80.14 Y102.322 E13.19221
G1 X80.141 Y102.163 E13.19802
G1 X80.151 Y101.465 E13.22356
G1 X80.205 Y100.524 E13.25805
G1 X80.338 Y99.592 E13.29249
G1 X80.549 Y98.674 E13.32695
G1 X80.838 Y97.777 E13.36143
G1 X81.202 Y96.908 E13.3959
G1 X81.638 Y96.073 E13.43036
G1 X82.143 Y95.278 E13.46482
G1 X82.811 Y94.413 E13.50481
G1 X82.993 Y94.2 E13.51506
G1 X83.279 Y93.879 E13.53079
G1 X83.461 Y93.682 E13.5406
G1 X84.129 Y93.017 E13.57509
G0 F6000 X84.439 Y93.33
G1 F1200 X85.148 Y92.739 E13.60886
G1 X85.906 Y92.211 E13.64265
G1 X86.706 Y91.751 E13.67641
G1 X87.544 Y91.362 E13.71022
G1 X88.411 Y91.046 E13.74398
G1 X89.303 Y90.807 E13.77776
G1 X90.212 Y90.647 E13.81153
G1 X91.225 Y90.561 E13.84873
G1 X92.484 Y90.515 E13.89482
G1 X95.045 Y90.401 E13.98861
G1 X97.597 Y90.215 E14.08222
G1 X100.11 Y89.96 E14.17464
G1 X102.61 Y89.635 E14.26687
G1 X105.124 Y89.235 E14.36001
G1 X107.598 Y88.77 E14.45211
G1 X110.059 Y88.235 E14.54425
G1 X112.471 Y87.638 E14.63516
G1 X114.881 Y86.958 E14.72677
G1 X114.993 Y86.927 E14.73102
G1 X115.666 Y86.745 E14.75653
G1 X116.823 Y86.5 E14.7998
G1 X117.905 Y86.333 E14.83985
G1 X118.062 Y86.31 E14.84566
G1 X118.454 Y86.255 E14.86014
G1 X120.981 Y85.831 E14.95389
G1 X123.139 Y85.406 E15.03436
G1 X124.471 Y85.135 E15.08409
G1 X125.382 Y84.991 E15.11783
G1 X126.365 Y84.924 E15.15388
G1 X126.869 Y84.913 E15.17232
G1 X127.228 Y84.911 E15.18546
G1 X128.076 Y84.921 E15.21649
G1 X128.998 Y84.972 E15.25027
G1 X129.912 Y85.102 E15.28405
G1 X130.811 Y85.311 E15.31781
G1 X131.689 Y85.597 E15.3516
G1 X132.538 Y85.958 E15.38535
G1 X133.459 Y86.454 E15.42362
G1 X133.681 Y86.588 E15.43311
G1 X133.927 Y86.741 E15.44371
G1 X134.111 Y86.859 E15.45171
G1 X134.225 Y86.933 E15.45668
G1 X135.84 Y87.998 E15.52746
G1 X135.954 Y88.074 E15.53247
G1 X136.566 Y88.489 E15.55952
G1 X137.307 Y89.04 E15.59331
G1 X137.997 Y89.653 E15.62707
G1 X138.632 Y90.323 E15.66085
G1 X139.207 Y91.046 E15.69464
G1 X139.717 Y91.815 E15.7284
G1 X140.158 Y92.626 E15.76218
G1 X140.528 Y93.472 E15.79596
G1 X140.822 Y94.347 E15.82973
G1 X141.041 Y95.244 E15.86351
G1 X141.18 Y96.157 E15.8973
G1 X141.239 Y97.023 E15.92906
G1 X141.256 Y97.65 E15.95201
G1 X141.259 Y98.077 E15.96763
G1 X141.249 Y98.851 E15.99595
G1 X141.2 Y99.745 E16.02871
G1 X141.06 Y101.185 E16.08164
G1 X140.923 Y102.669 E16.13616
G1 X140.749 Y105.225 E16.22989
G1 X140.648 Y107.731 E16.32165
G1 X140.619 Y110.239 E16.41342
G1 X140.662 Y112.818 E16.50779
G1 X140.774 Y115.319 E16.59938
G1 X140.959 Y117.833 E16.69161
G1 X141.185 Y120.074 E16.77401
G1 X141.228 Y120.666 E16.79573
G1 X141.249 Y121.134 E16.81287
G1 X141.26 Y121.612 E16.83036
G1 X141.26 Y121.96 E16.84309
G1 X141.259 Y122.109 E16.84854
G1 X141.249 Y122.826 E16.87478
G1 X141.196 Y123.747 E16.90853
G1 X141.064 Y124.661 E16.94232
G1 X140.853 Y125.56 E16.9761
G1 X140.565 Y126.437 E17.00987
G1 X140.202 Y127.286 E17.04365
G1 X139.767 Y128.101 E17.07745
G1 X139.263 Y128.874 E17.11122
G1 X138.695 Y129.602 E17.145
G1 X138.065 Y130.277 E17.17878
G1 X137.379 Y130.895 E17.21256
G1 X136.655 Y131.444 E17.2458
G1 X136.097 Y131.83 E17.27063
G1 X135.9 Y131.963 E17.27932
G1 X134.447 Y132.921 E17.343
G1 X134.333 Y132.995 E17.34797
G1 X133.717 Y133.39 E17.37474
G1 X132.919 Y133.854 E17.40851
G1 X132.084 Y134.247 E17.44228
G1 X131.218 Y134.567 E17.47606
G1 X130.327 Y134.811 E17.50985
G1 X129.419 Y134.976 E17.54362
G1 X128.423 Y135.066 E17.58021
G1 X128.145 Y135.078 E17.59039
G1 X127.741 Y135.088 E17.60517
G1 X127.363 Y135.09 E17.619
G1 X127.155 Y135.089 E17.62661
G1 X126.456 Y135.079 E17.65219
G1 X125.534 Y135.026 E17.68598
G1 X124.39 Y134.847 E17.72834
G1 X123.851 Y134.732 E17.7485
G1 X121.292 Y134.219 E17.84399
G1 X118.835 Y133.799 E17.93519
G1 X117.683 Y133.635 E17.97776
G1 X117.529 Y133.612 E17.98346
G1 X116.817 Y133.5 E18.00983
G1 X115.912 Y133.317 E18.04361
G1 X115.026 Y133.056 E18.0774
G1 X114.507 Y132.864 E18.09764
G1 X113.998 Y132.66 E18.11771
G1 X113.157 Y132.28 E18.15147
G1 X112.352 Y131.828 E18.18525
G1 X111.91 Y131.539 E18.20457
G1 X111.168 Y131.027 E18.23755
G1 X111.038 Y130.936 E18.24336
G1 X110.304 Y130.414 E18.27631
G1 X108.242 Y129.032 E18.36713
G1 X106.076 Y127.666 E18.46082
G1 X104.721 Y126.865 E18.5184
G1 X104.597 Y126.791 E18.52369
G1 X104.174 Y126.533 E18.54181
G1 X103.408 Y126.018 E18.57558
G1 X102.721 Y125.468 E18.60778
G1 X102.168 Y124.986 E18.63462
G1 X102.049 Y124.881 E18.64043
G1 X101.095 Y124.024 E18.68734
G1 X99.148 Y122.373 E18.78074
G1 X97.198 Y120.811 E18.87215
G1 X95.197 Y119.301 E18.96386
G1 X93.102 Y117.81 E19.05794
G1 X91.017 Y116.414 E19.14974
G1 X88.889 Y115.074 E19.24175
G1 X86.942 Y113.918 E19.32459
G1 X85.937 Y113.339 E19.36703
G1 X85.158 Y112.844 E19.40079
G1 X84.425 Y112.283 E19.43456
G1 X83.742 Y111.661 E19.46836
G1 X83.117 Y110.982 E19.50213
G1 X82.552 Y110.252 E19.5359
G1 X82.052 Y109.475 E19.5697
G1 X81.622 Y108.659 E19.60345
G1 X81.264 Y107.808 E19.63723
G1 X80.981 Y106.929 E19.67101
G1 X80.775 Y106.029 E19.70479
G1 X80.617 Y104.713 E19.75328
G1 X80.598 Y104.382 E19.76541
G1 X80.58 Y103.771 E19.78778
G1 X80.58 Y102.322 E19.84079
G1 X80.581 Y102.169 E19.84639
G1 X80.591 Y101.471 E19.87193
