;FLAVOR:Marlin
;TIME:390
;Filament used: 0.122537m
;Layer height: 0.2
;MINX:86.46
;MINY:95.569
;MINZ:0.2
;MAXX:133.54
;MAXY:124.44
;MAXZ:7
;Generated with Cura_SteamEngine 4.2.1
M140 S60
M105
M190 S60
M104 S210
M105
M109 S210
M82 ;absolute extrusion mode
M201 X500.00 Y500.00 Z100.00 E5000.00 ;Setup machine max acceleration
M203 X500.00 Y500.00 Z10.00 E50.00 ;Setup machine max feedrate
M204 P500.00 R1000.00 T500.00 ;Setup Print/Retract/Travel acceleration
M205 X8.00 Y8.00 Z0.40 E5.00 ;Setup Jerk
M220 S100 ;Reset Feedrate
M221 S100 ;Reset Flowrate

G28 ;Home

G92 E0 ;Reset Extruder
G1 Z2.0 F3000 ;Move Z Axis up
G1 X10.1 Y20 Z0.28 F5000.0 ;Move to start position
G1 X10.1 Y200.0 Z0.28 F1500.0 E15 ;Draw the first line
G1 X10.4 Y200.0 Z0.28 F5000.0 ;Move to side a little
G1 X10.4 Y20 Z0.28 F1500.0 E30 ;Draw the second line
G92 E0 ;Reset Extruder
G1 Z2.0 F3000 ;Move Z Axis up

M141 S28
G92 E0
G92 E0
G1 F2700 E-5
;LAYER_COUNT:35
;LAYER:0
M107
G0 F6000 X90.36 Y98.468 Z0.2
;TYPE:SKIRT
G1 F2700 E0
G1 F1200 X91.105 Y97.862 E0.03514
G1 X91.898 Y97.32 E0.07028
G1 X92.733 Y96.845 E0.10542
G1 X93.605 Y96.442 E0.14057
G1 X94.508 Y96.113 E0.17573
G1 X95.434 Y95.86 E0.21085
G1 X96.379 Y95.685 E0.24601
G1 X97.335 Y95.589 E0.28117
G1 X98.051 Y95.569 E0.30737
G1 X98.324 Y95.57 E0.31736
G1 X99.41 Y95.625 E0.35714
G1 X100.408 Y95.723 E0.39383
G1 X100.576 Y95.741 E0.40001
G1 X101.238 Y95.816 E0.42439
G1 X103.736 Y96.028 E0.51611
G1 X106.276 Y96.172 E0.60919
G1 X108.724 Y96.24 E0.69878
G1 X111.253 Y96.24 E0.79131
G1 X113.718 Y96.169 E0.88153
G1 X116.275 Y96.024 E0.97523
G1 X118.725 Y95.816 E1.06519
G1 X119.003 Y95.784 E1.07543
G1 X119.164 Y95.767 E1.08135
G1 X120.511 Y95.632 E1.13088
G1 X121.454 Y95.576 E1.16544
G1 X121.731 Y95.571 E1.17558
G1 X122.299 Y95.575 E1.19636
G1 X122.331 Y95.576 E1.19753
G1 X123.29 Y95.646 E1.23271
G1 X124.238 Y95.795 E1.26782
G1 X125.172 Y96.023 E1.303
G1 X126.083 Y96.327 E1.33813
G1 X126.965 Y96.707 E1.37327
G1 X127.813 Y97.158 E1.40841
G1 X128.621 Y97.679 E1.44358
G1 X129.382 Y98.264 E1.4787
G1 X130.092 Y98.911 E1.51385
G1 X130.746 Y99.615 E1.549
G1 X131.339 Y100.371 E1.58415
G1 X131.867 Y101.173 E1.61928
G1 X132.326 Y102.017 E1.65443
G1 X132.714 Y102.896 E1.68959
G1 X133.027 Y103.804 E1.72473
G1 X133.264 Y104.735 E1.75987
G1 X133.422 Y105.683 E1.79504
G1 X133.508 Y106.837 E1.83737
G1 X133.531 Y107.808 E1.87291
G1 X133.534 Y108.049 E1.88173
G1 X133.54 Y110.21 E1.96079
G1 X133.54 Y112.164 E2.03228
G1 X133.539 Y112.323 E2.0381
G1 X133.529 Y113.05 E2.0647
G1 X133.476 Y114.009 E2.09984
G1 X133.343 Y114.96 E2.13497
G1 X133.132 Y115.897 E2.17011
G1 X132.843 Y116.814 E2.20528
G1 X132.479 Y117.703 E2.24043
G1 X132.043 Y118.558 E2.27554
G1 X131.536 Y119.375 E2.31072
G1 X130.964 Y120.146 E2.34585
G1 X130.329 Y120.868 E2.38102
G1 X129.637 Y121.533 E2.41614
G1 X128.892 Y122.14 E2.45129
G1 X128.099 Y122.682 E2.48644
G1 X127.263 Y123.156 E2.5216
G1 X126.391 Y123.559 E2.55674
G1 X125.489 Y123.888 E2.59187
G1 X124.562 Y124.141 E2.62703
G1 X123.617 Y124.316 E2.66219
G1 X122.314 Y124.426 E2.71003
G1 X121.994 Y124.435 E2.72174
G1 X121.67 Y124.44 E2.7336
G1 X98.707 Y124.44 E3.57372
G1 X98.558 Y124.439 E3.57918
G1 X97.86 Y124.43 E3.60471
G1 X96.901 Y124.378 E3.63985
G1 X95.949 Y124.246 E3.67502
G1 X95.012 Y124.035 E3.71015
G1 X94.096 Y123.747 E3.74529
G1 X93.206 Y123.384 E3.78045
G1 X92.35 Y122.948 E3.8156
G1 X91.533 Y122.443 E3.85074
G1 X90.761 Y121.871 E3.88589
G1 X90.04 Y121.237 E3.92102
G1 X89.373 Y120.546 E3.95615
G1 X88.766 Y119.801 E3.99131
G1 X88.224 Y119.008 E4.02645
G1 X87.749 Y118.173 E4.0616
G1 X87.345 Y117.301 E4.09676
G1 X87.015 Y116.399 E4.1319
G1 X86.761 Y115.473 E4.16703
G1 X86.586 Y114.528 E4.20219
G1 X86.473 Y113.203 E4.25085
G1 X86.464 Y112.87 E4.26303
G1 X86.46 Y112.558 E4.27445
G1 X86.46 Y107.774 E4.44948
G1 X86.461 Y107.618 E4.45519
G1 X86.47 Y106.953 E4.47952
G1 X86.523 Y105.994 E4.51466
G1 X86.656 Y105.042 E4.54983
G1 X86.867 Y104.105 E4.58496
G1 X87.155 Y103.189 E4.6201
G1 X87.519 Y102.3 E4.65524
G1 X87.955 Y101.444 E4.69039
G1 X88.461 Y100.627 E4.72555
G1 X89.033 Y99.856 E4.76067
G1 X89.668 Y99.134 E4.79585
G1 X90.36 Y98.468 E4.83099
G0 F6000 X90.788 Y98.679
G1 F1200 X91.529 Y98.097 E4.86546
G1 X92.317 Y97.58 E4.89994
G1 X93.146 Y97.131 E4.93443
G1 X94.009 Y96.755 E4.96887
G1 X94.902 Y96.453 E5.00336
G1 X95.816 Y96.228 E5.0378
G1 X96.747 Y96.081 E5.07228
G1 X98.05 Y96.009 E5.12003
G1 X98.323 Y96.01 E5.13002
G1 X99.367 Y96.063 E5.16826
G1 X100.365 Y96.161 E5.20495
G1 X100.526 Y96.178 E5.21087
G1 X101.22 Y96.256 E5.23642
G1 X103.71 Y96.468 E5.32785
G1 X106.204 Y96.609 E5.41924
G1 X108.748 Y96.68 E5.51236
G1 X111.266 Y96.68 E5.60448
G1 X113.755 Y96.609 E5.69558
G1 X116.266 Y96.466 E5.7876
G1 X118.778 Y96.252 E5.87983
G1 X119.053 Y96.221 E5.88996
G1 X119.208 Y96.204 E5.89566
G1 X120.555 Y96.069 E5.94519
G1 X121.462 Y96.016 E5.97843
G1 X121.739 Y96.011 E5.98857
G1 X122.286 Y96.014 E6.00858
G1 X122.318 Y96.015 E6.00975
G1 X123.257 Y96.085 E6.0442
G1 X124.188 Y96.234 E6.0787
G1 X125.102 Y96.461 E6.11315
G1 X125.994 Y96.765 E6.14763
G1 X126.856 Y97.143 E6.18207
G1 X127.684 Y97.593 E6.21655
G1 X128.471 Y98.112 E6.25104
G1 X129.21 Y98.695 E6.28547
G1 X129.898 Y99.34 E6.31998
G1 X130.528 Y100.04 E6.35443
G1 X131.097 Y100.791 E6.3889
G1 X131.6 Y101.588 E6.42339
G1 X132.033 Y102.424 E6.45783
G1 X132.394 Y103.294 E6.49229
G1 X132.681 Y104.192 E6.52678
G1 X132.889 Y105.11 E6.56122
G1 X133.02 Y106.044 E6.59573
G1 X133.068 Y106.847 E6.62516
G1 X133.091 Y107.818 E6.66069
G1 X133.094 Y108.05 E6.66918
G1 X133.1 Y110.211 E6.74824
G1 X133.1 Y112.164 E6.8197
G1 X133.099 Y112.317 E6.82529
G1 X133.089 Y113.044 E6.8519
G1 X133.036 Y113.984 E6.88634
G1 X132.904 Y114.917 E6.92082
G1 X132.692 Y115.835 E6.95529
G1 X132.404 Y116.732 E6.98975
G1 X132.041 Y117.601 E7.02421
G1 X131.605 Y118.437 E7.05871
G1 X131.1 Y119.232 E7.09316
G1 X130.53 Y119.982 E7.12763
G1 X129.898 Y120.681 E7.16211
G1 X129.209 Y121.323 E7.19656
G1 X128.468 Y121.905 E7.23103
G1 X127.68 Y122.422 E7.26551
G1 X126.851 Y122.87 E7.29999
G1 X125.988 Y123.246 E7.33443
G1 X125.095 Y123.548 E7.36892
G1 X124.18 Y123.773 E7.40339
G1 X123.25 Y123.919 E7.43783
G1 X122.302 Y123.987 E7.47261
G1 X121.982 Y123.996 E7.48432
G1 X121.67 Y124 E7.49574
G1 X98.707 Y124 E8.33586
G1 X98.564 Y123.999 E8.34109
G1 X97.866 Y123.99 E8.36663
G1 X96.925 Y123.938 E8.40111
G1 X95.992 Y123.806 E8.43559
G1 X95.074 Y123.596 E8.47004
G1 X94.177 Y123.308 E8.50451
G1 X93.307 Y122.946 E8.53899
G1 X92.471 Y122.511 E8.57346
G1 X91.676 Y122.007 E8.6079
G1 X90.925 Y121.437 E8.6424
G1 X90.226 Y120.805 E8.67687
G1 X89.583 Y120.117 E8.71133
G1 X89.001 Y119.376 E8.7458
G1 X88.483 Y118.589 E8.78027
G1 X88.034 Y117.761 E8.81473
G1 X87.657 Y116.897 E8.84922
G1 X87.355 Y116.005 E8.88367
G1 X87.129 Y115.091 E8.91812
G1 X86.982 Y114.16 E8.9526
G1 X86.913 Y113.191 E8.98815
G1 X86.904 Y112.858 E9.00033
G1 X86.9 Y112.558 E9.01131
G1 X86.9 Y107.774 E9.18634
G1 X86.901 Y107.624 E9.19183
G1 X86.91 Y106.959 E9.21616
G1 X86.963 Y106.018 E9.25064
G1 X87.095 Y105.085 E9.28512
G1 X87.306 Y104.167 E9.31958
G1 X87.594 Y103.27 E9.35405
G1 X87.957 Y102.401 E9.3885
G1 X88.392 Y101.565 E9.42298
G1 X88.897 Y100.77 E9.45744
G1 X89.468 Y100.02 E9.49193
G1 X90.1 Y99.321 E9.5264
G1 X90.788 Y98.679 E9.56083
G0 F6000 X91.216 Y98.894
G1 F1200 X91.952 Y98.337 E9.5946
G1 X92.734 Y97.846 E9.62838
G1 X93.556 Y97.424 E9.66219
G1 X94.41 Y97.075 E9.69594
G1 X95.292 Y96.801 E9.72973
G1 X96.194 Y96.605 E9.7635
G1 X97.11 Y96.487 E9.79729
G1 X98.048 Y96.449 E9.83164
G1 X98.321 Y96.45 E9.84163
G1 X99.324 Y96.501 E9.87837
G1 X100.322 Y96.599 E9.91506
G1 X100.477 Y96.615 E9.92076
G1 X101.171 Y96.693 E9.94631
G1 X103.685 Y96.907 E10.03862
G1 X106.201 Y97.049 E10.13082
G1 X108.736 Y97.12 E10.2236
G1 X111.244 Y97.12 E10.31536
G1 X113.792 Y97.047 E10.40862
G1 X116.291 Y96.905 E10.50019
G1 X118.832 Y96.689 E10.59349
G1 X119.103 Y96.658 E10.60347
G1 X119.252 Y96.642 E10.60896
G1 X120.599 Y96.507 E10.65848
G1 X121.47 Y96.456 E10.69041
G1 X121.747 Y96.451 E10.70054
G1 X122.272 Y96.454 E10.71975
G1 X122.304 Y96.455 E10.72092
G1 X123.225 Y96.524 E10.75471
G1 X124.136 Y96.672 E10.78848
G1 X125.031 Y96.899 E10.82226
G1 X125.903 Y97.202 E10.85603
G1 X126.746 Y97.579 E10.88982
G1 X127.552 Y98.028 E10.92357
G1 X128.317 Y98.545 E10.95736
G1 X129.035 Y99.126 E10.99115
G1 X129.699 Y99.767 E11.02491
G1 X130.305 Y100.464 E11.0587
G1 X130.849 Y101.21 E11.09248
G1 X131.326 Y102 E11.12625
G1 X131.734 Y102.829 E11.16005
G1 X132.067 Y103.69 E11.19383
G1 X132.325 Y104.576 E11.22759
G1 X132.506 Y105.481 E11.26135
G1 X132.628 Y106.858 E11.31193
G1 X132.651 Y107.829 E11.34746
G1 X132.654 Y108.051 E11.35559
G1 X132.66 Y110.212 E11.43465
G1 X132.66 Y112.164 E11.50607
G1 X132.659 Y112.311 E11.51145
G1 X132.649 Y113.038 E11.53805
G1 X132.596 Y113.959 E11.5718
G1 X132.464 Y114.873 E11.60558
G1 X132.253 Y115.772 E11.63937
G1 X131.966 Y116.649 E11.67313
G1 X131.603 Y117.498 E11.70691
G1 X131.168 Y118.313 E11.74071
G1 X130.665 Y119.087 E11.77448
G1 X130.096 Y119.814 E11.80826
G1 X129.467 Y120.489 E11.84201
G1 X128.781 Y121.108 E11.87582
G1 X128.045 Y121.665 E11.90959
G1 X127.263 Y122.156 E11.94337
G1 X126.441 Y122.577 E11.97716
G1 X125.586 Y122.926 E12.01095
G1 X124.705 Y123.2 E12.0447
G1 X123.803 Y123.396 E12.07847
G1 X122.887 Y123.513 E12.11226
G1 X122.29 Y123.547 E12.13414
G1 X121.97 Y123.556 E12.14585
G1 X121.67 Y123.56 E12.15682
G1 X98.707 Y123.56 E12.99695
G1 X98.57 Y123.559 E13.00196
G1 X97.872 Y123.55 E13.0275
G1 X96.95 Y123.498 E13.06129
G1 X96.036 Y123.367 E13.09507
G1 X95.137 Y123.157 E13.12885
G1 X94.259 Y122.87 E13.16264
G1 X93.41 Y122.508 E13.19641
G1 X92.595 Y122.074 E13.23019
G1 X91.821 Y121.571 E13.26396
G1 X91.093 Y121.003 E13.29775
G1 X90.417 Y120.374 E13.33153
G1 X89.798 Y119.689 E13.36531
G1 X89.241 Y118.953 E13.39908
G1 X88.749 Y118.172 E13.43285
G1 X88.327 Y117.351 E13.46662
G1 X87.977 Y116.496 E13.50042
G1 X87.703 Y115.615 E13.53418
G1 X87.506 Y114.713 E13.56796
G1 X87.388 Y113.797 E13.60175
G1 X87.353 Y113.179 E13.62439
G1 X87.344 Y112.846 E13.63658
G1 X87.34 Y112.558 E13.64712
G1 X87.34 Y107.774 E13.82215
G1 X87.341 Y107.63 E13.82741
G1 X87.35 Y106.965 E13.85175
G1 X87.402 Y106.043 E13.88553
G1 X87.534 Y105.129 E13.91932
G1 X87.745 Y104.23 E13.9531
G1 X88.033 Y103.353 E13.98688
G1 X88.395 Y102.504 E14.02064
G1 X88.83 Y101.689 E14.05444
G1 X89.333 Y100.915 E14.08821
G1 X89.901 Y100.188 E14.12197
G1 X90.531 Y99.512 E14.15577
G1 X91.216 Y98.894 E14.18953
G0 F6000 X90.961 Y99.708
G1 F1200 X91.643 Y99.114 E14.22262
G1 X92.374 Y98.583 E14.25567
G1 X93.15 Y98.118 E14.28877
G1 X93.963 Y97.724 E14.32182
G1 X94.809 Y97.403 E14.35493
G1 X95.679 Y97.158 E14.388
G1 X96.567 Y96.991 E14.42106
G1 X97.467 Y96.903 E14.45414
G1 X98.046 Y96.889 E14.47533
G1 X98.319 Y96.89 E14.48532
G1 X99.281 Y96.939 E14.52056
G1 X100.279 Y97.037 E14.55725
G1 X100.427 Y97.053 E14.56269
G1 X101.117 Y97.131 E14.5881
G1 X103.624 Y97.344 E14.68015
G1 X106.199 Y97.489 E14.77451
G1 X108.723 Y97.56 E14.86689
G1 X111.256 Y97.56 E14.95956
G1 X113.795 Y97.487 E15.05249
G1 X116.355 Y97.342 E15.1463
G1 X118.849 Y97.13 E15.23788
G1 X119.153 Y97.095 E15.24907
G1 X119.296 Y97.08 E15.25433
G1 X120.643 Y96.945 E15.30386
G1 X121.478 Y96.896 E15.33447
G1 X121.755 Y96.891 E15.3446
G1 X122.258 Y96.894 E15.363
G1 X122.29 Y96.895 E15.36418
G1 X123.192 Y96.963 E15.39727
G1 X124.084 Y97.111 E15.43035
G1 X124.959 Y97.337 E15.46341
G1 X125.811 Y97.639 E15.49649
G1 X126.633 Y98.015 E15.52956
G1 X127.418 Y98.463 E15.56263
G1 X128.161 Y98.978 E15.5957
G1 X128.855 Y99.557 E15.62877
G1 X129.496 Y100.195 E15.66186
G1 X130.078 Y100.887 E15.69494
G1 X130.596 Y101.627 E15.72798
G1 X131.047 Y102.411 E15.76108
G1 X131.426 Y103.231 E15.79413
G1 X131.732 Y104.082 E15.82721
G1 X131.961 Y104.956 E15.86027
G1 X132.113 Y105.848 E15.89337
G1 X132.188 Y106.868 E15.93079
G1 X132.211 Y107.839 E15.96633
G1 X132.214 Y108.053 E15.97416
G1 X132.22 Y110.214 E16.05322
G1 X132.22 Y112.164 E16.12456
G1 X132.219 Y112.305 E16.12972
G1 X132.209 Y113.032 E16.15632
G1 X132.157 Y113.934 E16.18938
G1 X132.025 Y114.828 E16.22244
G1 X131.814 Y115.707 E16.25551
G1 X131.527 Y116.565 E16.28861
G1 X131.165 Y117.393 E16.32168
G1 X130.731 Y118.186 E16.35475
G1 X130.229 Y118.938 E16.38783
G1 X129.663 Y119.642 E16.42088
G1 X129.036 Y120.294 E16.45397
G1 X128.354 Y120.888 E16.48706
G1 X127.623 Y121.419 E16.52012
G1 X126.847 Y121.883 E16.5532
G1 X126.034 Y122.277 E16.58625
G1 X125.188 Y122.598 E16.61935
G1 X124.318 Y122.842 E16.65241
G1 X123.43 Y123.009 E16.68547
G1 X122.277 Y123.107 E16.72781
G1 X121.957 Y123.116 E16.73952
G1 X121.67 Y123.12 E16.75002
G1 X98.707 Y123.12 E17.59015
G1 X98.575 Y123.119 E17.59498
G1 X97.877 Y123.11 E17.62052
G1 X96.975 Y123.059 E17.65357
G1 X96.08 Y122.927 E17.68667
G1 X95.201 Y122.718 E17.71972
G1 X94.344 Y122.431 E17.75279
G1 X93.515 Y122.07 E17.78587
G1 X92.721 Y121.637 E17.81896
G1 X91.969 Y121.135 E17.85204
G1 X91.264 Y120.569 E17.88512
G1 X90.612 Y119.943 E17.91819
G1 X90.018 Y119.262 E17.95125
G1 X89.486 Y118.531 E17.98432
G1 X89.021 Y117.756 E18.01739
G1 X88.626 Y116.943 E18.05046
G1 X88.305 Y116.098 E18.08353
G1 X88.06 Y115.228 E18.1166
G1 X87.892 Y114.339 E18.1497
G1 X87.793 Y113.167 E18.19273
G1 X87.784 Y112.834 E18.20492
G1 X87.78 Y112.558 E18.21502
G1 X87.78 Y107.774 E18.39005
G1 X87.781 Y107.636 E18.39509
G1 X87.79 Y106.971 E18.41943
G1 X87.842 Y106.068 E18.45252
G1 X87.974 Y105.174 E18.48558
G1 X88.184 Y104.295 E18.51865
G1 X88.471 Y103.437 E18.55175
G1 X88.833 Y102.609 E18.58481
G1 X89.267 Y101.816 E18.61788
G1 X89.768 Y101.064 E18.65094
G1 X90.335 Y100.359 E18.68404
G1 X90.961 Y99.708 E18.71708
G1 F2700 E13.71708
;MESH:cableChain_linkCover_v2.stl
G0 F6000 X97.335 Y112.24
G0 X98.758 Y112.24
;TYPE:WALL-INNER
G1 F2700 E18.71708
G1 F1200 X98.66 Y112.24 E18.72067
G1 X98.66 Y111.954 E18.73113
G1 X98.747 Y112.209 E18.73202
G1 X98.758 Y112.24
G0 F6000 X98.66 Y109.503
G1 F1200 X98.66 Y108.364 E18.77369
G1 X99.402 Y109.072 E18.81121
G1 X98.66 Y109.503 E18.8426
G1 F2700 E13.8426
G0 F6000 X99.899 Y110.307
G0 X120.101 Y110.312
G0 X121.339 Y109.498
G1 F2700 E18.8426
G1 F1200 X120.6 Y109.079 E18.87369
G1 X121.335 Y108.37 E18.91105
G1 X121.339 Y109.498 E18.95232
G1 F2700 E13.95232
G0 F6000 X122.665 Y109.927
G0 X122.665 Y112.68
G0 X121.78 Y112.68
;TYPE:WALL-OUTER
G1 F2700 E18.95232
G1 F1200 X98.22 Y112.68 E19.81429
G1 X98.22 Y107.85 E19.991
G1 X98.22 Y107.848 E19.99107
G1 X98.22 Y107.336 E20.0098
G1 X98.591 Y107.69 E20.01994
G1 X99.89 Y108.93 E20.08564
G1 X100.02 Y109.054 E20.09221
G1 X100.02 Y109.222 E20.09836
G1 X99.864 Y109.312 E20.10495
G1 X99.02 Y109.802 E20.14065
G1 X99.02 Y111.648 E20.20819
G1 X99.1 Y111.88 E20.21717
G1 X120.98 Y111.88 E21.01767
G1 X120.98 Y109.8 E21.09377
G1 X120.138 Y109.322 E21.1292
G1 X119.98 Y109.233 E21.13583
G1 X119.98 Y109.065 E21.14198
G1 X120.11 Y108.939 E21.1486
G1 X121.402 Y107.693 E21.21427
G1 X121.772 Y107.336 E21.23308
G1 X121.772 Y107.85 E21.24323
G1 X121.773 Y107.851 E21.24329
G1 X121.78 Y109.929 E21.31931
G1 X121.78 Y112.68 E21.41996
G0 F6000 X121.302 Y112.279
;TYPE:SKIN
G1 F1200 X121.378 Y112.045 E21.42644
G1 X121.378 Y109.867 E21.48385
G1 X121.095 Y108.961 E21.50886
G1 X121.554 Y107.864 E21.54021
G1 F2700 E16.54021
G0 F6000 X122.658 Y107.889
G0 X122.642 Y106.447
G0 X121.434 Y106.438
G0 X119.099 Y108.692
G0 X119.101 Y109.737
G0 X120.107 Y111.007
G0 X120.991 Y112.279
G1 F2700 E21.54021
G1 F1200 X120.68 Y112.279 E21.55042
G1 X107.612 Y112.278 E21.97976
G1 X99.211 Y112.278 E22.25577
G1 X99.048 Y112.426 E22.263
G1 X98.555 Y111.622 E22.29399
