;FLAVOR:Marlin
;TIME:8829
;Filament used: 4.95853m
;Layer height: 0.18
;MINX:40.91
;MINY:30.647
;MINZ:0.2
;MAXX:131.59
;MAXY:167.346
;MAXZ:20
;Generated with Cura_SteamEngine 4.2.1
M140 S50
M105
M190 S50
M104 S200
M105
M109 S200
M82 ;absolute extrusion mode
M201 X500.00 Y500.00 Z100.00 E5000.00 ;Setup machine max acceleration
M203 X500.00 Y500.00 Z10.00 E50.00 ;Setup machine max feedrate
M204 P500.00 R1000.00 T500.00 ;Setup Print/Retract/Travel acceleration
M205 X8.00 Y8.00 Z0.40 E5.00 ;Setup Jerk
M220 S100 ;Reset Feedrate
M221 S100 ;Reset Flowrate

G28 ;Home

G92 E0 ;Reset Extruder
G1 Z2.0 F3000 ;Move Z Axis up
G1 X10.1 Y20 Z0.28 F5000.0 ;Move to start position
G1 X10.1 Y200.0 Z0.28 F1500.0 E15 ;Draw the first line
G1 X10.4 Y200.0 Z0.28 F5000.0 ;Move to side a little
G1 X10.4 Y20 Z0.28 F1500.0 E30 ;Draw the second line
G92 E0 ;Reset Extruder
G1 Z2.0 F3000 ;Move Z Axis up

M141 S28
G92 E0
G92 E0
G1 F2700 E-5
;LAYER_COUNT:112
;LAYER:0
M107
G0 F6000 X81.115 Y40.887 Z0.2
;TYPE:SKIRT
G1 F2700 E0
G1 F1200 X81.56 Y40.035 E0.03517
G1 X82.074 Y39.224 E0.0703
G1 X82.513 Y38.632 E0.09726
G1 X83.06 Y37.942 E0.12947
G1 X83.184 Y37.788 E0.13671
G1 X83.473 Y37.436 E0.15337
G1 X83.595 Y37.29 E0.16033
G1 X84.017 Y36.793 E0.18419
G1 X84.669 Y36.087 E0.21935
G1 X85.377 Y35.438 E0.25449
G1 X85.93 Y35 E0.28029
G1 X86.674 Y34.447 E0.31421
G1 X86.851 Y34.319 E0.3222
G1 X87.159 Y34.099 E0.33605
G1 X87.286 Y34.009 E0.34174
G1 X87.858 Y33.612 E0.36722
G1 X88.669 Y33.097 E0.40237
G1 X89.521 Y32.652 E0.43753
G1 X90.199 Y32.359 E0.46456
G1 X91.027 Y32.032 E0.49713
G1 X91.211 Y31.961 E0.50434
G1 X91.6 Y31.815 E0.51954
G1 X91.758 Y31.757 E0.5257
G1 X92.427 Y31.517 E0.55171
G1 X93.344 Y31.23 E0.58686
G1 X94.282 Y31.021 E0.62202
G1 X95.272 Y30.887 E0.65857
G1 X95.512 Y30.865 E0.66739
G1 X97.159 Y30.702 E0.72794
G1 X98.118 Y30.647 E0.76308
G1 X99.079 Y30.673 E0.79825
G1 X100.009 Y30.774 E0.83248
G1 X100.815 Y30.895 E0.8623
G1 X101.087 Y30.939 E0.87238
G1 X102.238 Y31.14 E0.91513
G1 X103.177 Y31.345 E0.95029
G1 X104.095 Y31.626 E0.98542
G1 X104.848 Y31.922 E1.01502
G1 X105.645 Y32.268 E1.0468
G1 X105.831 Y32.351 E1.05426
G1 X106.222 Y32.529 E1.06997
G1 X106.375 Y32.6 E1.07615
G1 X107.003 Y32.897 E1.10156
G1 X107.853 Y33.343 E1.13668
G1 X108.664 Y33.859 E1.17185
G1 X109.235 Y34.284 E1.19789
G1 X109.933 Y34.837 E1.23047
G1 X110.083 Y34.957 E1.2375
G1 X110.427 Y35.239 E1.25377
G1 X110.58 Y35.367 E1.26107
G1 X111.077 Y35.789 E1.28493
G1 X111.783 Y36.441 E1.32009
G1 X112.432 Y37.149 E1.35522
G1 X112.871 Y37.704 E1.38111
G1 X113.423 Y38.447 E1.41498
G1 X113.546 Y38.615 E1.4226
G1 X113.752 Y38.903 E1.43555
G1 X113.847 Y39.038 E1.44159
G1 X114.264 Y39.639 E1.46835
G1 X114.779 Y40.451 E1.50353
G1 X115.224 Y41.302 E1.53867
G1 X115.596 Y42.188 E1.57382
G1 X115.833 Y42.891 E1.60097
G1 X116.073 Y43.688 E1.63142
G1 X116.146 Y43.941 E1.64105
G1 X116.379 Y44.784 E1.67305
G1 X116.425 Y44.955 E1.67953
G1 X116.608 Y45.659 E1.70614
G1 X116.811 Y46.598 E1.74129
G1 X116.899 Y47.205 E1.76373
G1 X116.975 Y47.847 E1.78738
G1 X117.011 Y48.194 E1.80015
G1 X117.076 Y48.934 E1.82732
G1 X117.115 Y49.596 E1.85159
G1 X117.147 Y50.671 E1.89093
G1 X117.259 Y53.239 E1.98498
G1 X117.439 Y55.736 E2.07657
G1 X117.684 Y58.186 E2.16665
G1 X118.01 Y60.704 E2.25954
G1 X118.403 Y63.193 E2.35174
G1 X118.856 Y65.612 E2.44178
G1 X119.381 Y68.042 E2.53273
G1 X119.992 Y70.522 E2.62618
G1 X120.651 Y72.909 E2.71678
G1 X121.384 Y75.293 E2.80803
G1 X122.201 Y77.707 E2.90127
G1 X123.052 Y80.004 E2.99089
G1 X124.001 Y82.359 E3.08378
G1 X124.99 Y84.629 E3.17437
G1 X126.067 Y86.92 E3.26699
G1 X127.173 Y89.11 E3.35675
G1 X128.386 Y91.354 E3.45008
G1 X129.664 Y93.562 E3.54342
G1 X129.948 Y94.037 E3.56366
G1 X130.406 Y94.882 E3.59883
G1 X130.792 Y95.761 E3.63395
G1 X131.103 Y96.67 E3.6691
G1 X131.338 Y97.602 E3.70427
G1 X131.494 Y98.549 E3.73938
G1 X131.575 Y99.6 E3.77795
G1 X131.585 Y99.927 E3.78992
G1 X131.59 Y100.28 E3.80283
G1 X131.59 Y119.314 E4.49921
G1 X131.589 Y119.473 E4.50503
G1 X131.579 Y120.2 E4.53163
G1 X131.526 Y121.159 E4.56677
G1 X131.393 Y122.11 E4.6019
G1 X131.182 Y123.047 E4.63704
G1 X130.893 Y123.964 E4.67222
G1 X130.529 Y124.853 E4.70736
G1 X130.093 Y125.708 E4.74248
G1 X129.586 Y126.525 E4.77766
G1 X129.014 Y127.296 E4.81278
G1 X128.379 Y128.018 E4.84796
G1 X127.687 Y128.683 E4.88307
G1 X126.942 Y129.29 E4.91823
G1 X126.149 Y129.832 E4.95337
G1 X125.313 Y130.306 E4.98853
G1 X124.441 Y130.709 E5.02368
G1 X123.442 Y131.068 E5.06252
G1 X121.078 Y131.797 E5.15302
G1 X118.654 Y132.618 E5.24666
G1 X116.329 Y133.478 E5.33735
G1 X114.004 Y134.415 E5.42906
G1 X111.716 Y135.412 E5.52037
G1 X109.471 Y136.467 E5.61113
G1 X107.214 Y137.607 E5.70364
G1 X105.018 Y138.794 E5.79497
G1 X102.839 Y140.054 E5.88706
G1 X100.727 Y141.356 E5.97783
G1 X98.621 Y142.737 E6.06997
G1 X96.572 Y144.167 E6.16139
G1 X94.595 Y145.631 E6.25139
G1 X92.581 Y147.212 E6.34507
G1 X90.669 Y148.803 E6.43607
G1 X88.784 Y150.463 E6.52796
G1 X86.988 Y152.137 E6.61779
G1 X85.196 Y153.906 E6.70992
G1 X83.451 Y155.729 E6.80224
G1 X81.774 Y157.582 E6.89368
G1 X80.157 Y159.475 E6.98476
G1 X78.096 Y162.049 E7.1054
G1 X77.486 Y162.84 E7.14195
G1 X76.868 Y163.576 E7.17711
G1 X76.191 Y164.257 E7.21224
G1 X75.46 Y164.88 E7.24738
G1 X74.679 Y165.44 E7.28254
G1 X73.855 Y165.933 E7.31767
G1 X72.992 Y166.356 E7.35284
G1 X72.097 Y166.705 E7.38798
G1 X71.177 Y166.979 E7.4231
G1 X70.236 Y167.176 E7.45828
G1 X69.283 Y167.293 E7.49341
G1 X68.639 Y167.327 E7.517
G1 X68.042 Y167.342 E7.53885
G1 X67.745 Y167.346 E7.54972
G1 X57.371 Y167.34 E7.92926
G1 X57.215 Y167.339 E7.93497
G1 X56.578 Y167.33 E7.95828
G1 X55.619 Y167.276 E7.99342
G1 X54.667 Y167.143 E8.02859
G1 X53.73 Y166.931 E8.06373
G1 X52.814 Y166.642 E8.09887
G1 X51.925 Y166.278 E8.13402
G1 X51.07 Y165.841 E8.16915
G1 X50.254 Y165.335 E8.20428
G1 X49.482 Y164.762 E8.23945
G1 X48.761 Y164.127 E8.2746
G1 X48.096 Y163.435 E8.30972
G1 X47.49 Y162.689 E8.34488
G1 X47.121 Y162.165 E8.36833
G1 X46.636 Y161.433 E8.40045
G1 X46.606 Y161.388 E8.40243
G1 X45.141 Y159.154 E8.50017
G1 X43.584 Y156.925 E8.59965
G1 X43.077 Y156.222 E8.63136
G1 X42.548 Y155.42 E8.66651
G1 X42.088 Y154.576 E8.70168
G1 X41.7 Y153.698 E8.7368
G1 X41.386 Y152.79 E8.77195
G1 X41.149 Y151.859 E8.8071
G1 X40.99 Y150.912 E8.84223
G1 X40.91 Y149.954 E8.8774
G1 X40.91 Y148.994 E8.91252
G1 X40.99 Y148.036 E8.94769
G1 X41.086 Y147.412 E8.97079
G1 X41.174 Y146.928 E8.98879
G1 X41.241 Y146.588 E9.00147
G1 X41.613 Y144.841 E9.06682
G1 X42.061 Y142.403 E9.15751
G1 X42.448 Y139.9 E9.25017
G1 X42.756 Y137.445 E9.34069
G1 X43.029 Y134.6 E9.44526
G1 X43.079 Y134.163 E9.46135
G1 X43.202 Y133.25 E9.49506
G1 X43.296 Y132.67 E9.51655
G1 X44.999 Y123.563 E9.85552
G1 X45.029 Y123.405 E9.8614
G1 X45.167 Y122.72 E9.88697
G1 X45.318 Y122.069 E9.91142
G1 X45.518 Y121.307 E9.94024
G1 X45.565 Y121.135 E9.94676
G1 X49.257 Y107.905 E10.44929
G1 X49.299 Y107.756 E10.45496
G1 X49.486 Y107.119 E10.47925
G1 X49.702 Y106.458 E10.50469
G1 X50.005 Y105.617 E10.53739
G1 X50.07 Y105.442 E10.54422
G1 X51.899 Y100.612 E10.73318
G1 X51.96 Y100.455 E10.73934
G1 X52.261 Y99.694 E10.76928
G1 X52.365 Y99.438 E10.77939
G1 X52.553 Y98.994 E10.79703
G1 X52.608 Y98.867 E10.8021
G1 X57.935 Y86.697 E11.28814
G1 X58 Y86.551 E11.29398
G1 X58.323 Y85.84 E11.32255
G1 X58.672 Y85.137 E11.35127
G1 X58.962 Y84.599 E11.37363
G1 X59.055 Y84.43 E11.38069
G1 X62.477 Y78.329 E11.63661
G1 X62.561 Y78.182 E11.64281
G1 X63.204 Y77.074 E11.68968
G1 X63.271 Y76.96 E11.69451
G1 X68.76 Y67.745 E12.08693
G1 X68.845 Y67.604 E12.09296
G1 X69.806 Y66.042 E12.16006
G1 X69.863 Y65.95 E12.16401
G1 X70.505 Y64.929 E12.20814
G1 X71.74 Y62.832 E12.29718
G1 X72.98 Y60.586 E12.39104
G1 X74.117 Y58.381 E12.48181
G1 X75.197 Y56.134 E12.57302
G1 X76.217 Y53.844 E12.66474
G1 X77.174 Y51.523 E12.75659
G1 X78.075 Y49.155 E12.84928
G1 X78.878 Y46.839 E12.93897
G1 X79.691 Y44.271 E13.03752
G1 X80.05 Y43.292 E13.07567
G1 X80.465 Y42.302 E13.11494
G1 X80.609 Y41.973 E13.12808
G1 X80.76 Y41.642 E13.14139
G1 X80.818 Y41.518 E13.1464
G1 X81.115 Y40.887 E13.17191
G0 F6000 X81.513 Y41.074
G1 F1200 X81.95 Y40.239 E13.20639
G1 X82.456 Y39.445 E13.24084
G1 X82.858 Y38.905 E13.26547
G1 X83.405 Y38.215 E13.29769
G1 X83.524 Y38.067 E13.30463
G1 X83.813 Y37.715 E13.3213
G1 X83.931 Y37.575 E13.32799
G1 X84.353 Y37.078 E13.35185
G1 X84.992 Y36.386 E13.38631
G1 X85.688 Y35.751 E13.42078
G1 X86.192 Y35.353 E13.44427
G1 X86.936 Y34.8 E13.47819
G1 X87.106 Y34.677 E13.48587
G1 X87.414 Y34.457 E13.49971
G1 X87.537 Y34.37 E13.50523
G1 X88.109 Y33.973 E13.5307
G1 X88.905 Y33.469 E13.56517
G1 X89.741 Y33.035 E13.59963
G1 X90.361 Y32.768 E13.62433
G1 X91.189 Y32.441 E13.6569
G1 X91.366 Y32.373 E13.66384
G1 X91.755 Y32.227 E13.67904
G1 X91.907 Y32.171 E13.68496
G1 X92.576 Y31.931 E13.71097
G1 X93.475 Y31.651 E13.74542
G1 X94.395 Y31.448 E13.77989
G1 X95.312 Y31.325 E13.81374
G1 X95.607 Y31.298 E13.82457
G1 X97.203 Y31.14 E13.88325
G1 X98.143 Y31.087 E13.9177
G1 X99.085 Y31.114 E13.95218
G1 X99.944 Y31.209 E13.98379
G1 X100.75 Y31.33 E14.01361
G1 X101.012 Y31.372 E14.02332
G1 X102.163 Y31.573 E14.06607
G1 X103.083 Y31.775 E14.10053
G1 X103.983 Y32.053 E14.13499
G1 X104.673 Y32.326 E14.16214
G1 X105.47 Y32.672 E14.19393
G1 X105.649 Y32.752 E14.2011
G1 X106.04 Y32.93 E14.21682
G1 X106.187 Y32.998 E14.22275
G1 X106.815 Y33.295 E14.24816
G1 X107.648 Y33.733 E14.28259
G1 X108.442 Y34.241 E14.31708
G1 X108.962 Y34.629 E14.34082
G1 X109.66 Y35.182 E14.3734
G1 X109.804 Y35.298 E14.38016
G1 X110.148 Y35.58 E14.39644
G1 X110.295 Y35.703 E14.40345
G1 X110.792 Y36.125 E14.4273
G1 X111.484 Y36.764 E14.46176
G1 X112.119 Y37.46 E14.49623
G1 X112.518 Y37.966 E14.51981
G1 X113.07 Y38.709 E14.55367
G1 X113.188 Y38.871 E14.56101
G1 X113.394 Y39.159 E14.57396
G1 X113.486 Y39.289 E14.57979
G1 X113.903 Y39.89 E14.60655
G1 X114.407 Y40.686 E14.64102
G1 X114.841 Y41.522 E14.67548
G1 X115.203 Y42.392 E14.70996
G1 X115.412 Y43.017 E14.73407
G1 X115.652 Y43.814 E14.76452
G1 X115.722 Y44.058 E14.77381
G1 X115.955 Y44.901 E14.80581
G1 X115.999 Y45.065 E14.81202
G1 X116.182 Y45.769 E14.83863
G1 X116.38 Y46.69 E14.8731
G1 X116.462 Y47.257 E14.89406
G1 X116.538 Y47.899 E14.91771
G1 X116.572 Y48.233 E14.92999
G1 X116.637 Y48.973 E14.95717
G1 X116.675 Y49.61 E14.98052
G1 X116.706 Y50.627 E15.01774
G1 X116.821 Y53.289 E15.11523
G1 X116.998 Y55.743 E15.20524
G1 X117.253 Y58.287 E15.29878
G1 X117.573 Y60.757 E15.38991
G1 X117.964 Y63.236 E15.48173
G1 X118.427 Y65.714 E15.57395
G1 X118.958 Y68.167 E15.66578
G1 X119.56 Y70.613 E15.75794
G1 X120.231 Y73.039 E15.85003
G1 X120.964 Y75.424 E15.94132
G1 X121.778 Y77.83 E16.03424
G1 X122.644 Y80.17 E16.12553
G1 X123.595 Y82.53 E16.21862
G1 X124.588 Y84.808 E16.30954
G1 X125.663 Y87.094 E16.40196
G1 X126.795 Y89.334 E16.49378
G1 X128.013 Y91.587 E16.58749
G1 X129.283 Y93.782 E16.68027
G1 X129.57 Y94.263 E16.70076
G1 X130.019 Y95.091 E16.73522
G1 X130.395 Y95.955 E16.76969
G1 X130.697 Y96.848 E16.80418
G1 X130.922 Y97.762 E16.83862
G1 X131.068 Y98.693 E16.8731
G1 X131.135 Y99.614 E16.90688
G1 X131.145 Y99.941 E16.91885
G1 X131.15 Y100.28 E16.93126
G1 X131.15 Y119.314 E17.62764
G1 X131.149 Y119.467 E17.63323
G1 X131.139 Y120.194 E17.65984
G1 X131.086 Y121.134 E17.69428
G1 X130.954 Y122.067 E17.72876
G1 X130.742 Y122.985 E17.76323
G1 X130.454 Y123.882 E17.79769
G1 X130.091 Y124.751 E17.83215
G1 X129.655 Y125.587 E17.86664
G1 X129.15 Y126.382 E17.9011
G1 X128.58 Y127.132 E17.93557
G1 X127.948 Y127.831 E17.97004
G1 X127.259 Y128.473 E18.0045
G1 X126.518 Y129.055 E18.03897
G1 X125.73 Y129.572 E18.07345
G1 X124.901 Y130.02 E18.10793
G1 X124.038 Y130.396 E18.14237
G1 X123.312 Y130.648 E18.17049
G1 X120.924 Y131.385 E18.26192
G1 X118.531 Y132.195 E18.35435
G1 X116.151 Y133.075 E18.44719
G1 X113.845 Y134.004 E18.53814
G1 X111.535 Y135.011 E18.63034
G1 X109.254 Y136.083 E18.72255
G1 X107.004 Y137.22 E18.81478
G1 X104.81 Y138.405 E18.90601
G1 X102.64 Y139.66 E18.99772
G1 X100.465 Y141 E19.09119
G1 X98.38 Y142.369 E19.18244
G1 X96.334 Y143.796 E19.27371
G1 X94.291 Y145.308 E19.3667
G1 X92.323 Y146.854 E19.45826
G1 X90.389 Y148.464 E19.55032
G1 X88.505 Y150.122 E19.64214
G1 X86.672 Y151.831 E19.73383
G1 X84.862 Y153.618 E19.82689
G1 X83.133 Y155.423 E19.91834
G1 X81.456 Y157.276 E20.00977
G1 X79.822 Y159.19 E20.10185
G1 X77.716 Y161.821 E20.22514
G1 X77.137 Y162.571 E20.25981
G1 X76.531 Y163.292 E20.29427
G1 X75.865 Y163.959 E20.32875
G1 X75.146 Y164.567 E20.3632
G1 X74.377 Y165.112 E20.39769
G1 X73.565 Y165.589 E20.43214
G1 X72.715 Y165.996 E20.46662
G1 X71.834 Y166.33 E20.50109
G1 X70.928 Y166.587 E20.53555
G1 X70.003 Y166.767 E20.57002
G1 X68.628 Y166.887 E20.62052
G1 X68.031 Y166.902 E20.64237
G1 X67.746 Y166.906 E20.6528
G1 X57.372 Y166.9 E21.03234
G1 X57.221 Y166.899 E21.03787
G1 X56.584 Y166.89 E21.06117
G1 X55.644 Y166.837 E21.09562
G1 X54.711 Y166.704 E21.1301
G1 X53.793 Y166.492 E21.16457
G1 X52.896 Y166.204 E21.19904
G1 X52.027 Y165.84 E21.23351
G1 X51.192 Y165.404 E21.26797
G1 X50.396 Y164.899 E21.30246
G1 X49.647 Y164.328 E21.33692
G1 X48.948 Y163.696 E21.37139
G1 X48.306 Y163.007 E21.40585
G1 X47.488 Y161.922 E21.45556
G1 X47.003 Y161.19 E21.48769
G1 X46.974 Y161.146 E21.48962
G1 X45.509 Y158.913 E21.58733
G1 X43.957 Y156.692 E21.68646
G1 X43.434 Y155.965 E21.71922
G1 X42.916 Y155.178 E21.75369
G1 X42.467 Y154.349 E21.78819
G1 X42.09 Y153.486 E21.82264
G1 X41.787 Y152.594 E21.85711
G1 X41.561 Y151.679 E21.89159
G1 X41.413 Y150.749 E21.92604
G1 X41.345 Y149.809 E21.96053
G1 X41.357 Y148.867 E21.99499
G1 X41.519 Y147.49 E22.04572
G1 X41.607 Y147.006 E22.06372
G1 X41.671 Y146.68 E22.07587
G1 X42.049 Y144.906 E22.14223
G1 X42.494 Y142.483 E22.23236
G1 X42.88 Y139.985 E22.32484
G1 X43.195 Y137.475 E22.41739
G1 X43.467 Y134.642 E22.52152
G1 X43.515 Y134.222 E22.53698
G1 X43.638 Y133.309 E22.57069
G1 X43.728 Y132.751 E22.59137
G1 X45.431 Y123.644 E22.93033
G1 X45.461 Y123.492 E22.936
G1 X45.599 Y122.807 E22.96157
G1 X45.744 Y122.181 E22.98508
G1 X45.944 Y121.419 E23.0139
G1 X45.989 Y121.253 E23.02019
G1 X49.681 Y108.023 E23.52272
G1 X49.721 Y107.88 E23.52815
G1 X49.908 Y107.243 E23.55244
G1 X50.116 Y106.608 E23.57689
G1 X50.419 Y105.767 E23.60959
G1 X50.481 Y105.598 E23.61618
G1 X52.31 Y100.768 E23.80514
G1 X52.369 Y100.616 E23.8111
G1 X52.67 Y99.855 E23.84104
G1 X52.771 Y99.61 E23.85074
G1 X52.959 Y99.166 E23.86838
G1 X53.011 Y99.043 E23.87326
G1 X58.338 Y86.873 E24.3593
G1 X58.401 Y86.733 E24.36492
G1 X58.724 Y86.022 E24.39349
G1 X59.059 Y85.346 E24.42109
G1 X59.349 Y84.808 E24.44345
G1 X59.439 Y84.645 E24.45027
G1 X62.861 Y78.544 E24.70619
G1 X62.942 Y78.403 E24.71214
G1 X63.585 Y77.295 E24.75901
G1 X63.649 Y77.186 E24.76363
G1 X69.138 Y67.971 E25.15605
G1 X69.22 Y67.835 E25.16187
G1 X70.181 Y66.273 E25.22896
G1 X70.236 Y66.184 E25.23279
G1 X70.87 Y65.175 E25.27639
G1 X72.143 Y63.015 E25.36812
G1 X73.356 Y60.817 E25.45997
G1 X74.501 Y58.596 E25.55139
G1 X75.601 Y56.306 E25.64433
G1 X76.625 Y54.009 E25.73634
G1 X77.579 Y51.697 E25.82785
G1 X78.481 Y49.327 E25.92063
G1 X79.299 Y46.966 E26.01204
G1 X80.11 Y44.404 E26.11036
G1 X80.456 Y43.462 E26.14708
G1 X80.871 Y42.472 E26.18635
G1 X81.009 Y42.156 E26.19897
G1 X81.16 Y41.825 E26.21228
G1 X81.216 Y41.705 E26.21712
G1 X81.513 Y41.074 E26.24264
G0 F6000 X81.911 Y41.261
G1 F1200 X82.34 Y40.444 E26.2764
G1 X82.838 Y39.666 E26.31019
G1 X83.202 Y39.179 E26.33244
G1 X83.749 Y38.489 E26.36465
G1 X83.864 Y38.347 E26.37134
G1 X84.153 Y37.995 E26.388
G1 X84.266 Y37.859 E26.39447
G1 X84.688 Y37.362 E26.41832
G1 X85.316 Y36.685 E26.45211
