;FLAVOR:Marlin
;TIME:2768
;Filament used: 2.37992m
;Layer height: 0.28
;MINX:51.614
;MINY:78.003
;MINZ:0.28
;MAXX:168.384
;MAXY:141.999
;MAXZ:20.44
;Generated with Cura_SteamEngine 4.2.1
M140 S50
M105
M190 S50
M104 S200
M105
M109 S200
M82 ;absolute extrusion mode
M201 X500.00 Y500.00 Z100.00 E5000.00 ;Setup machine max acceleration
M203 X500.00 Y500.00 Z10.00 E50.00 ;Setup machine max feedrate
M204 P500.00 R1000.00 T500.00 ;Setup Print/Retract/Travel acceleration
M205 X8.00 Y8.00 Z0.40 E5.00 ;Setup Jerk
M220 S100 ;Reset Feedrate
M221 S100 ;Reset Flowrate

G28 ;Home

G92 E0 ;Reset Extruder
G1 Z2.0 F3000 ;Move Z Axis up
G1 X10.1 Y20 Z0.28 F5000.0 ;Move to start position
G1 X10.1 Y200.0 Z0.28 F1500.0 E15 ;Draw the first line
G1 X10.4 Y200.0 Z0.28 F5000.0 ;Move to side a little
G1 X10.4 Y20 Z0.28 F1500.0 E30 ;Draw the second line
G92 E0 ;Reset Extruder
G1 Z2.0 F3000 ;Move Z Axis up

M141 S28
G92 E0
G92 E0
G1 F2700 E-5
;LAYER_COUNT:73
;LAYER:0
M107
G0 F6000 X60.573 Y93.856 Z0.28
;TYPE:SKIRT
G1 F2700 E0
G1 F1200 X61.482 Y93.319 E0.05408
G1 X61.712 Y93.197 E0.06741
G1 X62.143 Y92.981 E0.09211
G1 X62.781 Y92.676 E0.12833
G1 X63.599 Y92.323 E0.17396
G1 X63.863 Y92.221 E0.18846
G1 X64.471 Y92.005 E0.22151
G1 X65.145 Y91.787 E0.25779
G1 X66.068 Y91.53 E0.30686
G1 X66.316 Y91.472 E0.31991
G1 X66.821 Y91.366 E0.34634
G1 X67.553 Y91.229 E0.38448
G1 X68.649 Y91.078 E0.44115
G1 X69.007 Y91.046 E0.45956
G1 X69.456 Y91.014 E0.48262
G1 X69.835 Y90.995 E0.50206
G1 X70.201 Y90.983 E0.52081
G1 X71.342 Y90.962 E0.57927
G1 X71.553 Y90.96 E0.59007
G1 X81.938 Y90.959 E1.122
G1 X84.523 Y90.922 E1.25442
G1 X87.038 Y90.816 E1.38335
G1 X89.52 Y90.639 E1.5108
G1 X92.036 Y90.389 E1.64031
G1 X94.477 Y90.076 E1.76636
G1 X96.977 Y89.684 E1.89598
G1 X99.43 Y89.228 E2.02378
G1 X101.876 Y88.701 E2.15194
G1 X104.297 Y88.108 E2.27961
G1 X106.702 Y87.445 E2.40739
G1 X109.12 Y86.705 E2.53691
G1 X111.47 Y85.912 E2.66395
G1 X113.826 Y85.043 E2.79257
G1 X116.163 Y84.104 E2.92157
G1 X118.399 Y83.131 E3.04648
G1 X121.744 Y81.538 E3.23625
G1 X122.042 Y81.389 E3.25331
G1 X122.192 Y81.316 E3.26186
G1 X122.806 Y81.02 E3.29677
G1 X123.292 Y80.799 E3.32412
G1 X124.315 Y80.363 E3.38107
G1 X124.666 Y80.22 E3.40049
G1 X125.148 Y80.033 E3.42697
G1 X125.661 Y79.848 E3.4549
G1 X126.507 Y79.565 E3.50059
G1 X126.941 Y79.429 E3.52389
G1 X127.916 Y79.145 E3.57591
G1 X128.366 Y79.024 E3.59977
G1 X129.197 Y78.818 E3.64363
G1 X129.547 Y78.737 E3.66203
G1 X130.049 Y78.629 E3.68833
G1 X130.61 Y78.523 E3.71757
G1 X131.672 Y78.349 E3.77269
G1 X132.041 Y78.295 E3.7918
G1 X132.576 Y78.225 E3.81943
G1 X133.115 Y78.167 E3.8472
G1 X134.051 Y78.089 E3.89531
G1 X134.481 Y78.061 E3.91738
G1 X135.376 Y78.02 E3.96327
G1 X135.842 Y78.008 E3.98715
G1 X136.778 Y78.003 E4.03509
G1 X137.148 Y78.007 E4.05404
G1 X137.747 Y78.023 E4.08473
G1 X138.353 Y78.055 E4.11582
G1 X139.259 Y78.127 E4.16237
G1 X139.572 Y78.156 E4.17847
G1 X140.236 Y78.227 E4.21267
G1 X140.82 Y78.305 E4.24285
G1 X141.808 Y78.462 E4.29409
G1 X142.139 Y78.52 E4.31131
G1 X142.806 Y78.646 E4.34607
G1 X143.375 Y78.768 E4.37588
G1 X144.277 Y78.986 E4.42341
G1 X144.629 Y79.077 E4.44204
G1 X145.301 Y79.262 E4.47774
G1 X145.845 Y79.426 E4.50684
G1 X146.708 Y79.71 E4.55337
G1 X147.015 Y79.816 E4.57001
G1 X147.7 Y80.063 E4.60731
G1 X148.256 Y80.28 E4.63788
G1 X149.108 Y80.638 E4.68521
G1 X149.42 Y80.774 E4.70265
G1 X150.013 Y81.044 E4.73602
G1 X150.515 Y81.288 E4.76461
G1 X151.445 Y81.767 E4.81819
G1 X151.772 Y81.942 E4.83719
G1 X152.268 Y82.218 E4.86626
G1 X152.737 Y82.494 E4.89414
G1 X153.642 Y83.055 E4.94867
G1 X153.954 Y83.255 E4.96766
G1 X154.423 Y83.567 E4.99651
G1 X154.873 Y83.882 E5.02464
G1 X155.749 Y84.527 E5.08036
G1 X156.039 Y84.747 E5.09901
G1 X156.469 Y85.085 E5.12702
G1 X156.894 Y85.437 E5.15529
G1 X157.726 Y86.158 E5.21168
G1 X157.992 Y86.395 E5.22993
G1 X158.39 Y86.762 E5.25766
G1 X158.815 Y87.174 E5.28798
G1 X159.549 Y87.924 E5.34173
G1 X159.771 Y88.158 E5.35825
G1 X160.155 Y88.573 E5.38721
G1 X160.549 Y89.022 E5.41781
G1 X161.135 Y89.725 E5.46468
G1 X161.403 Y90.059 E5.48662
G1 X161.967 Y90.789 E5.53387
G1 X162.242 Y91.159 E5.55748
G1 X162.689 Y91.788 E5.59701
G1 X162.939 Y92.155 E5.61975
G1 X163.38 Y92.829 E5.66101
G1 X163.634 Y93.236 E5.68558
G1 X164.067 Y93.962 E5.72888
G1 X164.28 Y94.334 E5.75084
G1 X164.64 Y94.992 E5.78925
G1 X164.865 Y95.424 E5.8142
G1 X165.279 Y96.263 E5.86212
G1 X165.47 Y96.67 E5.88515
G1 X165.738 Y97.271 E5.91886
G1 X165.913 Y97.685 E5.94188
G1 X166.257 Y98.545 E5.98932
G1 X166.426 Y98.997 E6.01404
G1 X166.705 Y99.789 E6.05705
G1 X166.853 Y100.236 E6.08117
G1 X167.079 Y100.972 E6.1206
G1 X167.201 Y101.399 E6.14335
G1 X167.395 Y102.13 E6.18209
G1 X167.501 Y102.564 E6.20497
G1 X167.713 Y103.509 E6.25458
G1 X167.804 Y103.952 E6.27774
G1 X167.964 Y104.824 E6.32315
G1 X168.026 Y105.2 E6.34267
G1 X168.064 Y105.454 E6.35583
G1 X168.131 Y105.987 E6.38334
G1 X168.253 Y107.18 E6.44477
G1 X168.293 Y107.676 E6.47025
G1 X168.346 Y108.576 E6.51643
G1 X168.364 Y109.015 E6.53894
G1 X168.383 Y109.931 E6.58586
G1 X168.384 Y110.278 E6.60364
G1 X168.381 Y110.6 E6.62013
G1 X168.362 Y111.176 E6.64965
G1 X168.294 Y112.321 E6.7084
G1 X168.258 Y112.776 E6.73178
G1 X168.162 Y113.744 E6.78161
G1 X168.116 Y114.135 E6.80177
G1 X168.049 Y114.636 E6.82766
G1 X167.963 Y115.183 E6.85602
G1 X167.806 Y116.041 E6.9007
G1 X167.716 Y116.481 E6.9237
G1 X167.505 Y117.425 E6.97325
G1 X167.397 Y117.869 E6.99665
G1 X167.204 Y118.596 E7.03518
G1 X167.08 Y119.028 E7.0582
G1 X166.853 Y119.766 E7.09775
G1 X166.708 Y120.207 E7.12153
G1 X166.428 Y121.002 E7.1647
G1 X166.26 Y121.447 E7.18906
G1 X165.917 Y122.306 E7.23644
G1 X165.736 Y122.735 E7.26029
G1 X165.467 Y123.337 E7.29406
G1 X165.28 Y123.735 E7.31659
G1 X164.867 Y124.572 E7.36439
G1 X164.642 Y125.004 E7.38934
G1 X164.281 Y125.664 E7.42787
G1 X164.061 Y126.049 E7.45059
G1 X163.628 Y126.773 E7.4938
G1 X163.389 Y127.155 E7.51688
G1 X162.948 Y127.831 E7.55822
G1 X162.69 Y128.211 E7.58174
G1 X162.243 Y128.84 E7.62127
G1 X161.968 Y129.21 E7.64488
G1 X161.404 Y129.94 E7.69213
G1 X161.128 Y130.284 E7.71472
G1 X160.539 Y130.989 E7.76178
G1 X160.319 Y131.244 E7.77903
G1 X160.132 Y131.455 E7.79347
G1 X159.756 Y131.859 E7.82174
G1 X158.838 Y132.8 E7.88907
G1 X158.551 Y133.085 E7.90979
G1 X158.348 Y133.279 E7.92417
G1 X157.961 Y133.632 E7.951
G1 X156.919 Y134.541 E8.02183
G1 X156.623 Y134.791 E8.04167
G1 X156.38 Y134.989 E8.05773
G1 X155.945 Y135.326 E8.08591
G1 X154.863 Y136.125 E8.15481
G1 X154.529 Y136.363 E8.17581
G1 X154.291 Y136.526 E8.19059
G1 X153.87 Y136.801 E8.21635
G1 X152.749 Y137.499 E8.28399
G1 X152.435 Y137.688 E8.30276
G1 X152.221 Y137.812 E8.31543
G1 X151.973 Y137.951 E8.32999
G1 X151.792 Y138.05 E8.34055
G1 X151.541 Y138.184 E8.35513
G1 X150.532 Y138.704 E8.41327
G1 X150.108 Y138.911 E8.43744
G1 X149.641 Y139.128 E8.46381
G1 X149.235 Y139.308 E8.48656
G1 X148.251 Y139.72 E8.5412
G1 X147.977 Y139.83 E8.55632
G1 X147.725 Y139.928 E8.57017
G1 X147.401 Y140.049 E8.58789
G1 X147.122 Y140.148 E8.60305
G1 X146.902 Y140.223 E8.61496
G1 X145.927 Y140.547 E8.66758
G1 X145.565 Y140.661 E8.68702
G1 X145.305 Y140.738 E8.70091
G1 X145.064 Y140.806 E8.71374
G1 X144.734 Y140.896 E8.73126
G1 X144.424 Y140.976 E8.74766
G1 X143.404 Y141.224 E8.80142
G1 X143.038 Y141.307 E8.82065
G1 X142.813 Y141.354 E8.83242
G1 X142.554 Y141.405 E8.84594
G1 X142.176 Y141.475 E8.86563
G1 X141.873 Y141.527 E8.88138
G1 X140.827 Y141.692 E8.93562
G1 X140.522 Y141.736 E8.9514
G1 X140.292 Y141.766 E8.96328
G1 X139.964 Y141.804 E8.98019
G1 X139.629 Y141.838 E8.99744
G1 X139.404 Y141.859 E9.00902
G1 X138.437 Y141.938 E9.05871
G1 X138.084 Y141.961 E9.07683
G1 X137.868 Y141.972 E9.08791
G1 X137.56 Y141.984 E9.1037
G1 X137.064 Y141.996 E9.12911
G1 X136.762 Y141.999 E9.14458
G1 X135.762 Y141.997 E9.1958
G1 X135.419 Y141.991 E9.21337
G1 X135.167 Y141.983 E9.22629
G1 X134.866 Y141.97 E9.24172
G1 X134.607 Y141.955 E9.25501
G1 X134.324 Y141.935 E9.26954
G1 X133.126 Y141.836 E9.33111
G1 X132.741 Y141.797 E9.35093
G1 X132.432 Y141.761 E9.36686
G1 X131.918 Y141.69 E9.39344
G1 X130.643 Y141.483 E9.4596
G1 X130.254 Y141.413 E9.47985
G1 X129.91 Y141.345 E9.49781
G1 X129.378 Y141.227 E9.52572
G1 X128.375 Y140.979 E9.57864
G1 X127.921 Y140.856 E9.60273
G1 X126.945 Y140.572 E9.6548
G1 X126.501 Y140.433 E9.67863
G1 X125.645 Y140.146 E9.72487
G1 X125.326 Y140.034 E9.74219
G1 X125.087 Y139.946 E9.75523
G1 X124.581 Y139.747 E9.78308
G1 X123.301 Y139.206 E9.85426
G1 X122.934 Y139.043 E9.87483
G1 X122.738 Y138.952 E9.8859
G1 X122.448 Y138.812 E9.90239
G1 X121.699 Y138.438 E9.94527
G1 X119.405 Y137.329 E10.07578
G1 X117.105 Y136.297 E10.20491
G1 X114.764 Y135.324 E10.33476
G1 X112.469 Y134.447 E10.4606
G1 X110.092 Y133.614 E10.58961
G1 X107.713 Y132.855 E10.71752
G1 X105.311 Y132.163 E10.84555
G1 X102.864 Y131.532 E10.97499
G1 X100.454 Y130.982 E11.10161
G1 X97.986 Y130.495 E11.23046
G1 X95.518 Y130.078 E11.35866
G1 X93.041 Y129.73 E11.48678
G1 X90.574 Y129.456 E11.61392
G1 X88.056 Y129.247 E11.74334
G1 X85.617 Y129.115 E11.86845
G1 X81.885 Y129.04 E12.05964
G1 X71.345 Y129.04 E12.5995
G1 X71.175 Y129.039 E12.60821
G1 X70.7 Y129.032 E12.63254
G1 X70.34 Y129.021 E12.65099
G1 X69.449 Y128.98 E12.69668
G1 X69.054 Y128.955 E12.71695
G1 X68.743 Y128.93 E12.73293
G1 X67.785 Y128.812 E12.78237
G1 X67.519 Y128.768 E12.79618
G1 X67.013 Y128.673 E12.82255
G1 X66.323 Y128.527 E12.85868
G1 X65.393 Y128.289 E12.90785
G1 X65.1 Y128.201 E12.92352
G1 X64.57 Y128.028 E12.95207
G1 X63.92 Y127.798 E12.98739
G1 X62.997 Y127.426 E13.03836
G1 X62.779 Y127.327 E13.05063
G1 X62.345 Y127.119 E13.07528
G1 X61.702 Y126.794 E13.11218
G1 X60.838 Y126.31 E13.1629
G1 X60.61 Y126.169 E13.17664
G1 X60.161 Y125.876 E13.2041
G1 X59.565 Y125.468 E13.24109
G1 X58.791 Y124.89 E13.29057
G1 X58.596 Y124.731 E13.30346
G1 X58.19 Y124.384 E13.33082
G1 X57.673 Y123.921 E13.36636
G1 X57.026 Y123.294 E13.41251
G1 X56.814 Y123.072 E13.42823
G1 X56.391 Y122.604 E13.46055
G1 X55.929 Y122.064 E13.49695
G1 X55.343 Y121.319 E13.5455
G1 X55.2 Y121.121 E13.55801
G1 X54.889 Y120.667 E13.58619
G1 X54.486 Y120.049 E13.62398
G1 X53.987 Y119.21 E13.67398
G1 X53.858 Y118.97 E13.68794
G1 X53.605 Y118.469 E13.71669
G1 X53.302 Y117.833 E13.75277
G1 X52.937 Y116.98 E13.80029
G1 X52.836 Y116.715 E13.81482
G1 X52.643 Y116.17 E13.84443
G1 X52.427 Y115.505 E13.88025
G1 X52.141 Y114.459 E13.93579
G1 X52.054 Y114.07 E13.95621
G1 X51.962 Y113.612 E13.98014
G1 X51.858 Y113.039 E14.00997
G1 X51.726 Y112.095 E14.05879
G1 X51.698 Y111.807 E14.07361
G1 X51.66 Y111.297 E14.0998
G1 X51.624 Y110.613 E14.13489
G1 X51.614 Y109.623 E14.1856
G1 X51.624 Y109.322 E14.20102
G1 X51.653 Y108.802 E14.2277
G1 X51.706 Y108.127 E14.26238
G1 X51.826 Y107.146 E14.313
G1 X51.872 Y106.868 E14.32744
G1 X51.965 Y106.373 E14.35323
G1 X52.111 Y105.68 E14.38951
G1 X52.368 Y104.683 E14.44224
G1 X52.446 Y104.428 E14.4559
G1 X52.603 Y103.953 E14.48153
G1 X52.831 Y103.309 E14.51652
G1 X53.16 Y102.481 E14.56216
G1 X53.278 Y102.215 E14.57706
G1 X53.532 Y101.68 E14.6074
G1 X53.847 Y101.058 E14.64311
G1 X54.311 Y100.229 E14.69177
G1 X54.453 Y99.998 E14.70566
G1 X54.772 Y99.507 E14.73565
G1 X55.18 Y98.913 E14.77256
G1 X55.724 Y98.185 E14.81911
G1 X55.89 Y97.98 E14.83262
G1 X56.273 Y97.53 E14.86289
G1 X56.75 Y96.999 E14.89945
G1 X57.433 Y96.301 E14.94947
G1 X57.615 Y96.13 E14.96226
G1 X57.996 Y95.787 E14.98852
G1 X58.55 Y95.311 E15.02593
G1 X59.313 Y94.71 E15.07568
G1 X59.522 Y94.559 E15.08888
G1 X59.963 Y94.255 E15.11632
G1 X60.573 Y93.856 E15.15365
G0 F6000 X60.814 Y94.225
G1 F1200 X61.689 Y93.708 E15.20571
G1 X61.919 Y93.586 E15.21905
G1 X62.333 Y93.378 E15.24278
G1 X62.971 Y93.073 E15.279
G1 X63.758 Y92.733 E15.32291
G1 X64.022 Y92.631 E15.33741
G1 X64.606 Y92.424 E15.36914
G1 X65.28 Y92.206 E15.40543
G1 X66.168 Y91.959 E15.45264
G1 X66.416 Y91.901 E15.46568
G1 X66.902 Y91.798 E15.49113
G1 X67.634 Y91.661 E15.52927
G1 X68.688 Y91.516 E15.58377
G1 X69.046 Y91.484 E15.60218
G1 X69.478 Y91.454 E15.62436
G1 X69.857 Y91.435 E15.6438
G1 X70.209 Y91.423 E15.66184
G1 X71.35 Y91.402 E15.72029
G1 X71.553 Y91.4 E15.73069
G1 X81.944 Y91.399 E16.26292
G1 X84.549 Y91.362 E16.39636
G1 X87.052 Y91.256 E16.52468
G1 X89.558 Y91.077 E16.65337
G1 X92.067 Y90.828 E16.78251
G1 X94.563 Y90.508 E16.91141
G1 X97.053 Y90.118 E17.0405
G1 X99.496 Y89.664 E17.16778
G1 X101.966 Y89.131 E17.2972
G1 X104.42 Y88.53 E17.42661
G1 X106.841 Y87.863 E17.55524
G1 X109.251 Y87.125 E17.68434
G1 X111.612 Y86.329 E17.81196
G1 X114.003 Y85.447 E17.94249
G1 X116.29 Y84.527 E18.06876
G1 X118.601 Y83.522 E18.19784
G1 X121.955 Y81.925 E18.38811
G1 X122.239 Y81.783 E18.40437
G1 X122.383 Y81.712 E18.4126
G1 X122.997 Y81.416 E18.44751
G1 X123.465 Y81.204 E18.47383
G1 X124.488 Y80.768 E18.53079
G1 X124.825 Y80.631 E18.54942
G1 X125.307 Y80.444 E18.5759
G1 X125.801 Y80.265 E18.60281
G1 X126.647 Y79.982 E18.64851
G1 X127.064 Y79.852 E18.67088
G1 X128.039 Y79.568 E18.72289
G1 X128.472 Y79.451 E18.74587
G1 X129.303 Y79.245 E18.78972
G1 X129.639 Y79.167 E18.80739
G1 X130.141 Y79.059 E18.83369
G1 X130.681 Y78.957 E18.86184
G1 X131.743 Y78.783 E18.91696
G1 X132.098 Y78.731 E18.93534
G1 X132.633 Y78.661 E18.96297
G1 X133.151 Y78.605 E18.98966
G1 X134.087 Y78.527 E19.03777
G1 X134.501 Y78.501 E19.05902
G1 X135.396 Y78.46 E19.10491
G1 X135.845 Y78.448 E19.12791
G1 X136.781 Y78.443 E19.17586
G1 X137.136 Y78.447 E19.19404
G1 X137.735 Y78.463 E19.22473
G1 X138.318 Y78.494 E19.25464
G1 X139.224 Y78.566 E19.30119
G1 X139.525 Y78.594 E19.31667
G1 X140.189 Y78.665 E19.35088
G1 X140.751 Y78.74 E19.37992
G1 X141.739 Y78.897 E19.43116
G1 X142.057 Y78.952 E19.44769
G1 X142.724 Y79.078 E19.48246
G1 X143.272 Y79.196 E19.51117
G1 X144.174 Y79.414 E19.5587
G1 X144.512 Y79.501 E19.57658
G1 X145.184 Y79.686 E19.61228
G1 X145.708 Y79.844 E19.64031
G1 X146.571 Y80.128 E19.68685
G1 X146.866 Y80.23 E19.70284
G1 X147.551 Y80.477 E19.74013
G1 X148.086 Y80.686 E19.76955
G1 X148.938 Y81.044 E19.81689
G1 X149.238 Y81.175 E19.83366
G1 X149.831 Y81.445 E19.86703
G1 X150.314 Y81.679 E19.89452
G1 X151.244 Y82.158 E19.9481
G1 X151.558 Y82.327 E19.96637
G1 X152.054 Y82.603 E19.99544
G1 X152.505 Y82.868 E20.02223
G1 X153.41 Y83.429 E20.07677
G1 X153.71 Y83.621 E20.09502
G1 X154.179 Y83.933 E20.12387
G1 X154.612 Y84.237 E20.15097
G1 X155.488 Y84.882 E20.20669
G1 X155.767 Y85.093 E20.2246
G1 X156.197 Y85.431 E20.25262
G1 X156.606 Y85.77 E20.27983
G1 X157.438 Y86.491 E20.33622
G1 X157.694 Y86.719 E20.35378
G1 X158.092 Y87.086 E20.38151
G1 X158.5 Y87.482 E20.41063
G1 X159.234 Y88.232 E20.46438
G1 X159.448 Y88.457 E20.48029
G1 X159.832 Y88.872 E20.50925
G1 X160.211 Y89.304 E20.53868
G1 X160.797 Y90.007 E20.58556
G1 X161.055 Y90.328 E20.60666
G1 X161.619 Y91.058 E20.65391
G1 X161.883 Y91.414 E20.67661
G1 X162.33 Y92.043 E20.71613
G1 X162.57 Y92.396 E20.738
G1 X163.011 Y93.07 E20.77925
G1 X163.256 Y93.461 E20.80289
G1 X163.689 Y94.187 E20.84618
G1 X163.894 Y94.545 E20.86731
G1 X164.254 Y95.203 E20.90573
G1 X164.47 Y95.619 E20.92974
G1 X164.884 Y96.458 E20.97766
G1 X165.068 Y96.849 E20.9998
G1 X165.336 Y97.45 E21.0335
G1 X165.504 Y97.849 E21.05568
G1 X165.848 Y98.709 E21.10312
G1 X166.011 Y99.143 E21.12687
G1 X166.29 Y99.935 E21.16988
G1 X166.432 Y100.365 E21.19307
G1 X166.658 Y101.101 E21.23251
G1 X166.776 Y101.512 E21.25441
G1 X166.97 Y102.243 E21.29315
G1 X167.072 Y102.66 E21.31513
G1 X167.284 Y103.605 E21.36474
G1 X167.371 Y104.032 E21.38706
G1 X167.531 Y104.904 E21.43247
G1 X167.591 Y105.265 E21.45122
G1 X167.629 Y105.519 E21.46437
G1 X167.693 Y106.032 E21.49085
G1 X167.815 Y107.225 E21.55228
