;FLAVOR:Marlin
;TIME:12909
;Filament used: 7.95542m
;Layer height: 0.2
;MINX:55.674
;MINY:60.395
;MINZ:0.2
;MAXX:177.999
;MAXY:174.22
;MAXZ:21.8
;Generated with Cura_SteamEngine 4.2.1
M140 S50
M105
M190 S50
M104 S200
M105
M109 S200
M82 ;absolute extrusion mode
M201 X500.00 Y500.00 Z100.00 E5000.00 ;Setup machine max acceleration
M203 X500.00 Y500.00 Z10.00 E50.00 ;Setup machine max feedrate
M204 P500.00 R1000.00 T500.00 ;Setup Print/Retract/Travel acceleration
M205 X8.00 Y8.00 Z0.40 E5.00 ;Setup Jerk
M220 S100 ;Reset Feedrate
M221 S100 ;Reset Flowrate

G28 ;Home

G92 E0 ;Reset Extruder
G1 Z2.0 F3000 ;Move Z Axis up
G1 X10.1 Y20 Z0.28 F5000.0 ;Move to start position
G1 X10.1 Y200.0 Z0.28 F1500.0 E15 ;Draw the first line
G1 X10.4 Y200.0 Z0.28 F5000.0 ;Move to side a little
G1 X10.4 Y20 Z0.28 F1500.0 E30 ;Draw the second line
G92 E0 ;Reset Extruder
G1 Z2.0 F3000 ;Move Z Axis up

M141 S28
G92 E0
G92 E0
G1 F2700 E-5
;LAYER_COUNT:109
;LAYER:0
M107
G0 F6000 X59.634 Y64.171 Z0.2
;TYPE:SKIRT
G1 F2700 E0
G1 F1200 X60.337 Y63.525 E0.03175
G1 X60.862 Y63.107 E0.05407
G1 X61.065 Y62.955 E0.06251
G1 X61.853 Y62.415 E0.09428
G1 X62.357 Y62.117 E0.11376
G1 X62.544 Y62.013 E0.12087
G1 X63.784 Y61.419 E0.1666
G1 X63.973 Y61.342 E0.17339
G1 X64.871 Y61.019 E0.20513
G1 X65.451 Y60.854 E0.22519
G1 X65.717 Y60.786 E0.23432
G1 X66.651 Y60.589 E0.26607
G1 X67.561 Y60.473 E0.29658
G1 X67.851 Y60.448 E0.30626
G1 X68.657 Y60.407 E0.3331
G1 X69.381 Y60.396 E0.35719
G1 X69.554 Y60.395 E0.36294
G1 X136.346 Y60.395 E2.58445
G1 X164.198 Y60.396 E3.51081
G1 X164.353 Y60.397 E3.51597
G1 X165.014 Y60.406 E3.53796
G1 X166.033 Y60.466 E3.57191
G1 X166.342 Y60.498 E3.58224
G1 X167.287 Y60.636 E3.614
G1 X168.217 Y60.852 E3.64576
G1 X168.48 Y60.925 E3.65484
G1 X169.388 Y61.219 E3.68658
G1 X170.269 Y61.588 E3.71835
G1 X170.857 Y61.884 E3.74024
G1 X171.282 Y62.114 E3.75632
G1 X172.102 Y62.603 E3.78807
G1 X172.878 Y63.159 E3.81982
G1 X173.54 Y63.719 E3.84866
G1 X173.814 Y63.969 E3.861
G1 X174.491 Y64.641 E3.89273
G1 X175.181 Y65.459 E3.92832
G1 X175.4 Y65.745 E3.9403
G1 X175.948 Y66.527 E3.97206
G1 X176.429 Y67.352 E4.00382
G1 X176.859 Y68.26 E4.03724
G1 X177.038 Y68.686 E4.05261
G1 X177.371 Y69.581 E4.08437
G1 X177.627 Y70.5 E4.1161
G1 X177.728 Y70.974 E4.13222
G1 X177.781 Y71.253 E4.14166
G1 X177.919 Y72.198 E4.17343
G1 X177.973 Y72.943 E4.19827
G1 X177.99 Y73.385 E4.21298
G1 X177.998 Y73.823 E4.22755
G1 X177.999 Y129.758 E6.08796
G1 X177.999 Y129.761 E6.08806
G1 X177.99 Y160.567 E7.11267
G1 X177.989 Y160.718 E7.11769
G1 X177.98 Y161.383 E7.13981
G1 X177.927 Y162.337 E7.17159
G1 X177.844 Y162.992 E7.19355
G1 X177.813 Y163.19 E7.20022
G1 X177.626 Y164.127 E7.232
G1 X177.479 Y164.671 E7.25074
G1 X177.403 Y164.927 E7.25962
G1 X177.093 Y165.831 E7.29141
G1 X176.778 Y166.561 E7.31785
G1 X176.671 Y166.787 E7.32617
G1 X176.226 Y167.632 E7.35793
G1 X175.899 Y168.163 E7.37867
G1 X175.754 Y168.384 E7.38746
G1 X175.197 Y169.159 E7.41921
G1 X174.626 Y169.833 E7.44859
G1 X174.439 Y170.037 E7.45779
G1 X173.764 Y170.713 E7.48957
G1 X173.01 Y171.351 E7.52242
G1 X172.776 Y171.532 E7.53226
G1 X171.997 Y172.084 E7.56401
G1 X171.26 Y172.523 E7.59254
G1 X170.996 Y172.667 E7.60254
G1 X170.139 Y173.089 E7.63432
G1 X169.42 Y173.377 E7.66008
G1 X169.155 Y173.473 E7.66945
G1 X168.244 Y173.761 E7.70123
G1 X167.281 Y173.977 E7.73406
G1 X167.024 Y174.023 E7.74274
G1 X166.077 Y174.151 E7.77452
G1 X165.486 Y174.191 E7.79423
G1 X165.051 Y174.209 E7.80871
G1 X164.58 Y174.219 E7.82438
G1 X110.03 Y174.22 E9.63872
G1 X110.025 Y174.22 E9.63888
G1 X107.507 Y174.219 E9.72263
G1 X107.354 Y174.218 E9.72772
G1 X106.706 Y174.209 E9.74927
G1 X105.757 Y174.156 E9.78089
G1 X104.507 Y174.034 E9.82266
G1 X104.317 Y174.014 E9.82901
G1 X104.056 Y173.984 E9.83775
G1 X101.568 Y173.772 E9.9208
G1 X99.035 Y173.629 E10.00519
G1 X96.572 Y173.559 E10.08714
G1 X94.035 Y173.559 E10.17152
G1 X91.572 Y173.629 E10.25347
G1 X89.039 Y173.772 E10.33785
G1 X86.489 Y173.989 E10.42297
G1 X85.136 Y174.134 E10.46823
G1 X84.473 Y174.186 E10.49035
G1 X84.058 Y174.206 E10.50417
G1 X83.507 Y174.219 E10.5225
G1 X69.387 Y174.216 E10.99214
G1 X69.235 Y174.215 E10.99719
G1 X68.57 Y174.206 E11.01931
G1 X67.208 Y174.106 E11.06473
G1 X66.977 Y174.075 E11.07249
G1 X65.613 Y173.806 E11.11873
G1 X65.41 Y173.753 E11.1257
G1 X64.497 Y173.474 E11.15746
G1 X63.611 Y173.119 E11.1892
G1 X62.962 Y172.802 E11.21323
G1 X62.455 Y172.534 E11.2323
G1 X61.631 Y172.052 E11.26405
G1 X60.849 Y171.504 E11.29581
G1 X60.36 Y171.107 E11.31676
G1 X60.177 Y170.95 E11.32478
G1 X59.479 Y170.299 E11.35653
G1 X58.852 Y169.607 E11.38758
G1 X58.659 Y169.376 E11.3976
G1 X58.078 Y168.619 E11.42933
G1 X57.612 Y167.899 E11.45786
G1 X57.484 Y167.684 E11.46618
G1 X57.03 Y166.844 E11.49794
G1 X56.668 Y166.02 E11.52787
G1 X56.536 Y165.684 E11.53988
G1 X56.225 Y164.782 E11.57162
G1 X55.982 Y163.821 E11.60458
G1 X55.937 Y163.603 E11.61199
G1 X55.74 Y162.229 E11.65815
G1 X55.721 Y161.997 E11.6659
G1 X55.684 Y161.238 E11.69117
G1 X55.675 Y160.643 E11.71096
G1 X55.674 Y160.471 E11.71668
G1 X55.675 Y119.761 E13.0707
G1 X55.68 Y74.094 E14.58959
G1 X55.681 Y73.925 E14.59522
G1 X55.689 Y73.386 E14.61314
G1 X55.753 Y72.341 E14.64797
G1 X55.783 Y72.061 E14.65733
G1 X55.924 Y71.116 E14.68911
G1 X56.026 Y70.644 E14.70517
G1 X56.091 Y70.37 E14.71454
G1 X56.35 Y69.451 E14.7463
G1 X56.633 Y68.681 E14.77358
G1 X56.737 Y68.427 E14.78271
G1 X57.136 Y67.56 E14.81445
G1 X57.605 Y66.728 E14.84622
G1 X57.915 Y66.257 E14.86497
G1 X58.156 Y65.909 E14.87905
G1 X58.732 Y65.147 E14.91082
G1 X59.467 Y64.338 E14.94718
G1 X59.634 Y64.171 E14.95503
G0 F6000 X59.917 Y64.454
G1 F1200 X60.608 Y63.82 E14.98622
G1 X61.102 Y63.427 E15.00722
G1 X61.305 Y63.275 E15.01565
G1 X62.079 Y62.745 E15.04685
G1 X62.552 Y62.467 E15.0651
G1 X62.739 Y62.363 E15.07222
G1 X63.935 Y61.789 E15.11634
G1 X64.124 Y61.712 E15.12313
G1 X65.007 Y61.395 E15.15433
G1 X65.55 Y61.242 E15.1731
G1 X65.816 Y61.174 E15.18223
G1 X66.733 Y60.98 E15.2134
G1 X67.595 Y60.872 E15.2423
G1 X67.885 Y60.847 E15.25198
G1 X68.663 Y60.807 E15.27789
G1 X69.387 Y60.796 E15.30197
G1 X69.554 Y60.795 E15.30753
G1 X136.346 Y60.795 E17.52904
G1 X164.198 Y60.796 E18.4554
G1 X164.348 Y60.797 E18.46039
G1 X165.009 Y60.806 E18.48238
G1 X165.992 Y60.864 E18.51513
G1 X166.301 Y60.896 E18.52546
G1 X167.229 Y61.032 E18.55666
G1 X168.11 Y61.238 E18.58675
G1 X168.373 Y61.311 E18.59583
G1 X169.265 Y61.6 E18.62701
G1 X170.13 Y61.964 E18.65823
G1 X170.666 Y62.236 E18.67822
G1 X171.091 Y62.466 E18.69429
G1 X171.896 Y62.947 E18.72548
G1 X172.658 Y63.495 E18.7567
G1 X173.27 Y64.014 E18.78339
G1 X173.544 Y64.264 E18.79572
G1 X174.209 Y64.925 E18.82691
G1 X174.864 Y65.702 E18.86071
G1 X175.083 Y65.988 E18.87269
G1 X175.621 Y66.757 E18.90391
G1 X176.091 Y67.568 E18.93508
G1 X176.49 Y68.415 E18.96622
G1 X176.669 Y68.841 E18.98159
G1 X176.995 Y69.72 E19.01277
G1 X177.335 Y71.049 E19.0584
G1 X177.388 Y71.328 E19.06784
G1 X177.523 Y72.256 E19.09903
G1 X177.573 Y72.958 E19.12244
G1 X177.59 Y73.4 E19.13715
G1 X177.598 Y73.823 E19.15123
G1 X177.599 Y129.758 E21.01163
G1 X177.599 Y129.761 E21.01173
G1 X177.59 Y160.567 E22.03634
G1 X177.589 Y160.713 E22.0412
G1 X177.58 Y161.378 E22.06332
G1 X177.527 Y162.314 E22.0945
G1 X177.449 Y162.93 E22.11515
G1 X177.418 Y163.128 E22.12182
G1 X177.233 Y164.048 E22.15303
G1 X177.095 Y164.558 E22.1706
G1 X177.019 Y164.814 E22.17948
G1 X176.714 Y165.7 E22.21065
G1 X176.416 Y166.39 E22.23565
G1 X176.309 Y166.616 E22.24397
G1 X175.872 Y167.446 E22.27516
G1 X175.564 Y167.943 E22.29461
G1 X175.419 Y168.164 E22.3034
G1 X174.872 Y168.926 E22.3346
G1 X174.331 Y169.563 E22.3624
G1 X174.144 Y169.767 E22.3716
G1 X173.481 Y170.431 E22.40281
G1 X172.765 Y171.035 E22.43397
G1 X172.531 Y171.216 E22.44381
G1 X171.766 Y171.758 E22.47499
G1 X171.068 Y172.172 E22.50198
G1 X170.804 Y172.316 E22.51198
G1 X169.963 Y172.729 E22.54315
G1 X169.284 Y173.001 E22.56747
G1 X169.019 Y173.097 E22.57685
G1 X168.124 Y173.379 E22.60806
G1 X167.21 Y173.583 E22.63921
G1 X166.953 Y173.629 E22.64789
G1 X166.024 Y173.755 E22.67907
G1 X165.47 Y173.792 E22.69754
G1 X165.035 Y173.81 E22.71202
G1 X164.58 Y173.819 E22.72716
G1 X110.03 Y173.82 E24.5415
G1 X110.026 Y173.82 E24.54163
G1 X107.508 Y173.819 E24.62538
G1 X107.359 Y173.818 E24.63033
G1 X106.711 Y173.809 E24.65189
G1 X105.795 Y173.758 E24.6824
G1 X104.545 Y173.636 E24.72417
G1 X104.363 Y173.617 E24.73026
G1 X104.069 Y173.583 E24.7401
G1 X101.589 Y173.372 E24.82289
G1 X99.105 Y173.231 E24.90564
G1 X96.547 Y173.159 E24.99075
G1 X94.06 Y173.159 E25.07347
G1 X91.502 Y173.231 E25.15858
G1 X89.018 Y173.372 E25.24133
G1 X86.502 Y173.586 E25.32532
G1 X85.093 Y173.737 E25.37245
G1 X84.454 Y173.786 E25.39377
G1 X84.039 Y173.806 E25.40759
G1 X83.507 Y173.819 E25.42529
G1 X69.387 Y173.816 E25.89492
G1 X69.24 Y173.815 E25.89981
G1 X68.575 Y173.806 E25.92193
G1 X67.261 Y173.709 E25.96575
G1 X67.03 Y173.678 E25.9735
G1 X65.714 Y173.419 E26.01811
G1 X65.511 Y173.366 E26.02509
G1 X64.615 Y173.091 E26.05626
G1 X63.745 Y172.74 E26.08747
G1 X63.149 Y172.448 E26.10954
G1 X62.642 Y172.18 E26.12861
G1 X61.833 Y171.707 E26.15978
G1 X61.066 Y171.166 E26.191
G1 X60.621 Y170.804 E26.21008
G1 X60.438 Y170.647 E26.2181
G1 X59.752 Y170.006 E26.24933
G1 X59.159 Y169.351 E26.27871
G1 X58.966 Y169.12 E26.28873
G1 X58.395 Y168.375 E26.31995
G1 X57.955 Y167.694 E26.34691
G1 X57.827 Y167.479 E26.35523
G1 X57.382 Y166.654 E26.38641
G1 X57.041 Y165.874 E26.41473
G1 X56.909 Y165.538 E26.42673
G1 X56.603 Y164.651 E26.45794
G1 X56.374 Y163.74 E26.48918
G1 X56.329 Y163.522 E26.49659
G1 X56.139 Y162.196 E26.54114
G1 X56.12 Y161.964 E26.54888
G1 X56.084 Y161.232 E26.57326
G1 X56.075 Y160.637 E26.59305
G1 X56.074 Y160.471 E26.59857
G1 X56.075 Y119.761 E27.95259
G1 X56.08 Y74.094 E29.47148
G1 X56.081 Y73.931 E29.4769
G1 X56.089 Y73.392 E29.49483
G1 X56.151 Y72.383 E29.52846
G1 X56.181 Y72.103 E29.53782
G1 X56.415 Y70.736 E29.58395
G1 X56.48 Y70.462 E29.59332
G1 X56.735 Y69.559 E29.62452
G1 X57.003 Y68.833 E29.65026
G1 X57.107 Y68.579 E29.65939
G1 X57.499 Y67.727 E29.69059
G1 X57.963 Y66.911 E29.72181
G1 X58.244 Y66.484 E29.73881
G1 X58.485 Y66.136 E29.75289
G1 X59.051 Y65.389 E29.78406
G1 X59.75 Y64.621 E29.8186
G1 X59.917 Y64.454 E29.82645
G0 F6000 X60.2 Y64.737
G1 F1200 X60.878 Y64.115 E29.85706
G1 X61.342 Y63.747 E29.87675
G1 X61.545 Y63.595 E29.88519
G1 X62.305 Y63.076 E29.9158
G1 X62.746 Y62.816 E29.93282
G1 X62.933 Y62.712 E29.93994
G1 X64.086 Y62.159 E29.98247
G1 X64.275 Y62.082 E29.98926
G1 X65.142 Y61.772 E30.01989
G1 X65.649 Y61.629 E30.03741
G1 X65.915 Y61.561 E30.04654
G1 X66.816 Y61.372 E30.07716
G1 X67.63 Y61.27 E30.10444
G1 X67.92 Y61.245 E30.11412
G1 X68.669 Y61.207 E30.13907
G1 X69.393 Y61.196 E30.16315
G1 X69.554 Y61.195 E30.16851
G1 X136.346 Y61.195 E32.39002
G1 X164.198 Y61.196 E33.31638
G1 X164.342 Y61.197 E33.32117
G1 X165.003 Y61.206 E33.34316
G1 X165.951 Y61.261 E33.37474
G1 X166.26 Y61.293 E33.38507
G1 X167.171 Y61.428 E33.4157
G1 X168.003 Y61.623 E33.44412
G1 X168.266 Y61.696 E33.4532
G1 X169.142 Y61.981 E33.48384
G1 X169.989 Y62.34 E33.51444
G1 X170.476 Y62.588 E33.53262
G1 X170.901 Y62.818 E33.54869
G1 X171.691 Y63.291 E33.57931
G1 X172.437 Y63.83 E33.60992
G1 X173.001 Y64.31 E33.63456
G1 X173.275 Y64.56 E33.64689
G1 X173.927 Y65.209 E33.67749
G1 X174.546 Y65.946 E33.7095
G1 X174.765 Y66.232 E33.72148
G1 X175.292 Y66.986 E33.75208
G1 X175.752 Y67.784 E33.78272
G1 X176.121 Y68.57 E33.8116
G1 X176.3 Y68.996 E33.82696
G1 X176.62 Y69.859 E33.85758
G1 X176.942 Y71.124 E33.90099
G1 X176.995 Y71.403 E33.91044
G1 X177.127 Y72.314 E33.94106
G1 X177.173 Y72.974 E33.96306
G1 X177.19 Y73.416 E33.97777
G1 X177.198 Y73.823 E33.99131
G1 X177.199 Y129.758 E35.85172
G1 X177.199 Y129.761 E35.85182
G1 X177.19 Y160.567 E36.87643
G1 X177.189 Y160.707 E36.88109
G1 X177.18 Y161.372 E36.90321
G1 X177.128 Y162.292 E36.93385
G1 X177.053 Y162.869 E36.95321
G1 X177.022 Y163.067 E36.95987
G1 X176.841 Y163.969 E36.99047
G1 X176.712 Y164.444 E37.00684
G1 X176.636 Y164.7 E37.01572
G1 X176.336 Y165.57 E37.04633
G1 X176.054 Y166.219 E37.06987
G1 X175.947 Y166.445 E37.07818
G1 X175.518 Y167.259 E37.10879
G1 X175.23 Y167.724 E37.12698
G1 X175.085 Y167.945 E37.13577
G1 X174.547 Y168.692 E37.16639
G1 X174.036 Y169.293 E37.19263
G1 X173.849 Y169.497 E37.20183
G1 X173.198 Y170.148 E37.23245
G1 X172.52 Y170.718 E37.26191
G1 X172.286 Y170.899 E37.27175
G1 X171.534 Y171.431 E37.30239
G1 X170.877 Y171.821 E37.3278
G1 X170.613 Y171.965 E37.3378
G1 X169.786 Y172.37 E37.36843
G1 X169.147 Y172.625 E37.39132
G1 X168.882 Y172.721 E37.40069
G1 X168.004 Y172.997 E37.4313
G1 X167.14 Y173.189 E37.46074
G1 X166.883 Y173.235 E37.46942
G1 X165.97 Y173.358 E37.50006
G1 X165.453 Y173.392 E37.5173
G1 X165.018 Y173.41 E37.53178
G1 X164.58 Y173.419 E37.54635
G1 X110.03 Y173.42 E39.36069
G1 X110.026 Y173.42 E39.36082
G1 X107.508 Y173.419 E39.44457
G1 X107.365 Y173.418 E39.44933
G1 X106.717 Y173.409 E39.47088
G1 X105.834 Y173.36 E39.50029
G1 X104.584 Y173.238 E39.54207
G1 X104.408 Y173.219 E39.54796
G1 X104.148 Y173.189 E39.55666
G1 X101.608 Y172.973 E39.64145
G1 X99.103 Y172.831 E39.7249
G1 X96.558 Y172.759 E39.80958
G1 X94.049 Y172.759 E39.89303
G1 X91.504 Y172.831 E39.97771
G1 X88.999 Y172.973 E40.06116
G1 X86.425 Y173.192 E40.14708
G1 X85.051 Y173.339 E40.19304
G1 X84.434 Y173.387 E40.21362
G1 X84.019 Y173.407 E40.22744
G1 X83.507 Y173.419 E40.24448
G1 X69.387 Y173.416 E40.71411
G1 X69.246 Y173.415 E40.7188
G1 X68.581 Y173.406 E40.74092
G1 X67.314 Y173.313 E40.78317
G1 X67.083 Y173.282 E40.79092
G1 X65.815 Y173.032 E40.83391
G1 X65.612 Y172.979 E40.84089
G1 X64.732 Y172.708 E40.87151
G1 X63.879 Y172.362 E40.90213
G1 X63.336 Y172.094 E40.92227
G1 X62.829 Y171.826 E40.94134
G1 X62.035 Y171.361 E40.97195
G1 X61.284 Y170.829 E41.00256
G1 X60.881 Y170.5 E41.01986
G1 X60.698 Y170.343 E41.02788
G1 X60.026 Y169.714 E41.0585
G1 X59.466 Y169.094 E41.08628
G1 X59.273 Y168.863 E41.0963
G1 X58.713 Y168.132 E41.12692
G1 X58.299 Y167.489 E41.15236
G1 X58.171 Y167.274 E41.16068
G1 X57.735 Y166.464 E41.19128
G1 X57.413 Y165.728 E41.218
G1 X57.281 Y165.392 E41.23
G1 X56.982 Y164.521 E41.26063
G1 X56.766 Y163.659 E41.29019
G1 X56.721 Y163.441 E41.29759
G1 X56.537 Y162.163 E41.34054
G1 X56.518 Y161.931 E41.34828
G1 X56.484 Y161.226 E41.37175
G1 X56.475 Y160.631 E41.39155
G1 X56.474 Y160.471 E41.39687
G1 X56.475 Y119.761 E42.75089
G1 X56.48 Y74.094 E44.26978
G1 X56.481 Y73.937 E44.275
G1 X56.489 Y73.398 E44.29293
G1 X56.548 Y72.426 E44.32532
G1 X56.578 Y72.146 E44.33468
G1 X56.804 Y70.828 E44.37916
G1 X56.869 Y70.554 E44.38853
G1 X57.12 Y69.669 E44.41912
G1 X57.373 Y68.984 E44.44341
G1 X57.477 Y68.73 E44.45254
G1 X57.863 Y67.894 E44.48317
G1 X58.573 Y66.712 E44.52903
G1 X58.814 Y66.364 E44.54311
G1 X59.37 Y65.631 E44.57371
G1 X60.033 Y64.904 E44.60643
G1 X60.2 Y64.737 E44.61429
G0 F6000 X60.483 Y65.02
G1 F1200 X61.149 Y64.41 E44.64432
G1 X61.581 Y64.067 E44.66267
G1 X61.784 Y63.915 E44.67111
G1 X62.531 Y63.406 E44.70117
G1 X62.94 Y63.166 E44.71694
G1 X63.127 Y63.062 E44.72406
G1 X64.237 Y62.53 E44.765
G1 X64.426 Y62.453 E44.77179
G1 X65.276 Y62.149 E44.80181
G1 X65.748 Y62.017 E44.81811
G1 X66.014 Y61.949 E44.82725
G1 X66.898 Y61.764 E44.85728
G1 X67.664 Y61.669 E44.88296
G1 X67.954 Y61.644 E44.89264
G1 X68.675 Y61.607 E44.91665
G1 X69.399 Y61.596 E44.94073
G1 X69.554 Y61.595 E44.94589
G1 X136.346 Y61.595 E47.1674
G1 X164.198 Y61.596 E48.09376
G1 X164.337 Y61.597 E48.09838
G1 X164.998 Y61.606 E48.12037
G1 X165.91 Y61.659 E48.15076
G1 X166.219 Y61.691 E48.16109
